ncols        1023
nrows        155
xllcorner    9.041388888915
yllcorner    47.128611111106
cellsize     0.000277777778
 416 416 416 417 416 416 415 415 415 415 417 418 418 419 418 417 418 417 417 417 416 416 416 416 416 416 416 417 419 418 417 417 416 416 418 419 421 422 421 421 421 422 423 423 425 427 429 431 430 428 426 428 435 435 434 436 439 443 444 445 448 453 455 457 460 466 470 476 482 487 494 506 523 538 544 549 557 562 566 574 581 588 595 597 604 620 633 637 642 661 674 682 686 692 701 710 715 725 739 749 757 768 783 803 822 830 828 831 838 850 863 875 894 912 925 938 950 959 966 965 966 976 987 1000 1019 1033 1048 1065 1071 1076 1084 1094 1101 1110 1122 1132 1142 1158 1177 1196 1210 1229 1253 1266 1279 1289 1300 1310 1324 1340 1353 1373 1389 1393 1384 1370 1365 1362 1364 1355 1345 1346 1348 1355 1363 1368 1367 1371 1374 1380 1384 1390 1398 1403 1408 1416 1423 1430 1435 1438 1443 1449 1453 1458 1463 1472 1478 1484 1491 1500 1514 1521 1526 1535 1543 1550 1557 1565 1584 1596 1590 1588 1594 1598 1602 1610 1617 1624 1634 1648 1655 1664 1675 1685 1693 1692 1686 1675 1664 1655 1645 1635 1625 1615 1609 1607 1600 1594 1590 1582 1578 1574 1563 1558 1551 1541 1534 1529 1527 1519 1511 1496 1484 1478 1473 1468 1458 1444 1433 1421 1410 1396 1383 1371 1362 1354 1347 1339 1334 1330 1328 1324 1320 1321 1329 1336 1347 1356 1364 1371 1377 1384 1391 1401 1412 1419 1420 1420 1420 1423 1426 1428 1435 1436 1432 1430 1424 1425 1432 1438 1444 1448 1450 1454 1459 1465 1472 1480 1491 1497 1497 1495 1497 1500 1502 1503 1504 1505 1506 1507 1511 1518 1524 1530 1539 1546 1557 1567 1574 1583 1590 1594 1594 1593 1595 1596 1595 1594 1591 1590 1594 1602 1611 1620 1631 1636 1635 1629 1625 1625 1627 1630 1638 1644 1643 1646 1653 1657 1660 1667 1676 1690 1734 1784 1805 1812 1808 1801 1786 1771 1755 1738 1719 1708 1697 1689 1682 1676 1671 1666 1658 1648 1640 1630 1623 1619 1617 1616 1619 1620 1622 1626 1636 1651 1660 1663 1669 1679 1691 1704 1715 1725 1728 1729 1731 1731 1729 1727 1716 1707 1695 1693 1690 1686 1681 1679 1682 1680 1676 1666 1655 1648 1640 1633 1629 1628 1626 1622 1618 1607 1573 1529 1495 1472 1459 1454 1451 1446 1445 1443 1443 1443 1442 1439 1434 1428 1420 1417 1414 1413 1413 1414 1415 1417 1419 1420 1420 1419 1417 1414 1409 1405 1402 1397 1391 1386 1381 1377 1374 1370 1366 1364 1362 1357 1348 1347 1356 1366 1371 1371 1372 1376 1385 1395 1406 1421 1435 1445 1464 1479 1491 1508 1522 1531 1539 1548 1559 1572 1590 1609 1624 1636 1643 1647 1654 1660 1668 1676 1681 1686 1688 1679 1655 1617 1585 1571 1568 1572 1587 1596 1595 1592 1590 1592 1600 1609 1605 1600 1600 1601 1601 1601 1598 1596 1590 1583 1574 1568 1560 1540 1520 1509 1503 1500 1494 1491 1490 1490 1498 1501 1500 1501 1503 1505 1503 1504 1504 1511 1517 1516 1502 1493 1495 1494 1492 1490 1489 1488 1486 1483 1482 1478 1473 1474 1477 1481 1485 1487 1490 1489 1493 1492 1486 1480 1475 1473 1475 1473 1470 1471 1473 1471 1474 1480 1481 1482 1488 1496 1502 1502 1502 1502 1501 1500 1498 1496 1493 1489 1483 1478 1474 1470 1466 1461 1455 1450 1446 1441 1438 1436 1433 1430 1429 1424 1420 1419 1415 1409 1405 1399 1394 1391 1388 1385 1383 1384 1385 1384 1386 1383 1382 1386 1387 1391 1389 1389 1396 1394 1388 1386 1386 1381 1376 1376 1366 1361 1359 1355 1352 1345 1334 1323 1309 1301 1294 1288 1284 1283 1281 1282 1284 1288 1287 1286 1284 1278 1275 1274 1268 1262 1258 1253 1247 1239 1229 1220 1214 1206 1196 1182 1178 1179 1173 1159 1152 1143 1137 1136 1133 1130 1126 1117 1110 1107 1098 1081 1074 1079 1081 1084 1088 1090 1091 1091 1094 1098 1102 1110 1118 1126 1133 1139 1143 1147 1155 1165 1179 1196 1210 1220 1231 1239 1256 1278 1289 1293 1295 1295 1302 1315 1341 1361 1375 1389 1405 1422 1433 1442 1454 1461 1469 1474 1478 1484 1489 1489 1493 1504 1514 1520 1528 1536 1538 1539 1542 1548 1549 1548 1550 1553 1569 1584 1591 1599 1606 1612 1618 1617 1609 1594 1579 1573 1559 1540 1534 1527 1519 1513 1505 1497 1496 1498 1504 1514 1522 1533 1543 1547 1544 1541 1542 1548 1551 1555 1556 1555 1551 1546 1542 1536 1530 1522 1517 1512 1507 1505 1509 1510 1513 1515 1521 1525 1529 1528 1528 1532 1534 1531 1529 1527 1524 1515 1507 1500 1494 1496 1499 1504 1512 1519 1521 1522 1524 1524 1525 1533 1539 1546 1551 1553 1549 1543 1545 1551 1556 1560 1562 1563 1561 1558 1558 1562 1563 1563 1562 1563 1563 1561 1556 1538 1523 1520 1520 1522 1524 1522 1521 1522 1523 1526 1525 1523 1523 1522 1516 1502 1491 1486 1486 1486 1483 1483 1482 1482 1482 1483 1486 1488 1490 1493 1494 1495 1494 1495 1495 1493 1490 1479 1472 1469 1464 1461 1458 1461 1474 1485 1491 1499 1502 1504 1507 1508 1510 1514 1512 1509 1506 1505 1509 1517 1519 1520 1522 1529 1542 1569 1598 1609 1616 1612 1612 1614 1615 1610 1596 1587 1583 1581 1584 1583 1579 1574 1570 1566 1564 1561 1562 1562 1561 1555 1548 1545 1542 1541 1542 1545 1553 1558 1559 1563 1565 1568 1578 1587 1596 1606 1612 1613 1613 1617 1625 1638 1655 1673 1680 1682 1677 1677 1681 1688 1693 1699 1711 1721 1731 1749 1767 1778 1790 1798 1803 1809 1812 1816 1821 1824 1828 1832 1836 1839 1841 1842 1844 1846 1847 1848 1851 1852 1841 1816 1786 1752 1717 1685 1674 1667 1665 1667 1669 1671 1674 1678 1680
 417 417 417 415 414 415 415 414 415 415 416 416 417 418 417 416 416 416 416 416 417 416 416 416 416 416 417 418 420 422 422 419 417 417 418 419 420 421 421 421 423 425 425 424 425 427 430 431 430 428 426 430 435 431 429 432 436 440 441 436 438 448 455 460 466 470 475 485 500 504 509 520 526 533 541 544 551 559 562 568 580 588 599 607 614 623 633 641 650 661 670 675 681 686 696 708 720 730 747 759 772 785 796 814 824 827 829 838 849 862 875 884 892 903 920 940 955 967 978 987 994 998 1004 1019 1032 1045 1057 1074 1084 1087 1091 1100 1112 1130 1147 1160 1171 1178 1186 1200 1221 1243 1261 1275 1285 1297 1311 1321 1334 1351 1370 1387 1404 1418 1422 1408 1396 1387 1382 1378 1366 1362 1366 1370 1378 1391 1390 1388 1390 1397 1401 1409 1416 1420 1424 1430 1438 1444 1446 1450 1456 1463 1469 1472 1479 1489 1493 1499 1506 1515 1527 1534 1541 1548 1557 1565 1572 1578 1590 1599 1600 1599 1608 1620 1630 1636 1645 1653 1664 1682 1694 1698 1702 1699 1690 1681 1672 1658 1648 1640 1628 1618 1609 1600 1597 1594 1589 1581 1573 1565 1559 1552 1540 1533 1525 1517 1507 1501 1497 1494 1494 1494 1489 1486 1486 1484 1479 1462 1444 1434 1420 1405 1391 1369 1353 1347 1340 1331 1326 1324 1323 1321 1319 1323 1332 1342 1352 1363 1370 1377 1381 1388 1393 1396 1401 1406 1406 1407 1409 1416 1423 1429 1429 1424 1419 1415 1416 1421 1426 1433 1439 1441 1446 1450 1455 1463 1473 1478 1482 1483 1484 1485 1486 1488 1494 1494 1494 1497 1501 1506 1513 1522 1529 1535 1543 1550 1561 1569 1578 1588 1598 1606 1612 1617 1623 1630 1634 1637 1642 1650 1658 1663 1665 1668 1671 1677 1679 1677 1676 1678 1681 1687 1697 1706 1705 1701 1697 1695 1698 1712 1732 1755 1786 1810 1817 1814 1801 1784 1764 1747 1731 1709 1691 1680 1674 1671 1668 1664 1660 1654 1642 1633 1627 1621 1617 1612 1610 1611 1614 1617 1621 1623 1626 1632 1637 1644 1654 1664 1671 1677 1683 1688 1692 1699 1706 1703 1700 1697 1696 1696 1691 1687 1683 1675 1659 1652 1658 1660 1660 1652 1637 1625 1618 1615 1612 1613 1614 1606 1593 1574 1544 1506 1481 1467 1461 1456 1449 1446 1445 1445 1445 1444 1441 1434 1428 1424 1419 1415 1411 1410 1410 1412 1414 1417 1419 1420 1420 1419 1416 1413 1409 1404 1397 1392 1389 1385 1381 1377 1375 1373 1371 1370 1366 1363 1356 1349 1347 1349 1359 1365 1368 1373 1386 1396 1405 1419 1432 1443 1457 1473 1483 1496 1507 1515 1530 1540 1549 1563 1580 1595 1606 1613 1620 1631 1638 1646 1652 1655 1657 1661 1665 1664 1649 1626 1604 1594 1600 1622 1644 1646 1646 1647 1658 1667 1672 1675 1672 1665 1664 1661 1654 1643 1631 1625 1617 1606 1593 1579 1566 1552 1535 1522 1511 1508 1502 1496 1497 1500 1508 1512 1513 1516 1520 1520 1519 1514 1513 1515 1515 1515 1511 1501 1496 1494 1494 1494 1495 1494 1490 1486 1483 1480 1478 1481 1486 1491 1497 1498 1497 1498 1502 1500 1497 1489 1487 1490 1496 1492 1494 1501 1501 1493 1490 1492 1495 1497 1503 1509 1509 1507 1506 1506 1502 1499 1498 1494 1487 1485 1479 1474 1472 1466 1456 1448 1442 1442 1440 1433 1427 1426 1424 1421 1420 1416 1413 1411 1407 1405 1402 1399 1397 1395 1396 1395 1393 1391 1392 1395 1397 1396 1396 1396 1395 1399 1401 1401 1405 1399 1392 1391 1386 1378 1376 1374 1367 1360 1354 1350 1339 1326 1318 1317 1310 1295 1288 1284 1281 1280 1281 1282 1281 1281 1282 1282 1279 1276 1271 1267 1260 1253 1249 1244 1237 1229 1221 1215 1210 1201 1194 1186 1181 1177 1166 1150 1147 1144 1140 1136 1128 1123 1120 1114 1106 1097 1088 1081 1081 1087 1092 1093 1095 1099 1102 1104 1107 1110 1116 1130 1136 1146 1153 1159 1162 1166 1175 1187 1206 1227 1244 1256 1262 1273 1292 1304 1314 1324 1327 1320 1319 1335 1365 1387 1400 1413 1429 1447 1461 1471 1476 1481 1490 1495 1504 1508 1509 1511 1518 1531 1538 1544 1548 1550 1554 1557 1559 1567 1572 1566 1562 1563 1576 1589 1597 1606 1615 1620 1623 1624 1621 1604 1590 1577 1555 1540 1533 1522 1514 1512 1509 1506 1507 1509 1517 1524 1530 1540 1547 1550 1549 1548 1550 1553 1556 1561 1562 1559 1555 1552 1549 1547 1543 1535 1528 1521 1518 1516 1516 1520 1524 1527 1529 1535 1538 1539 1538 1539 1540 1539 1537 1534 1529 1521 1511 1498 1492 1496 1504 1508 1515 1523 1527 1526 1526 1526 1527 1533 1540 1547 1550 1549 1545 1543 1543 1548 1553 1557 1560 1561 1560 1557 1558 1561 1562 1563 1563 1563 1563 1561 1556 1537 1523 1516 1513 1517 1523 1525 1523 1522 1523 1525 1526 1525 1524 1523 1519 1506 1494 1488 1490 1492 1490 1487 1485 1484 1484 1488 1491 1493 1494 1495 1497 1497 1495 1497 1497 1492 1487 1482 1477 1474 1468 1465 1464 1472 1483 1494 1500 1506 1508 1509 1513 1515 1519 1519 1520 1515 1511 1512 1518 1525 1527 1525 1529 1540 1554 1576 1600 1613 1619 1619 1619 1620 1618 1613 1603 1592 1587 1587 1593 1593 1588 1583 1579 1571 1569 1571 1575 1574 1574 1568 1560 1558 1554 1549 1547 1551 1559 1562 1563 1567 1571 1579 1592 1599 1605 1614 1618 1618 1620 1621 1626 1635 1644 1658 1669 1674 1674 1674 1680 1689 1700 1709 1717 1730 1741 1763 1779 1791 1801 1808 1813 1819 1823 1828 1832 1836 1838 1842 1845 1848 1851 1852 1855 1857 1856 1859 1864 1865 1863 1849 1820 1783 1736 1698 1686 1679 1674 1677 1680 1682 1683 1686 1689
 417 417 416 414 414 415 415 415 415 415 415 415 415 416 416 416 416 416 416 417 418 418 416 416 417 417 417 418 420 422 422 421 419 418 418 419 419 421 421 421 424 428 428 425 425 426 429 430 430 430 427 426 432 432 430 431 434 436 435 433 438 447 457 466 475 483 487 505 519 519 523 526 528 531 535 540 546 554 559 566 578 588 601 609 616 624 632 636 643 653 659 663 675 687 703 725 738 748 759 769 782 795 807 819 827 827 833 844 859 874 886 895 904 910 918 932 949 967 981 992 1005 1015 1027 1035 1043 1050 1059 1073 1088 1096 1108 1122 1133 1150 1162 1172 1185 1202 1213 1216 1230 1248 1262 1277 1290 1306 1320 1329 1346 1365 1381 1398 1419 1433 1438 1429 1418 1406 1396 1390 1384 1378 1381 1384 1388 1400 1405 1403 1405 1410 1415 1422 1427 1433 1437 1441 1449 1454 1459 1465 1470 1476 1479 1484 1494 1503 1507 1514 1522 1530 1538 1548 1553 1561 1569 1578 1585 1591 1598 1603 1611 1626 1645 1659 1664 1661 1671 1682 1696 1714 1723 1720 1708 1693 1676 1664 1654 1643 1637 1628 1617 1607 1599 1591 1584 1578 1570 1559 1551 1542 1534 1530 1526 1520 1513 1504 1498 1494 1493 1493 1499 1505 1501 1492 1485 1480 1476 1463 1441 1430 1417 1403 1389 1369 1351 1342 1334 1327 1324 1320 1320 1321 1322 1326 1333 1347 1360 1367 1372 1380 1386 1392 1391 1393 1400 1405 1403 1401 1404 1410 1415 1415 1412 1414 1414 1411 1412 1417 1421 1426 1430 1436 1443 1450 1454 1460 1468 1473 1475 1474 1473 1475 1480 1483 1485 1488 1490 1496 1506 1512 1518 1526 1533 1542 1549 1558 1567 1576 1586 1597 1608 1620 1637 1657 1673 1687 1690 1687 1693 1707 1716 1717 1712 1707 1706 1709 1709 1711 1714 1719 1724 1728 1737 1752 1760 1755 1746 1744 1747 1763 1786 1803 1815 1819 1816 1808 1793 1776 1756 1734 1717 1694 1679 1669 1662 1657 1652 1648 1644 1640 1636 1630 1626 1620 1613 1607 1604 1606 1610 1614 1617 1617 1617 1620 1626 1635 1643 1646 1650 1653 1659 1666 1673 1679 1685 1684 1679 1675 1675 1676 1669 1671 1668 1656 1640 1634 1635 1635 1635 1631 1620 1610 1603 1599 1596 1589 1582 1573 1558 1546 1527 1497 1477 1467 1461 1455 1450 1448 1446 1445 1444 1441 1436 1428 1423 1420 1415 1411 1408 1408 1409 1411 1414 1417 1419 1420 1420 1419 1416 1414 1410 1403 1397 1394 1390 1385 1382 1378 1375 1373 1371 1369 1367 1364 1362 1360 1349 1344 1349 1361 1367 1371 1379 1388 1399 1414 1426 1438 1450 1462 1470 1482 1494 1503 1517 1531 1540 1555 1566 1576 1586 1596 1603 1615 1624 1629 1634 1637 1640 1643 1648 1648 1641 1635 1627 1627 1633 1658 1692 1706 1710 1709 1711 1711 1707 1701 1695 1687 1680 1675 1667 1657 1646 1633 1620 1605 1590 1571 1557 1545 1534 1525 1516 1516 1516 1516 1520 1523 1529 1535 1539 1542 1541 1539 1535 1528 1520 1514 1512 1514 1514 1508 1498 1493 1494 1496 1499 1494 1489 1487 1488 1486 1484 1487 1490 1497 1502 1503 1504 1506 1508 1507 1505 1502 1500 1505 1508 1510 1513 1515 1515 1513 1508 1509 1512 1513 1515 1514 1512 1512 1514 1513 1509 1501 1497 1492 1487 1488 1483 1474 1471 1464 1457 1449 1440 1438 1435 1429 1428 1425 1423 1421 1420 1417 1415 1415 1413 1413 1412 1408 1408 1404 1404 1406 1404 1404 1405 1405 1406 1406 1407 1408 1411 1410 1406 1407 1407 1399 1393 1391 1386 1380 1377 1372 1365 1357 1348 1335 1323 1318 1312 1314 1306 1292 1289 1284 1279 1281 1287 1286 1281 1277 1277 1275 1272 1270 1263 1253 1245 1240 1236 1232 1228 1221 1215 1209 1202 1196 1190 1184 1173 1166 1155 1146 1146 1148 1145 1136 1117 1113 1115 1112 1102 1089 1084 1087 1092 1097 1099 1100 1103 1109 1113 1115 1120 1122 1131 1144 1154 1166 1177 1180 1184 1190 1199 1214 1234 1255 1268 1280 1291 1306 1318 1325 1336 1347 1350 1342 1341 1355 1381 1408 1420 1437 1457 1472 1479 1487 1492 1499 1505 1512 1522 1526 1526 1529 1538 1543 1549 1556 1559 1562 1570 1574 1575 1577 1579 1577 1572 1573 1587 1598 1606 1614 1618 1622 1625 1627 1627 1613 1597 1583 1558 1546 1542 1526 1514 1510 1509 1512 1513 1518 1528 1533 1539 1545 1550 1551 1551 1551 1553 1556 1560 1563 1564 1562 1557 1553 1551 1550 1548 1543 1533 1526 1523 1522 1522 1525 1530 1533 1536 1541 1544 1547 1546 1543 1543 1546 1544 1538 1532 1522 1511 1496 1492 1497 1506 1510 1516 1526 1530 1530 1527 1528 1529 1530 1536 1543 1547 1546 1545 1544 1544 1548 1554 1556 1557 1558 1557 1556 1558 1561 1561 1564 1566 1565 1564 1561 1555 1540 1527 1517 1515 1516 1523 1527 1525 1523 1524 1524 1525 1525 1524 1524 1520 1507 1495 1490 1494 1497 1497 1494 1489 1485 1487 1492 1497 1497 1497 1498 1500 1500 1497 1497 1497 1494 1488 1485 1482 1479 1472 1468 1471 1483 1491 1498 1502 1508 1511 1514 1519 1522 1524 1526 1526 1522 1519 1521 1525 1530 1532 1533 1540 1551 1564 1582 1606 1618 1624 1625 1626 1625 1622 1614 1606 1598 1594 1596 1600 1601 1599 1590 1584 1578 1578 1580 1584 1583 1584 1579 1567 1564 1562 1558 1553 1556 1561 1564 1567 1571 1575 1586 1596 1602 1609 1618 1623 1624 1625 1627 1632 1637 1641 1646 1652 1658 1663 1666 1675 1691 1708 1715 1727 1738 1751 1773 1791 1802 1810 1816 1822 1829 1834 1840 1844 1846 1849 1852 1854 1857 1859 1861 1862 1863 1865 1867 1870 1871 1874 1869 1844 1810 1760 1718 1698 1689 1685 1686 1688 1690 1690 1692 1695
 415 415 415 415 415 415 414 415 415 415 415 415 415 415 417 416 415 416 417 417 417 418 417 416 418 419 418 418 418 419 418 419 419 419 419 420 420 421 421 422 423 425 425 423 424 425 428 430 430 431 430 430 432 433 433 432 433 435 437 444 449 464 481 496 506 505 508 520 521 522 522 523 526 530 535 541 550 559 565 573 582 590 602 612 622 634 642 644 647 655 664 676 689 697 713 732 747 759 770 778 786 794 812 828 837 844 856 862 870 880 896 907 917 924 929 937 952 967 986 999 1012 1026 1036 1043 1050 1059 1070 1082 1100 1115 1131 1145 1154 1163 1171 1181 1203 1225 1236 1240 1236 1246 1262 1282 1298 1316 1329 1341 1359 1379 1397 1414 1434 1443 1450 1442 1429 1420 1407 1405 1400 1395 1396 1402 1404 1413 1423 1422 1424 1428 1430 1434 1442 1447 1451 1453 1460 1467 1474 1482 1488 1493 1496 1503 1512 1518 1524 1531 1539 1546 1553 1562 1571 1579 1587 1594 1602 1612 1619 1625 1647 1669 1684 1696 1698 1693 1700 1712 1727 1730 1729 1720 1705 1690 1669 1652 1638 1626 1616 1608 1598 1589 1581 1569 1557 1549 1542 1538 1531 1521 1521 1521 1517 1511 1502 1499 1500 1500 1499 1498 1502 1503 1492 1486 1477 1467 1461 1450 1436 1426 1413 1400 1382 1363 1349 1341 1331 1323 1321 1322 1323 1324 1325 1329 1336 1351 1356 1364 1372 1380 1386 1386 1386 1392 1394 1395 1395 1399 1401 1403 1402 1407 1409 1411 1410 1407 1407 1410 1415 1420 1425 1433 1444 1449 1451 1458 1466 1469 1468 1466 1466 1468 1472 1476 1481 1485 1491 1500 1508 1515 1524 1531 1538 1548 1559 1570 1578 1588 1596 1606 1618 1634 1662 1694 1723 1749 1755 1748 1746 1757 1768 1771 1764 1756 1751 1750 1751 1754 1763 1773 1779 1785 1796 1814 1827 1826 1815 1806 1807 1818 1827 1827 1821 1814 1806 1793 1776 1761 1743 1721 1704 1689 1676 1664 1654 1645 1641 1638 1638 1638 1640 1638 1630 1620 1611 1605 1602 1603 1608 1612 1614 1615 1614 1614 1617 1627 1633 1633 1632 1632 1637 1645 1653 1659 1666 1664 1658 1651 1649 1645 1641 1649 1650 1644 1626 1616 1612 1614 1616 1617 1609 1596 1579 1574 1566 1556 1547 1537 1527 1517 1504 1486 1474 1463 1458 1454 1451 1450 1447 1445 1441 1435 1432 1424 1418 1415 1411 1407 1406 1407 1411 1413 1416 1418 1420 1421 1419 1418 1417 1414 1408 1401 1397 1393 1390 1385 1382 1379 1375 1372 1370 1366 1364 1363 1362 1359 1349 1341 1344 1353 1361 1368 1372 1378 1387 1400 1413 1425 1439 1449 1457 1470 1485 1496 1503 1515 1526 1538 1550 1562 1571 1582 1592 1603 1609 1611 1613 1611 1613 1618 1622 1633 1640 1645 1653 1660 1676 1705 1735 1750 1755 1755 1750 1744 1735 1717 1705 1686 1674 1667 1660 1650 1639 1625 1613 1601 1585 1569 1555 1542 1533 1532 1539 1551 1558 1565 1568 1568 1566 1569 1566 1560 1553 1546 1541 1532 1523 1513 1511 1514 1515 1511 1506 1500 1496 1495 1496 1495 1493 1496 1497 1496 1494 1493 1496 1501 1504 1506 1509 1510 1511 1512 1512 1513 1515 1517 1520 1525 1527 1528 1527 1525 1527 1529 1527 1524 1522 1519 1517 1519 1520 1518 1514 1507 1498 1493 1492 1492 1488 1477 1472 1468 1463 1459 1449 1443 1441 1436 1437 1439 1435 1432 1431 1429 1429 1433 1433 1430 1427 1422 1418 1420 1420 1418 1417 1418 1421 1419 1418 1420 1420 1418 1417 1415 1413 1410 1408 1399 1393 1390 1383 1376 1372 1366 1355 1342 1329 1322 1316 1306 1302 1302 1297 1294 1294 1285 1279 1283 1285 1282 1274 1269 1270 1265 1261 1255 1247 1240 1235 1234 1229 1223 1218 1214 1209 1203 1198 1191 1186 1174 1162 1158 1152 1143 1140 1143 1142 1132 1115 1113 1113 1106 1094 1089 1092 1097 1101 1104 1107 1111 1118 1122 1125 1133 1141 1139 1148 1165 1176 1186 1200 1207 1213 1224 1240 1259 1272 1282 1296 1313 1323 1336 1351 1360 1368 1376 1374 1365 1364 1372 1396 1426 1444 1463 1482 1492 1499 1507 1513 1520 1524 1531 1538 1546 1551 1552 1553 1560 1565 1571 1574 1577 1583 1588 1591 1590 1589 1590 1589 1590 1598 1606 1613 1619 1622 1624 1626 1631 1630 1622 1605 1591 1567 1553 1550 1541 1525 1515 1514 1517 1521 1532 1539 1542 1547 1552 1554 1553 1553 1555 1559 1564 1568 1569 1567 1565 1563 1562 1561 1560 1554 1547 1541 1534 1531 1531 1530 1532 1536 1538 1541 1545 1549 1553 1557 1557 1553 1550 1550 1545 1537 1523 1511 1497 1493 1495 1504 1511 1518 1526 1531 1533 1530 1529 1530 1533 1538 1544 1546 1546 1549 1549 1547 1549 1554 1556 1556 1556 1555 1556 1558 1558 1559 1560 1561 1562 1563 1560 1554 1545 1536 1528 1524 1523 1523 1524 1524 1525 1526 1525 1526 1527 1527 1525 1522 1510 1500 1495 1497 1499 1500 1499 1494 1488 1489 1495 1502 1503 1503 1504 1502 1502 1499 1498 1496 1492 1488 1487 1487 1486 1479 1477 1482 1492 1498 1502 1507 1515 1518 1522 1529 1532 1532 1532 1530 1527 1529 1531 1530 1534 1540 1544 1552 1564 1574 1590 1609 1626 1635 1639 1639 1636 1628 1617 1610 1603 1601 1604 1609 1609 1605 1601 1594 1589 1590 1593 1597 1593 1590 1584 1577 1573 1570 1567 1563 1565 1568 1573 1577 1580 1584 1594 1601 1609 1618 1629 1633 1634 1637 1639 1642 1645 1649 1651 1652 1653 1653 1658 1668 1687 1710 1725 1743 1751 1764 1785 1804 1813 1820 1830 1838 1842 1844 1848 1852 1855 1858 1861 1864 1865 1867 1870 1870 1873 1876 1877 1878 1881 1884 1883 1862 1830 1789 1747 1725 1708 1700 1699 1696 1695 1696 1698 1704
 413 413 415 415 415 415 414 415 415 414 414 415 415 416 417 416 415 416 417 416 417 417 417 418 419 419 418 418 418 419 419 419 418 417 418 419 420 420 421 422 423 423 424 424 425 426 427 429 429 429 431 433 434 435 436 436 433 435 441 450 466 493 502 507 511 511 511 513 515 516 518 521 524 530 539 547 557 564 571 577 588 594 601 609 617 628 640 648 659 669 676 683 690 695 704 722 742 761 777 786 791 802 821 835 846 860 873 877 881 890 901 911 923 932 939 950 965 976 988 1000 1015 1035 1045 1054 1063 1075 1087 1103 1122 1133 1145 1159 1169 1182 1195 1207 1223 1239 1251 1258 1265 1269 1275 1292 1305 1323 1336 1351 1373 1393 1408 1422 1441 1451 1462 1460 1445 1430 1420 1420 1417 1415 1414 1417 1423 1427 1440 1444 1441 1443 1446 1451 1458 1463 1468 1471 1476 1481 1489 1498 1504 1510 1517 1526 1531 1533 1539 1549 1557 1564 1573 1581 1588 1596 1605 1614 1625 1635 1646 1660 1682 1697 1717 1728 1730 1735 1739 1741 1737 1724 1713 1701 1686 1676 1662 1648 1634 1619 1606 1597 1587 1578 1570 1561 1552 1543 1535 1528 1524 1519 1515 1513 1509 1507 1505 1505 1505 1505 1501 1493 1484 1473 1464 1460 1454 1452 1451 1444 1431 1421 1409 1394 1379 1358 1341 1333 1325 1321 1321 1320 1320 1324 1326 1330 1336 1344 1352 1359 1368 1377 1378 1380 1385 1386 1386 1386 1389 1393 1393 1394 1397 1408 1414 1415 1407 1403 1402 1406 1413 1419 1425 1432 1439 1445 1450 1457 1458 1456 1455 1457 1460 1464 1469 1474 1480 1488 1495 1503 1510 1517 1526 1533 1543 1555 1567 1578 1588 1599 1608 1618 1632 1651 1678 1706 1736 1766 1779 1781 1790 1806 1821 1825 1819 1811 1802 1799 1801 1808 1819 1827 1835 1844 1855 1867 1872 1870 1861 1852 1846 1840 1832 1822 1810 1798 1788 1774 1757 1743 1725 1708 1697 1685 1671 1661 1651 1645 1643 1644 1644 1644 1644 1643 1637 1623 1610 1603 1599 1600 1605 1610 1616 1621 1619 1615 1612 1613 1614 1609 1607 1611 1617 1624 1633 1638 1642 1637 1635 1628 1627 1629 1624 1621 1617 1608 1600 1595 1593 1597 1596 1587 1574 1563 1547 1539 1534 1527 1514 1506 1496 1485 1479 1472 1463 1458 1456 1454 1453 1448 1443 1441 1437 1431 1424 1415 1411 1409 1407 1406 1407 1412 1415 1417 1418 1419 1421 1421 1418 1416 1416 1412 1406 1400 1396 1393 1389 1385 1382 1380 1376 1372 1369 1364 1362 1361 1361 1358 1352 1340 1340 1348 1354 1359 1364 1370 1378 1387 1397 1407 1419 1436 1446 1459 1474 1485 1494 1503 1511 1522 1534 1548 1564 1573 1582 1591 1590 1585 1584 1587 1589 1598 1605 1616 1631 1645 1657 1670 1700 1729 1751 1769 1777 1775 1763 1753 1742 1720 1703 1680 1667 1659 1649 1637 1626 1615 1603 1594 1585 1573 1563 1555 1557 1573 1594 1604 1603 1599 1594 1591 1588 1582 1573 1562 1555 1547 1539 1525 1518 1512 1511 1512 1512 1510 1509 1508 1505 1502 1499 1498 1501 1505 1505 1505 1506 1507 1508 1508 1508 1510 1513 1513 1514 1518 1522 1524 1526 1527 1532 1538 1542 1543 1543 1541 1539 1538 1534 1529 1527 1525 1526 1528 1527 1523 1519 1511 1505 1498 1495 1490 1484 1479 1473 1468 1464 1461 1457 1454 1452 1449 1451 1450 1449 1449 1449 1451 1451 1450 1445 1442 1440 1437 1435 1436 1434 1431 1431 1432 1427 1422 1419 1421 1420 1415 1414 1411 1411 1408 1404 1393 1383 1379 1374 1366 1359 1345 1334 1329 1319 1312 1304 1299 1295 1293 1290 1286 1283 1279 1279 1282 1282 1276 1266 1262 1256 1253 1251 1244 1238 1234 1230 1224 1214 1215 1210 1202 1199 1199 1192 1185 1183 1166 1157 1159 1157 1144 1139 1142 1143 1136 1117 1112 1110 1098 1091 1095 1103 1105 1109 1117 1121 1123 1128 1134 1140 1146 1154 1160 1166 1176 1192 1203 1209 1221 1236 1261 1281 1292 1303 1319 1330 1342 1350 1365 1378 1384 1390 1397 1395 1386 1381 1389 1409 1444 1461 1482 1498 1505 1512 1521 1529 1539 1546 1547 1552 1561 1569 1575 1574 1575 1579 1583 1586 1592 1596 1598 1599 1601 1603 1604 1606 1607 1612 1618 1621 1623 1625 1626 1629 1632 1631 1625 1610 1596 1580 1565 1555 1546 1536 1527 1523 1525 1531 1540 1546 1554 1560 1561 1560 1561 1562 1565 1572 1574 1575 1574 1573 1573 1575 1574 1575 1573 1564 1553 1543 1540 1538 1536 1536 1540 1545 1549 1553 1555 1559 1562 1566 1569 1565 1557 1554 1549 1539 1524 1507 1497 1493 1494 1503 1514 1523 1529 1534 1534 1532 1531 1533 1536 1542 1549 1548 1548 1549 1548 1548 1550 1554 1556 1557 1557 1556 1556 1555 1556 1558 1558 1559 1561 1561 1558 1552 1543 1535 1529 1524 1525 1528 1527 1526 1526 1527 1529 1528 1528 1529 1529 1525 1518 1507 1499 1500 1501 1502 1501 1496 1490 1492 1502 1508 1507 1507 1508 1507 1505 1503 1499 1497 1494 1491 1492 1493 1491 1487 1485 1491 1499 1503 1508 1514 1520 1523 1528 1534 1538 1539 1539 1537 1535 1537 1537 1537 1543 1551 1557 1566 1577 1585 1597 1614 1635 1645 1652 1655 1650 1642 1631 1623 1616 1613 1613 1612 1610 1608 1608 1606 1604 1602 1603 1604 1601 1596 1587 1583 1579 1575 1573 1572 1572 1576 1583 1587 1589 1594 1601 1612 1624 1633 1637 1642 1645 1648 1650 1653 1656 1657 1658 1658 1656 1654 1657 1664 1682 1707 1737 1754 1764 1775 1798 1815 1825 1835 1843 1848 1849 1851 1856 1860 1864 1867 1870 1872 1875 1877 1880 1882 1885 1888 1889 1889 1890 1892 1894 1880 1846 1810 1771 1745 1723 1713 1710 1706 1707 1706 1708 1713
 411 411 414 415 415 415 415 415 415 414 414 415 416 417 416 415 416 416 416 417 417 417 417 417 418 418 418 418 418 420 420 419 417 415 416 418 419 419 420 421 422 423 424 425 426 427 429 430 430 430 432 433 434 437 437 437 435 437 445 456 481 501 503 504 505 505 506 509 511 513 518 521 524 535 544 553 562 570 577 585 592 598 604 609 617 624 633 642 656 669 676 681 688 695 707 720 736 764 785 791 795 803 819 836 857 873 890 893 890 896 907 923 937 945 952 961 971 981 992 1002 1013 1034 1051 1066 1080 1095 1108 1125 1137 1145 1159 1174 1184 1200 1212 1221 1235 1249 1264 1279 1294 1301 1303 1303 1309 1322 1338 1360 1381 1400 1410 1430 1450 1457 1465 1464 1454 1442 1436 1435 1432 1432 1433 1434 1437 1439 1449 1453 1454 1459 1462 1467 1471 1477 1482 1488 1493 1496 1503 1512 1518 1524 1530 1536 1545 1553 1557 1564 1570 1576 1587 1596 1603 1615 1631 1642 1655 1664 1675 1689 1704 1728 1754 1762 1761 1756 1748 1740 1728 1710 1698 1687 1676 1667 1655 1643 1633 1624 1612 1603 1592 1581 1573 1567 1561 1556 1548 1538 1531 1524 1520 1517 1512 1509 1508 1506 1501 1497 1487 1473 1462 1455 1451 1447 1447 1449 1449 1443 1428 1415 1402 1389 1374 1352 1335 1330 1325 1319 1315 1314 1319 1323 1325 1329 1336 1342 1349 1354 1360 1367 1371 1375 1378 1380 1381 1381 1383 1387 1390 1392 1395 1402 1411 1413 1406 1399 1399 1408 1416 1421 1425 1430 1434 1441 1444 1443 1442 1444 1450 1454 1455 1460 1467 1474 1481 1491 1499 1506 1512 1518 1526 1538 1547 1560 1572 1584 1597 1608 1617 1629 1645 1663 1684 1708 1732 1760 1779 1799 1830 1863 1882 1884 1875 1866 1855 1847 1848 1856 1865 1872 1879 1884 1886 1884 1879 1873 1865 1857 1850 1839 1822 1808 1795 1782 1770 1754 1738 1726 1712 1699 1689 1677 1666 1658 1651 1645 1644 1645 1646 1646 1645 1643 1638 1628 1610 1599 1591 1593 1599 1609 1618 1621 1620 1613 1605 1601 1596 1591 1592 1599 1603 1607 1610 1613 1615 1614 1611 1610 1612 1614 1604 1591 1585 1584 1585 1579 1571 1570 1564 1553 1545 1536 1524 1518 1512 1504 1491 1484 1478 1471 1465 1460 1456 1455 1452 1448 1445 1439 1436 1436 1432 1425 1419 1411 1407 1406 1405 1407 1411 1417 1418 1418 1419 1420 1421 1419 1416 1416 1415 1412 1407 1401 1398 1393 1388 1385 1383 1381 1376 1371 1368 1363 1360 1360 1360 1357 1352 1342 1336 1343 1349 1353 1357 1363 1370 1379 1391 1399 1410 1423 1436 1448 1462 1473 1484 1492 1502 1513 1528 1538 1549 1555 1561 1567 1566 1563 1564 1569 1574 1583 1596 1606 1620 1636 1652 1672 1715 1736 1763 1779 1784 1784 1768 1751 1734 1715 1699 1681 1668 1660 1647 1634 1624 1613 1602 1595 1590 1582 1576 1579 1602 1617 1623 1621 1617 1613 1607 1601 1597 1588 1579 1562 1553 1546 1538 1528 1521 1520 1518 1518 1518 1518 1521 1526 1521 1516 1510 1509 1510 1510 1513 1517 1521 1523 1522 1518 1514 1515 1517 1519 1521 1526 1529 1530 1533 1538 1541 1543 1544 1543 1543 1544 1544 1542 1537 1536 1537 1535 1538 1539 1534 1528 1521 1514 1510 1504 1499 1492 1487 1483 1478 1473 1468 1464 1462 1460 1458 1455 1459 1460 1461 1463 1462 1464 1462 1460 1459 1453 1451 1448 1444 1442 1437 1433 1431 1428 1422 1418 1417 1414 1411 1410 1406 1401 1397 1392 1392 1382 1375 1370 1364 1353 1342 1336 1331 1329 1316 1304 1298 1295 1294 1293 1289 1284 1280 1275 1274 1276 1275 1265 1261 1258 1249 1249 1247 1239 1230 1223 1218 1214 1210 1208 1201 1196 1197 1198 1190 1184 1178 1160 1154 1156 1157 1151 1146 1147 1145 1137 1115 1103 1099 1094 1098 1104 1110 1114 1122 1126 1129 1134 1140 1146 1153 1158 1165 1172 1180 1198 1216 1231 1237 1248 1267 1291 1301 1311 1331 1346 1354 1364 1372 1382 1390 1398 1407 1412 1409 1400 1395 1402 1419 1445 1469 1490 1504 1512 1522 1535 1543 1551 1559 1561 1563 1569 1574 1581 1580 1581 1585 1587 1591 1596 1601 1604 1603 1604 1608 1613 1615 1617 1621 1626 1628 1627 1628 1628 1630 1630 1629 1628 1616 1601 1591 1579 1568 1551 1538 1532 1530 1536 1542 1546 1553 1561 1565 1564 1563 1563 1565 1573 1576 1576 1577 1577 1579 1581 1583 1583 1582 1577 1567 1560 1550 1543 1543 1543 1543 1545 1549 1556 1562 1567 1573 1573 1573 1572 1570 1565 1556 1550 1539 1520 1503 1496 1493 1494 1505 1517 1526 1532 1535 1534 1532 1532 1534 1537 1541 1546 1548 1547 1545 1545 1546 1550 1554 1557 1559 1559 1558 1555 1554 1558 1560 1559 1559 1560 1560 1558 1549 1538 1532 1529 1524 1526 1531 1530 1528 1526 1526 1527 1528 1528 1530 1530 1527 1520 1510 1503 1503 1505 1505 1502 1494 1491 1498 1508 1511 1513 1513 1513 1512 1510 1506 1504 1501 1500 1497 1497 1498 1497 1494 1492 1496 1501 1508 1514 1518 1524 1527 1532 1539 1543 1545 1544 1543 1541 1543 1545 1545 1552 1561 1569 1576 1586 1594 1604 1625 1644 1654 1662 1666 1664 1654 1644 1638 1629 1621 1617 1615 1612 1612 1615 1616 1614 1610 1610 1610 1604 1600 1592 1585 1584 1579 1577 1577 1576 1581 1590 1595 1596 1600 1611 1624 1635 1643 1649 1650 1654 1657 1659 1661 1663 1665 1665 1662 1659 1656 1658 1665 1680 1700 1734 1756 1768 1782 1802 1822 1833 1845 1850 1855 1858 1862 1865 1868 1870 1873 1877 1879 1883 1886 1889 1892 1895 1897 1897 1897 1898 1901 1901 1892 1862 1828 1785 1756 1736 1725 1719 1713 1714 1716 1719 1721
 411 411 414 416 416 416 416 416 415 416 416 416 416 417 416 416 416 417 417 416 417 417 418 417 417 417 418 418 419 419 419 420 419 418 422 422 421 420 421 422 423 424 424 426 427 429 433 433 432 434 437 438 438 440 440 439 439 443 455 475 490 497 493 495 497 500 503 507 510 512 516 521 526 538 549 555 565 576 581 588 593 600 605 612 620 629 638 647 656 670 679 686 697 711 726 740 754 780 798 802 801 810 824 848 873 887 898 905 909 916 932 947 955 954 956 960 968 977 990 1001 1015 1041 1063 1083 1099 1115 1129 1140 1151 1163 1179 1192 1203 1215 1226 1237 1251 1267 1281 1296 1309 1320 1327 1326 1329 1337 1353 1369 1386 1401 1416 1435 1449 1455 1465 1470 1464 1459 1458 1456 1450 1452 1454 1453 1455 1457 1462 1467 1471 1477 1483 1487 1489 1496 1502 1508 1514 1515 1520 1527 1534 1540 1546 1553 1562 1570 1575 1580 1587 1597 1611 1619 1625 1636 1652 1666 1680 1696 1717 1733 1750 1760 1762 1761 1755 1741 1728 1720 1706 1692 1681 1670 1659 1650 1638 1628 1624 1618 1610 1603 1595 1589 1581 1573 1563 1556 1550 1539 1529 1522 1518 1515 1510 1506 1501 1493 1480 1473 1464 1456 1452 1448 1441 1437 1443 1446 1443 1436 1424 1410 1388 1367 1357 1344 1329 1324 1319 1312 1309 1310 1316 1321 1322 1325 1330 1334 1337 1343 1353 1356 1353 1355 1361 1365 1369 1374 1378 1376 1381 1389 1395 1397 1400 1398 1395 1396 1402 1410 1416 1423 1429 1430 1430 1427 1426 1428 1433 1437 1443 1452 1461 1470 1475 1478 1483 1492 1501 1508 1512 1518 1526 1540 1549 1562 1577 1588 1602 1614 1625 1640 1660 1678 1696 1715 1734 1755 1786 1828 1880 1912 1919 1915 1905 1897 1889 1883 1884 1893 1904 1910 1909 1899 1889 1877 1867 1859 1850 1843 1837 1824 1808 1793 1779 1766 1753 1736 1720 1709 1698 1688 1678 1668 1659 1654 1647 1641 1640 1639 1638 1639 1641 1638 1630 1616 1600 1590 1583 1585 1593 1603 1609 1610 1604 1595 1592 1587 1583 1581 1582 1587 1589 1589 1587 1587 1587 1590 1588 1583 1576 1575 1576 1570 1562 1555 1554 1552 1544 1536 1530 1517 1510 1503 1498 1495 1488 1480 1472 1469 1463 1458 1453 1452 1452 1450 1446 1442 1439 1435 1431 1428 1423 1418 1412 1409 1405 1403 1408 1413 1417 1422 1420 1419 1419 1419 1418 1415 1414 1414 1413 1411 1406 1400 1399 1391 1385 1382 1382 1378 1372 1367 1364 1359 1357 1357 1356 1353 1352 1345 1335 1335 1343 1348 1352 1355 1360 1370 1382 1393 1406 1419 1428 1441 1458 1468 1479 1488 1499 1509 1519 1525 1528 1529 1531 1535 1537 1544 1550 1556 1565 1574 1583 1593 1609 1630 1650 1682 1720 1736 1759 1772 1781 1786 1776 1754 1735 1718 1705 1689 1673 1663 1653 1645 1638 1626 1617 1615 1609 1601 1602 1619 1637 1643 1643 1645 1642 1633 1624 1614 1603 1592 1582 1569 1558 1552 1546 1543 1540 1540 1540 1542 1542 1541 1540 1537 1531 1528 1522 1520 1519 1518 1520 1525 1530 1531 1530 1528 1527 1527 1526 1526 1527 1529 1532 1534 1539 1541 1542 1543 1543 1542 1542 1544 1544 1544 1545 1549 1549 1548 1547 1543 1536 1530 1523 1517 1513 1507 1502 1498 1496 1493 1486 1479 1475 1473 1469 1465 1463 1461 1460 1460 1461 1466 1467 1467 1465 1464 1462 1459 1456 1451 1444 1442 1436 1428 1425 1419 1415 1415 1413 1406 1402 1397 1391 1388 1385 1382 1379 1371 1364 1357 1347 1336 1332 1328 1318 1314 1307 1300 1296 1295 1297 1299 1297 1289 1278 1268 1267 1266 1258 1256 1255 1253 1247 1244 1239 1234 1229 1224 1217 1215 1212 1207 1202 1198 1195 1191 1186 1178 1174 1162 1152 1149 1151 1151 1152 1151 1143 1128 1102 1093 1096 1101 1108 1111 1118 1129 1136 1141 1146 1152 1156 1165 1182 1190 1199 1207 1215 1230 1242 1255 1270 1280 1294 1308 1319 1338 1354 1363 1370 1386 1392 1402 1414 1422 1426 1429 1426 1421 1417 1421 1434 1446 1464 1484 1504 1515 1529 1546 1556 1563 1569 1576 1577 1577 1582 1585 1587 1590 1592 1592 1592 1597 1603 1605 1603 1604 1606 1610 1614 1619 1625 1630 1634 1637 1637 1633 1630 1627 1625 1626 1619 1607 1598 1587 1574 1558 1544 1539 1541 1547 1549 1555 1564 1573 1574 1570 1567 1568 1574 1577 1578 1579 1581 1582 1584 1586 1588 1586 1583 1578 1567 1561 1553 1548 1547 1550 1553 1554 1555 1562 1567 1572 1579 1584 1581 1576 1575 1571 1561 1553 1539 1518 1504 1496 1494 1496 1507 1517 1528 1536 1537 1533 1531 1532 1535 1538 1540 1546 1550 1548 1545 1546 1546 1548 1555 1559 1560 1560 1558 1556 1554 1556 1559 1560 1559 1558 1559 1557 1549 1539 1533 1530 1528 1529 1533 1533 1530 1528 1526 1525 1526 1530 1533 1533 1529 1522 1512 1509 1509 1510 1508 1504 1498 1498 1507 1512 1516 1519 1521 1520 1517 1515 1510 1507 1506 1504 1504 1506 1508 1506 1502 1499 1500 1504 1514 1523 1525 1527 1530 1534 1539 1543 1545 1547 1549 1549 1555 1556 1555 1560 1570 1577 1591 1601 1605 1613 1634 1652 1662 1671 1677 1677 1670 1658 1646 1639 1631 1624 1620 1620 1622 1627 1628 1625 1620 1617 1615 1607 1602 1599 1590 1586 1584 1581 1581 1582 1588 1596 1601 1606 1611 1624 1638 1649 1657 1659 1660 1665 1666 1668 1672 1674 1673 1671 1667 1662 1660 1660 1665 1679 1698 1724 1749 1770 1785 1804 1825 1837 1853 1861 1864 1868 1873 1876 1879 1882 1885 1889 1890 1893 1896 1899 1901 1901 1902 1903 1904 1906 1910 1910 1899 1873 1845 1802 1769 1752 1736 1729 1724 1723 1724 1725 1729
 413 413 416 416 416 416 416 416 417 417 416 416 417 417 417 417 417 417 417 416 416 417 419 419 417 417 417 417 418 419 419 420 421 422 425 423 423 423 424 424 425 426 427 429 432 433 433 435 436 438 440 443 445 448 451 447 448 454 473 482 484 486 490 492 496 498 501 505 507 510 517 524 530 539 550 557 565 575 580 587 592 598 605 617 629 641 653 662 670 678 686 699 719 743 758 772 785 798 806 806 811 831 842 859 875 888 898 907 913 920 936 948 956 964 969 970 972 979 995 1010 1024 1048 1072 1089 1109 1125 1139 1154 1171 1182 1197 1210 1218 1231 1243 1257 1270 1283 1294 1304 1318 1332 1346 1355 1360 1364 1371 1379 1392 1407 1417 1429 1443 1454 1482 1492 1499 1494 1482 1476 1470 1471 1473 1473 1475 1477 1479 1482 1489 1494 1500 1503 1508 1516 1521 1528 1535 1541 1547 1552 1554 1557 1565 1573 1581 1589 1595 1602 1614 1628 1641 1649 1653 1660 1674 1685 1703 1736 1764 1778 1777 1769 1752 1739 1727 1715 1703 1691 1680 1670 1664 1654 1645 1635 1624 1614 1609 1602 1596 1591 1586 1577 1570 1559 1552 1547 1542 1532 1525 1517 1509 1501 1500 1495 1487 1479 1473 1470 1465 1459 1455 1449 1439 1432 1428 1425 1419 1410 1396 1383 1369 1357 1347 1328 1315 1312 1309 1308 1308 1310 1314 1317 1320 1321 1322 1325 1330 1334 1341 1341 1340 1342 1344 1347 1356 1364 1367 1368 1370 1383 1391 1392 1390 1388 1391 1395 1403 1410 1418 1425 1423 1418 1413 1413 1418 1422 1426 1433 1443 1461 1473 1480 1484 1486 1487 1492 1498 1506 1510 1517 1528 1542 1552 1565 1579 1591 1605 1622 1637 1657 1682 1702 1717 1731 1748 1770 1813 1865 1908 1917 1911 1899 1889 1883 1879 1879 1884 1897 1909 1912 1905 1887 1873 1860 1848 1838 1829 1822 1818 1809 1795 1780 1765 1754 1742 1727 1710 1696 1684 1673 1665 1657 1649 1645 1639 1636 1633 1629 1628 1628 1624 1612 1603 1593 1582 1574 1572 1576 1583 1589 1588 1588 1584 1580 1577 1577 1572 1570 1570 1573 1575 1570 1566 1566 1562 1560 1559 1553 1553 1553 1548 1539 1535 1532 1526 1520 1513 1512 1504 1493 1487 1483 1476 1468 1466 1461 1456 1453 1449 1446 1445 1444 1443 1441 1437 1434 1433 1429 1422 1418 1416 1412 1407 1403 1401 1406 1411 1414 1417 1421 1420 1419 1419 1417 1415 1413 1412 1412 1410 1406 1401 1398 1397 1388 1382 1379 1376 1371 1366 1364 1361 1357 1355 1352 1352 1351 1349 1340 1331 1334 1341 1344 1350 1354 1357 1368 1382 1390 1410 1425 1432 1446 1462 1471 1480 1488 1492 1497 1504 1507 1508 1509 1514 1518 1524 1530 1538 1547 1558 1569 1579 1590 1609 1632 1655 1693 1720 1734 1749 1764 1777 1787 1783 1769 1753 1732 1717 1702 1686 1678 1672 1663 1658 1651 1643 1643 1641 1638 1646 1657 1670 1676 1672 1667 1660 1649 1639 1631 1620 1606 1595 1585 1580 1578 1574 1572 1572 1573 1570 1567 1561 1556 1551 1545 1541 1538 1534 1528 1529 1530 1529 1532 1533 1534 1534 1532 1533 1533 1532 1534 1534 1534 1534 1537 1541 1541 1541 1543 1543 1543 1546 1546 1546 1549 1551 1551 1551 1547 1544 1539 1533 1529 1522 1515 1510 1506 1505 1502 1498 1495 1492 1487 1480 1477 1473 1469 1466 1463 1460 1458 1457 1459 1461 1463 1461 1459 1457 1455 1452 1443 1438 1437 1429 1423 1419 1413 1409 1407 1399 1396 1394 1390 1384 1380 1375 1370 1366 1357 1352 1347 1340 1330 1322 1316 1309 1307 1305 1300 1298 1299 1299 1298 1297 1289 1270 1262 1264 1256 1250 1249 1246 1245 1244 1244 1240 1235 1238 1235 1217 1210 1207 1203 1199 1194 1187 1184 1180 1171 1168 1162 1155 1151 1154 1159 1159 1153 1135 1111 1097 1107 1111 1112 1116 1124 1131 1144 1150 1158 1164 1169 1173 1188 1204 1216 1223 1230 1236 1249 1260 1273 1291 1305 1315 1327 1341 1357 1377 1386 1400 1410 1415 1429 1442 1441 1441 1443 1443 1436 1433 1448 1465 1463 1471 1493 1509 1521 1536 1551 1561 1571 1581 1585 1588 1588 1590 1595 1594 1594 1596 1594 1593 1595 1598 1599 1599 1601 1603 1605 1610 1616 1623 1633 1640 1643 1641 1636 1632 1627 1623 1619 1612 1602 1594 1584 1576 1561 1553 1549 1552 1555 1560 1565 1575 1580 1577 1572 1571 1575 1580 1580 1582 1586 1590 1591 1593 1597 1596 1591 1584 1579 1573 1565 1555 1552 1553 1559 1563 1564 1565 1568 1572 1579 1587 1591 1590 1585 1581 1576 1566 1558 1539 1518 1510 1502 1497 1498 1508 1521 1533 1539 1538 1533 1531 1533 1536 1537 1539 1544 1549 1550 1548 1549 1548 1547 1553 1558 1559 1560 1559 1558 1557 1557 1558 1559 1559 1559 1558 1557 1551 1544 1536 1534 1534 1533 1536 1536 1535 1532 1531 1527 1526 1530 1536 1536 1532 1524 1516 1513 1512 1512 1511 1507 1506 1512 1516 1519 1523 1523 1524 1524 1521 1518 1515 1512 1511 1511 1511 1513 1515 1512 1507 1506 1508 1514 1522 1529 1533 1537 1539 1540 1541 1543 1541 1542 1551 1556 1560 1563 1563 1568 1576 1584 1599 1612 1616 1624 1640 1657 1670 1684 1696 1698 1681 1672 1661 1649 1642 1634 1630 1631 1632 1636 1636 1631 1627 1623 1618 1613 1607 1603 1596 1590 1586 1584 1585 1589 1594 1604 1613 1621 1629 1640 1652 1661 1666 1671 1674 1675 1677 1680 1681 1682 1680 1675 1671 1668 1666 1666 1671 1680 1694 1713 1743 1770 1788 1808 1827 1842 1858 1869 1874 1880 1883 1886 1890 1894 1897 1899 1902 1904 1905 1906 1908 1910 1912 1913 1915 1916 1915 1906 1886 1864 1836 1795 1774 1761 1747 1737 1730 1729 1730 1732 1736
 413 414 416 416 416 415 415 416 417 417 416 415 416 416 417 417 418 417 417 416 416 416 417 418 417 416 415 413 414 418 419 420 420 419 418 419 422 424 424 424 425 427 428 431 432 433 434 436 438 440 443 445 449 457 464 459 457 466 477 481 482 485 491 495 497 498 500 503 507 512 520 529 536 545 554 559 564 572 580 587 593 599 609 624 632 644 657 667 675 681 688 706 736 755 768 781 792 801 801 803 818 835 842 854 866 878 894 904 911 918 932 943 956 964 969 976 983 987 999 1015 1030 1051 1074 1092 1109 1128 1145 1165 1182 1193 1206 1217 1227 1242 1255 1268 1279 1292 1301 1315 1332 1348 1362 1368 1373 1384 1400 1401 1406 1416 1422 1432 1446 1464 1487 1502 1517 1524 1511 1498 1492 1489 1492 1495 1494 1493 1496 1500 1506 1513 1521 1524 1525 1530 1539 1550 1560 1568 1577 1581 1578 1576 1583 1590 1598 1607 1616 1630 1644 1651 1663 1673 1677 1686 1700 1719 1746 1773 1782 1779 1771 1761 1746 1733 1721 1708 1688 1675 1663 1655 1649 1639 1628 1620 1614 1603 1596 1587 1577 1573 1572 1566 1558 1548 1539 1531 1526 1522 1515 1502 1495 1494 1492 1485 1479 1474 1470 1465 1461 1455 1452 1448 1435 1422 1413 1405 1398 1388 1372 1363 1355 1347 1337 1318 1311 1309 1308 1308 1309 1311 1312 1312 1312 1312 1313 1317 1323 1328 1331 1333 1334 1334 1335 1336 1341 1351 1360 1364 1368 1375 1384 1387 1386 1386 1390 1394 1400 1408 1413 1413 1404 1403 1404 1407 1414 1421 1428 1438 1454 1469 1478 1485 1490 1491 1491 1494 1499 1504 1510 1517 1526 1538 1550 1567 1584 1599 1618 1645 1663 1681 1702 1720 1733 1748 1767 1797 1843 1887 1911 1909 1894 1876 1865 1860 1858 1860 1866 1880 1894 1896 1887 1871 1858 1845 1830 1819 1810 1804 1801 1795 1784 1769 1754 1742 1731 1717 1701 1687 1673 1662 1654 1647 1642 1639 1633 1628 1624 1619 1614 1607 1596 1590 1585 1575 1562 1558 1561 1565 1568 1576 1581 1581 1578 1573 1570 1564 1561 1560 1560 1560 1560 1557 1554 1545 1540 1538 1536 1536 1532 1527 1519 1514 1513 1509 1505 1497 1493 1493 1487 1478 1469 1463 1458 1453 1449 1449 1445 1440 1439 1438 1438 1435 1433 1428 1427 1426 1425 1420 1415 1411 1407 1404 1400 1395 1402 1408 1411 1414 1417 1418 1418 1419 1417 1413 1411 1410 1409 1408 1406 1402 1398 1395 1393 1384 1378 1374 1370 1365 1364 1361 1357 1355 1354 1351 1350 1348 1348 1340 1331 1333 1340 1344 1348 1352 1356 1363 1379 1389 1416 1433 1438 1450 1462 1469 1477 1483 1483 1483 1490 1495 1499 1501 1505 1513 1521 1529 1535 1544 1558 1569 1580 1592 1610 1633 1660 1695 1716 1731 1747 1762 1774 1787 1785 1776 1764 1749 1732 1719 1703 1692 1683 1675 1668 1663 1660 1659 1661 1667 1679 1691 1694 1690 1684 1680 1673 1662 1651 1643 1634 1626 1617 1609 1604 1598 1595 1592 1589 1588 1585 1582 1580 1573 1563 1553 1545 1541 1538 1535 1536 1537 1539 1538 1535 1534 1534 1534 1535 1536 1536 1536 1536 1536 1536 1539 1541 1541 1541 1543 1543 1545 1548 1549 1550 1551 1551 1550 1546 1542 1539 1535 1530 1525 1518 1513 1509 1504 1504 1500 1495 1495 1493 1490 1486 1484 1479 1474 1469 1464 1458 1455 1454 1454 1454 1453 1452 1450 1447 1443 1440 1436 1431 1427 1422 1418 1414 1406 1401 1397 1392 1388 1383 1380 1374 1370 1363 1356 1352 1350 1347 1341 1337 1331 1321 1314 1310 1307 1300 1292 1292 1299 1296 1295 1293 1281 1267 1259 1257 1251 1245 1242 1241 1238 1237 1240 1240 1236 1235 1229 1213 1208 1205 1199 1195 1183 1177 1179 1182 1171 1162 1158 1156 1156 1160 1161 1157 1146 1130 1109 1101 1116 1117 1120 1127 1136 1145 1159 1169 1174 1180 1185 1192 1203 1217 1230 1239 1248 1255 1266 1277 1292 1309 1320 1328 1341 1353 1372 1393 1409 1422 1432 1438 1446 1456 1457 1456 1458 1454 1451 1449 1464 1481 1485 1493 1510 1522 1534 1548 1557 1565 1576 1588 1593 1596 1596 1601 1605 1603 1598 1598 1597 1593 1594 1595 1595 1595 1597 1599 1603 1608 1614 1625 1635 1641 1646 1646 1640 1632 1627 1622 1614 1607 1599 1593 1584 1575 1567 1560 1560 1563 1565 1567 1571 1579 1582 1579 1577 1578 1581 1583 1585 1588 1592 1594 1597 1601 1603 1601 1593 1583 1579 1575 1566 1558 1556 1560 1566 1570 1573 1575 1577 1582 1588 1592 1593 1595 1593 1587 1577 1569 1559 1538 1518 1512 1506 1499 1501 1514 1527 1535 1540 1538 1533 1531 1535 1538 1538 1539 1545 1549 1549 1547 1547 1548 1549 1554 1557 1559 1559 1559 1560 1561 1561 1561 1562 1561 1561 1560 1555 1550 1547 1544 1541 1536 1535 1537 1537 1538 1536 1535 1532 1530 1531 1536 1536 1531 1525 1520 1516 1514 1514 1515 1512 1512 1518 1520 1525 1526 1529 1530 1527 1524 1523 1519 1516 1516 1518 1521 1521 1519 1514 1510 1511 1515 1521 1528 1533 1537 1543 1547 1548 1547 1545 1543 1542 1549 1556 1561 1565 1569 1574 1584 1592 1604 1619 1625 1632 1645 1663 1675 1695 1710 1715 1696 1679 1669 1659 1653 1645 1641 1643 1643 1643 1641 1636 1633 1629 1624 1623 1613 1607 1600 1595 1593 1590 1592 1594 1600 1610 1622 1635 1645 1652 1661 1669 1679 1687 1690 1692 1691 1689 1689 1689 1686 1681 1676 1672 1672 1674 1678 1685 1697 1712 1741 1776 1793 1810 1832 1846 1863 1875 1882 1887 1890 1892 1896 1899 1902 1905 1909 1913 1913 1913 1915 1917 1920 1923 1924 1921 1915 1893 1867 1844 1820 1791 1777 1763 1751 1742 1735 1733 1736 1739 1742
 413 415 416 416 415 415 415 416 416 416 415 415 415 415 416 418 418 417 416 416 416 417 417 417 417 417 416 414 414 416 418 419 420 420 420 420 420 421 422 423 425 426 427 430 432 432 434 435 436 439 445 446 450 456 462 466 470 475 485 490 491 496 502 506 504 498 500 508 514 523 532 537 543 551 557 562 568 574 581 590 597 605 617 626 630 637 647 656 668 678 690 712 743 755 766 774 782 792 795 802 818 827 832 834 845 859 875 884 894 907 923 937 948 954 960 971 982 984 989 1008 1032 1056 1078 1093 1112 1132 1151 1166 1179 1194 1209 1223 1233 1245 1258 1271 1283 1296 1311 1331 1348 1360 1371 1381 1393 1407 1416 1421 1422 1429 1437 1453 1471 1483 1498 1514 1528 1542 1544 1529 1518 1518 1517 1516 1516 1517 1519 1522 1524 1534 1542 1545 1548 1556 1566 1575 1587 1593 1596 1597 1598 1603 1610 1615 1622 1634 1644 1658 1671 1682 1694 1705 1715 1730 1757 1777 1794 1798 1793 1781 1762 1746 1730 1718 1707 1695 1677 1666 1654 1643 1635 1627 1614 1608 1602 1591 1582 1568 1558 1555 1551 1541 1534 1525 1516 1512 1507 1501 1491 1487 1490 1490 1487 1481 1476 1468 1464 1459 1448 1440 1442 1434 1415 1406 1401 1394 1384 1370 1355 1346 1338 1330 1324 1312 1307 1306 1305 1305 1307 1310 1309 1309 1306 1305 1308 1312 1316 1319 1320 1320 1322 1324 1326 1329 1331 1341 1356 1363 1368 1370 1378 1383 1382 1381 1386 1391 1395 1392 1391 1392 1393 1398 1402 1405 1410 1419 1434 1447 1463 1475 1481 1487 1492 1492 1493 1499 1505 1512 1518 1523 1530 1541 1556 1579 1612 1642 1672 1689 1702 1715 1726 1736 1750 1774 1801 1833 1870 1897 1907 1896 1879 1859 1846 1838 1835 1836 1840 1851 1864 1866 1860 1848 1837 1824 1811 1800 1792 1786 1781 1774 1765 1755 1742 1728 1716 1704 1692 1679 1663 1652 1645 1637 1633 1629 1619 1609 1603 1594 1587 1579 1570 1564 1556 1547 1546 1548 1552 1555 1560 1570 1578 1580 1575 1564 1557 1552 1552 1552 1549 1545 1540 1534 1530 1528 1524 1515 1510 1511 1513 1507 1499 1493 1489 1490 1488 1482 1476 1470 1465 1458 1449 1443 1434 1430 1429 1431 1429 1428 1426 1424 1424 1421 1422 1420 1417 1414 1412 1411 1407 1403 1397 1394 1392 1393 1406 1411 1414 1418 1417 1416 1416 1415 1411 1409 1407 1406 1404 1403 1402 1400 1396 1391 1386 1377 1371 1367 1363 1361 1359 1356 1354 1353 1352 1350 1348 1347 1344 1338 1332 1331 1334 1338 1342 1347 1353 1365 1379 1391 1422 1436 1441 1447 1451 1455 1458 1462 1467 1472 1478 1483 1489 1496 1501 1508 1520 1530 1543 1552 1559 1569 1582 1594 1617 1648 1673 1699 1720 1733 1750 1765 1776 1786 1783 1775 1765 1754 1742 1730 1716 1704 1697 1689 1679 1675 1680 1687 1691 1701 1711 1714 1709 1700 1691 1686 1681 1676 1667 1657 1651 1646 1642 1635 1630 1626 1623 1617 1612 1609 1607 1602 1591 1577 1565 1551 1540 1537 1536 1537 1536 1535 1537 1537 1534 1531 1531 1532 1532 1531 1533 1535 1537 1538 1538 1540 1541 1541 1542 1544 1546 1548 1551 1552 1551 1551 1552 1550 1545 1542 1538 1532 1524 1519 1514 1511 1508 1503 1500 1496 1493 1493 1493 1491 1489 1487 1482 1476 1469 1462 1458 1454 1453 1450 1448 1445 1444 1443 1440 1436 1431 1427 1421 1418 1415 1411 1406 1400 1396 1388 1381 1379 1376 1372 1368 1366 1360 1352 1348 1347 1341 1334 1332 1327 1318 1313 1309 1304 1292 1289 1291 1296 1297 1295 1288 1280 1270 1256 1250 1250 1245 1241 1239 1235 1233 1233 1236 1234 1227 1217 1213 1214 1209 1195 1189 1177 1176 1181 1183 1177 1168 1159 1162 1165 1161 1153 1136 1117 1111 1108 1112 1127 1135 1144 1149 1160 1171 1181 1186 1200 1212 1217 1224 1232 1240 1248 1259 1273 1281 1296 1307 1317 1328 1337 1348 1364 1379 1402 1421 1433 1443 1454 1459 1468 1475 1475 1476 1481 1481 1480 1479 1488 1501 1518 1527 1533 1541 1555 1563 1570 1580 1591 1597 1600 1600 1604 1611 1612 1612 1606 1604 1602 1596 1591 1588 1591 1593 1594 1596 1603 1607 1613 1625 1636 1643 1650 1652 1652 1641 1629 1621 1613 1608 1604 1600 1591 1579 1570 1568 1568 1572 1577 1578 1580 1584 1584 1581 1581 1583 1584 1587 1591 1594 1596 1598 1603 1607 1607 1603 1592 1583 1578 1574 1567 1561 1562 1567 1574 1579 1581 1582 1585 1590 1593 1595 1598 1601 1598 1591 1580 1571 1560 1537 1520 1514 1509 1505 1507 1521 1531 1538 1541 1536 1531 1533 1537 1538 1539 1541 1544 1547 1546 1546 1547 1551 1555 1557 1556 1559 1560 1559 1560 1562 1563 1564 1565 1564 1563 1560 1554 1551 1550 1549 1547 1540 1537 1538 1539 1539 1538 1537 1537 1537 1538 1537 1535 1530 1525 1525 1525 1521 1519 1521 1520 1520 1524 1525 1529 1533 1536 1536 1533 1531 1529 1526 1525 1527 1529 1529 1529 1526 1518 1515 1519 1523 1528 1534 1536 1540 1547 1550 1552 1550 1546 1545 1545 1551 1557 1562 1569 1575 1582 1595 1601 1611 1622 1629 1639 1655 1669 1683 1704 1721 1732 1726 1704 1683 1671 1664 1657 1655 1656 1656 1650 1646 1643 1641 1636 1633 1633 1624 1611 1605 1601 1599 1598 1598 1598 1605 1617 1634 1650 1659 1664 1672 1681 1691 1699 1704 1706 1706 1703 1701 1700 1697 1691 1683 1679 1676 1677 1682 1692 1709 1723 1746 1777 1801 1821 1840 1852 1867 1883 1892 1898 1901 1905 1907 1908 1911 1914 1917 1919 1922 1923 1924 1926 1929 1930 1931 1927 1908 1876 1853 1835 1814 1794 1782 1768 1755 1747 1740 1739 1744 1747 1748
 415 415 416 416 415 415 416 416 416 416 416 416 415 415 415 417 417 415 415 416 417 416 416 414 412 414 415 417 418 418 418 418 419 420 419 420 420 421 422 423 424 426 427 430 432 432 433 436 435 439 444 445 449 454 458 463 472 480 493 499 501 503 505 507 508 507 515 523 528 533 534 539 550 555 559 565 570 578 586 596 604 613 621 626 631 636 644 652 666 680 699 727 742 743 738 739 753 767 779 792 799 802 809 817 823 832 848 863 875 888 903 915 929 936 945 957 971 976 986 1009 1038 1059 1076 1093 1115 1132 1147 1160 1167 1178 1200 1221 1225 1228 1242 1261 1275 1296 1316 1340 1352 1358 1371 1385 1399 1412 1422 1431 1442 1456 1471 1491 1505 1515 1523 1535 1549 1567 1568 1560 1547 1539 1538 1540 1541 1541 1543 1545 1549 1554 1564 1575 1583 1592 1604 1613 1617 1617 1621 1631 1630 1634 1641 1646 1652 1663 1673 1685 1699 1715 1732 1747 1758 1777 1800 1806 1805 1795 1786 1774 1760 1745 1726 1709 1696 1683 1667 1657 1645 1632 1623 1614 1602 1595 1586 1576 1566 1553 1542 1531 1524 1516 1508 1500 1497 1496 1486 1481 1479 1480 1483 1484 1483 1477 1470 1458 1452 1443 1430 1424 1418 1407 1394 1386 1376 1368 1359 1346 1338 1333 1327 1321 1313 1305 1301 1298 1297 1298 1302 1303 1299 1299 1300 1300 1302 1305 1307 1311 1316 1317 1317 1317 1318 1319 1325 1340 1350 1353 1356 1358 1365 1370 1370 1376 1381 1383 1382 1383 1388 1391 1392 1394 1398 1401 1399 1406 1432 1449 1468 1477 1481 1484 1490 1493 1498 1506 1514 1523 1530 1535 1544 1556 1574 1612 1655 1683 1702 1713 1724 1738 1747 1759 1778 1807 1833 1860 1886 1899 1900 1885 1869 1851 1836 1823 1812 1808 1811 1822 1833 1835 1828 1818 1811 1806 1798 1789 1779 1769 1761 1752 1744 1736 1727 1715 1705 1694 1682 1669 1655 1645 1637 1629 1617 1604 1591 1583 1577 1574 1566 1552 1543 1540 1538 1535 1538 1542 1547 1555 1561 1567 1571 1572 1566 1555 1549 1546 1544 1541 1532 1525 1519 1516 1513 1510 1504 1499 1496 1495 1495 1488 1481 1475 1470 1473 1473 1466 1459 1453 1445 1437 1428 1423 1419 1411 1410 1413 1415 1415 1413 1411 1406 1404 1407 1409 1409 1406 1404 1401 1398 1393 1388 1389 1391 1397 1402 1405 1408 1413 1414 1413 1413 1410 1407 1405 1403 1401 1399 1398 1398 1402 1399 1392 1379 1369 1364 1361 1359 1355 1353 1352 1352 1351 1350 1348 1346 1344 1340 1336 1330 1328 1330 1334 1340 1346 1354 1368 1383 1402 1420 1426 1425 1429 1431 1434 1442 1450 1457 1465 1472 1479 1488 1498 1507 1515 1526 1538 1549 1556 1561 1571 1588 1610 1643 1670 1694 1714 1726 1740 1755 1764 1771 1778 1775 1771 1765 1755 1745 1736 1727 1720 1711 1702 1693 1695 1704 1711 1716 1718 1718 1715 1703 1694 1689 1685 1680 1672 1666 1660 1656 1653 1649 1644 1639 1636 1630 1623 1615 1607 1603 1598 1582 1568 1556 1540 1531 1526 1525 1527 1527 1526 1526 1525 1523 1524 1524 1524 1526 1528 1532 1534 1536 1538 1539 1541 1542 1542 1542 1546 1549 1551 1553 1554 1554 1553 1553 1549 1544 1540 1536 1529 1520 1517 1513 1509 1506 1501 1496 1493 1490 1487 1486 1485 1483 1480 1477 1471 1466 1462 1458 1455 1452 1448 1444 1441 1437 1436 1433 1427 1422 1416 1412 1409 1405 1399 1397 1397 1390 1381 1376 1375 1372 1358 1350 1356 1352 1345 1344 1341 1334 1330 1326 1322 1313 1307 1300 1294 1287 1287 1291 1294 1294 1291 1283 1279 1273 1260 1252 1252 1246 1238 1236 1233 1230 1230 1232 1227 1220 1218 1217 1213 1206 1191 1181 1176 1179 1183 1182 1178 1174 1170 1172 1170 1159 1138 1121 1117 1119 1124 1140 1154 1163 1170 1181 1188 1194 1209 1221 1233 1243 1245 1250 1258 1266 1273 1287 1293 1303 1318 1329 1335 1342 1352 1369 1396 1416 1432 1442 1451 1460 1475 1489 1498 1497 1494 1497 1503 1504 1506 1508 1513 1528 1544 1548 1552 1563 1577 1585 1589 1594 1597 1603 1606 1607 1612 1617 1619 1620 1619 1613 1608 1601 1593 1586 1585 1587 1590 1592 1601 1606 1610 1625 1638 1645 1652 1656 1657 1654 1643 1630 1622 1614 1608 1605 1599 1591 1577 1573 1572 1575 1580 1584 1586 1587 1584 1584 1587 1588 1588 1591 1596 1601 1603 1605 1608 1613 1613 1606 1596 1589 1580 1574 1569 1567 1570 1575 1582 1588 1589 1589 1595 1598 1601 1604 1606 1605 1600 1592 1584 1573 1555 1535 1522 1517 1513 1511 1513 1522 1530 1536 1537 1532 1532 1535 1538 1540 1543 1545 1545 1545 1545 1546 1549 1553 1556 1557 1556 1559 1561 1562 1563 1564 1564 1565 1565 1565 1563 1559 1555 1554 1554 1552 1549 1545 1541 1541 1542 1541 1540 1539 1539 1540 1541 1542 1539 1535 1530 1531 1533 1532 1528 1526 1527 1527 1532 1534 1536 1540 1542 1543 1542 1540 1537 1534 1533 1534 1537 1539 1537 1531 1523 1522 1528 1530 1532 1539 1543 1546 1549 1553 1553 1552 1550 1549 1551 1556 1558 1564 1571 1579 1591 1604 1611 1622 1628 1635 1646 1661 1674 1690 1709 1729 1745 1748 1737 1707 1688 1679 1670 1670 1671 1668 1664 1656 1652 1650 1645 1642 1639 1632 1621 1615 1610 1605 1601 1602 1605 1611 1622 1645 1659 1668 1676 1683 1691 1702 1708 1712 1710 1711 1712 1712 1708 1705 1700 1692 1687 1681 1681 1687 1698 1716 1729 1750 1783 1804 1823 1843 1857 1873 1892 1900 1907 1912 1914 1916 1918 1921 1923 1927 1929 1928 1929 1930 1933 1935 1936 1939 1935 1914 1881 1856 1834 1811 1798 1787 1773 1757 1750 1747 1748 1753 1754 1752
 415 415 415 415 415 415 415 415 415 416 417 417 416 415 414 416 417 416 415 416 417 416 415 412 410 411 415 417 418 418 418 418 418 419 420 420 421 421 422 423 424 425 428 432 435 433 434 436 437 441 444 446 449 455 458 461 468 476 488 492 495 498 499 498 503 515 523 528 531 534 536 544 553 557 564 570 578 586 593 600 607 615 621 627 632 639 647 655 669 682 703 721 721 717 713 715 725 738 748 762 771 780 788 797 807 818 835 852 865 873 879 888 900 908 919 932 950 966 986 1020 1044 1063 1078 1095 1115 1130 1142 1156 1165 1176 1195 1212 1213 1217 1234 1249 1271 1296 1317 1342 1349 1360 1374 1384 1400 1415 1429 1442 1461 1478 1494 1508 1524 1537 1548 1564 1586 1602 1607 1601 1585 1573 1569 1566 1565 1568 1570 1574 1576 1577 1586 1596 1608 1622 1636 1646 1650 1643 1650 1666 1663 1663 1668 1674 1680 1688 1697 1712 1728 1740 1754 1768 1785 1809 1815 1809 1796 1781 1770 1758 1746 1735 1721 1705 1694 1679 1662 1649 1635 1622 1612 1601 1587 1577 1568 1554 1543 1533 1521 1512 1506 1502 1496 1488 1482 1479 1475 1473 1474 1475 1477 1477 1473 1464 1454 1445 1435 1426 1417 1408 1399 1390 1381 1375 1368 1364 1353 1335 1326 1323 1316 1307 1304 1301 1295 1293 1294 1298 1301 1296 1293 1294 1296 1296 1296 1298 1302 1308 1311 1311 1309 1310 1313 1319 1331 1339 1342 1343 1345 1348 1353 1360 1363 1369 1374 1375 1379 1382 1388 1392 1390 1392 1397 1399 1401 1417 1441 1456 1466 1473 1477 1480 1487 1494 1504 1513 1523 1532 1541 1549 1557 1570 1593 1624 1658 1686 1702 1712 1726 1743 1763 1783 1807 1833 1855 1880 1898 1902 1890 1872 1858 1840 1820 1803 1786 1781 1785 1797 1806 1806 1798 1790 1788 1792 1792 1785 1772 1758 1747 1737 1728 1720 1711 1701 1692 1683 1672 1660 1649 1640 1633 1621 1603 1590 1579 1570 1565 1557 1544 1535 1531 1531 1531 1529 1531 1538 1548 1556 1558 1560 1561 1559 1554 1548 1543 1540 1536 1527 1521 1516 1511 1506 1498 1492 1487 1486 1485 1478 1476 1473 1467 1460 1456 1454 1451 1449 1445 1438 1434 1426 1418 1412 1402 1394 1393 1395 1401 1403 1402 1397 1392 1392 1393 1394 1395 1392 1391 1390 1389 1387 1380 1384 1389 1394 1398 1400 1402 1407 1411 1412 1411 1407 1404 1400 1398 1396 1395 1395 1395 1400 1398 1385 1369 1363 1359 1356 1353 1350 1350 1349 1351 1350 1347 1345 1343 1340 1338 1334 1328 1325 1329 1334 1340 1349 1359 1370 1390 1402 1409 1413 1413 1418 1424 1429 1436 1446 1455 1466 1477 1486 1498 1508 1516 1524 1534 1540 1548 1558 1568 1587 1614 1635 1662 1689 1706 1718 1734 1747 1751 1758 1766 1771 1772 1768 1764 1758 1749 1737 1732 1730 1725 1720 1714 1710 1716 1720 1720 1717 1712 1703 1691 1685 1683 1678 1672 1662 1656 1652 1649 1646 1640 1636 1633 1628 1619 1608 1598 1592 1590 1584 1571 1556 1542 1530 1520 1515 1514 1515 1516 1516 1516 1514 1511 1515 1517 1520 1524 1529 1534 1534 1534 1537 1540 1542 1542 1542 1543 1546 1550 1552 1553 1554 1555 1555 1553 1548 1541 1534 1531 1525 1519 1516 1511 1506 1503 1499 1492 1488 1484 1481 1479 1477 1475 1473 1471 1467 1465 1460 1457 1454 1451 1447 1444 1440 1437 1434 1429 1423 1417 1411 1407 1403 1395 1392 1393 1390 1382 1375 1365 1355 1349 1339 1335 1339 1339 1337 1338 1337 1330 1325 1318 1313 1303 1297 1293 1289 1284 1283 1283 1284 1282 1280 1275 1274 1269 1260 1258 1252 1241 1236 1234 1231 1228 1227 1227 1224 1220 1219 1216 1210 1202 1189 1180 1177 1180 1184 1184 1182 1178 1173 1170 1162 1143 1125 1118 1123 1132 1147 1163 1171 1179 1187 1197 1204 1221 1245 1257 1263 1270 1274 1276 1290 1302 1308 1313 1316 1317 1329 1338 1347 1352 1365 1393 1421 1438 1448 1459 1468 1478 1491 1499 1507 1510 1508 1514 1516 1520 1522 1529 1544 1553 1556 1559 1566 1580 1586 1596 1601 1603 1605 1609 1611 1612 1617 1621 1625 1627 1626 1618 1606 1600 1591 1584 1582 1581 1584 1590 1601 1607 1610 1621 1635 1644 1653 1659 1660 1660 1652 1638 1629 1623 1616 1607 1600 1593 1584 1582 1581 1580 1583 1590 1590 1588 1586 1588 1589 1590 1590 1593 1598 1603 1608 1610 1613 1619 1620 1612 1601 1594 1585 1580 1575 1572 1576 1582 1587 1592 1594 1595 1599 1602 1605 1608 1610 1607 1598 1593 1584 1569 1551 1538 1529 1522 1519 1519 1520 1524 1529 1533 1533 1534 1534 1537 1540 1542 1545 1547 1547 1546 1546 1547 1549 1553 1555 1558 1560 1561 1563 1565 1566 1565 1565 1565 1567 1566 1565 1560 1556 1556 1557 1555 1552 1548 1545 1546 1545 1544 1543 1542 1544 1544 1544 1544 1543 1541 1537 1535 1537 1541 1539 1533 1533 1536 1539 1541 1542 1546 1549 1549 1546 1545 1544 1543 1542 1542 1544 1546 1545 1539 1529 1529 1533 1536 1539 1546 1550 1552 1555 1556 1555 1555 1554 1554 1555 1558 1561 1566 1574 1584 1598 1608 1619 1629 1633 1641 1654 1667 1674 1690 1712 1735 1752 1759 1754 1729 1704 1696 1689 1683 1684 1681 1675 1667 1658 1653 1652 1651 1644 1637 1628 1622 1616 1610 1606 1609 1611 1614 1627 1651 1666 1679 1686 1691 1699 1708 1714 1719 1716 1713 1716 1717 1714 1710 1707 1700 1694 1689 1689 1692 1703 1722 1734 1753 1783 1804 1825 1842 1864 1880 1897 1909 1916 1918 1919 1922 1926 1927 1929 1932 1935 1937 1938 1940 1942 1942 1946 1948 1947 1937 1908 1884 1846 1816 1805 1792 1773 1759 1754 1752 1755 1757 1756 1753
 415 414 414 414 414 415 415 415 414 414 415 416 416 416 415 416 417 418 418 418 417 416 414 414 414 414 415 417 418 418 417 418 418 418 419 420 421 423 424 425 426 427 429 434 435 432 433 436 438 441 446 448 453 457 457 460 465 471 479 482 484 489 493 496 501 515 525 529 533 542 548 555 557 558 566 575 588 597 601 600 603 611 623 629 633 641 651 659 671 684 691 699 704 707 713 722 734 745 755 764 773 776 782 791 803 816 831 847 861 873 876 880 889 897 904 914 925 942 975 1013 1039 1057 1076 1093 1108 1125 1136 1149 1161 1173 1191 1203 1208 1221 1240 1253 1277 1299 1323 1341 1349 1362 1370 1376 1387 1405 1434 1449 1467 1484 1502 1523 1542 1555 1572 1590 1608 1623 1631 1633 1627 1618 1614 1602 1597 1599 1605 1611 1611 1611 1618 1629 1643 1659 1671 1679 1678 1677 1683 1697 1702 1699 1703 1709 1714 1720 1728 1743 1757 1768 1787 1810 1824 1825 1815 1803 1787 1768 1754 1743 1730 1719 1706 1695 1683 1668 1653 1639 1625 1614 1604 1593 1581 1571 1559 1545 1534 1521 1509 1502 1494 1489 1485 1480 1475 1471 1468 1465 1467 1472 1472 1466 1455 1443 1436 1430 1424 1419 1406 1398 1390 1381 1373 1368 1363 1357 1346 1326 1311 1305 1300 1296 1294 1291 1288 1288 1289 1292 1296 1290 1286 1287 1289 1289 1293 1299 1302 1305 1304 1299 1300 1304 1317 1331 1336 1338 1340 1343 1344 1345 1347 1352 1355 1359 1367 1371 1374 1376 1380 1385 1388 1391 1402 1410 1421 1436 1451 1459 1463 1469 1472 1477 1487 1497 1508 1522 1532 1543 1553 1560 1568 1583 1605 1639 1666 1683 1695 1708 1726 1753 1783 1808 1831 1852 1870 1894 1906 1898 1877 1858 1840 1816 1793 1774 1758 1754 1758 1769 1775 1772 1765 1762 1766 1776 1781 1777 1763 1746 1735 1724 1712 1702 1690 1681 1675 1669 1660 1649 1639 1630 1621 1606 1590 1581 1568 1557 1549 1540 1532 1530 1529 1529 1526 1524 1526 1533 1542 1545 1545 1544 1542 1543 1538 1533 1531 1528 1523 1518 1513 1504 1497 1487 1477 1470 1467 1464 1463 1464 1461 1458 1452 1446 1440 1430 1427 1428 1428 1426 1422 1416 1405 1398 1389 1384 1380 1378 1381 1385 1386 1383 1379 1380 1382 1383 1383 1382 1383 1383 1380 1375 1373 1379 1383 1387 1391 1394 1403 1407 1410 1411 1406 1400 1396 1393 1392 1391 1390 1386 1384 1382 1375 1366 1360 1357 1354 1350 1348 1350 1350 1348 1348 1347 1344 1342 1339 1337 1333 1327 1322 1322 1330 1336 1344 1354 1363 1372 1384 1392 1395 1397 1403 1413 1421 1429 1438 1450 1459 1469 1482 1489 1497 1506 1512 1520 1537 1545 1558 1577 1593 1615 1636 1657 1682 1700 1710 1723 1742 1748 1751 1757 1766 1769 1766 1760 1757 1753 1748 1741 1738 1739 1737 1729 1721 1714 1713 1711 1704 1696 1690 1684 1677 1671 1668 1663 1657 1652 1646 1640 1636 1630 1627 1623 1615 1606 1597 1591 1585 1580 1572 1564 1556 1541 1530 1519 1511 1507 1507 1507 1507 1505 1506 1506 1506 1509 1514 1518 1523 1527 1530 1532 1531 1532 1535 1536 1538 1540 1540 1542 1548 1550 1552 1554 1555 1556 1554 1549 1538 1529 1525 1519 1516 1511 1505 1501 1498 1493 1489 1485 1480 1478 1475 1473 1470 1469 1470 1468 1463 1457 1454 1452 1450 1447 1444 1440 1435 1430 1425 1420 1414 1406 1402 1400 1391 1388 1386 1378 1374 1368 1357 1342 1333 1329 1325 1325 1326 1326 1327 1328 1322 1319 1316 1309 1304 1295 1289 1285 1283 1279 1277 1274 1272 1268 1265 1262 1259 1257 1255 1247 1236 1234 1232 1227 1224 1223 1222 1223 1222 1219 1214 1211 1204 1196 1188 1184 1185 1184 1180 1179 1175 1161 1147 1136 1127 1120 1120 1131 1146 1163 1178 1190 1194 1199 1213 1231 1258 1276 1283 1287 1299 1304 1310 1325 1338 1335 1332 1334 1336 1339 1349 1358 1366 1379 1400 1436 1452 1465 1479 1487 1495 1501 1507 1516 1522 1525 1531 1532 1535 1539 1548 1558 1567 1575 1576 1581 1588 1595 1605 1611 1613 1614 1614 1613 1616 1622 1626 1630 1629 1626 1619 1610 1602 1589 1583 1580 1582 1584 1591 1604 1610 1614 1621 1630 1643 1655 1661 1663 1664 1662 1652 1637 1629 1622 1610 1599 1590 1583 1585 1587 1585 1590 1597 1598 1592 1587 1588 1590 1591 1593 1599 1605 1609 1613 1617 1625 1628 1624 1616 1607 1598 1588 1583 1582 1581 1586 1589 1591 1596 1598 1601 1605 1608 1610 1614 1615 1610 1600 1593 1583 1566 1550 1543 1533 1526 1526 1526 1526 1528 1531 1531 1533 1537 1537 1539 1544 1547 1552 1554 1551 1547 1547 1548 1552 1555 1559 1563 1568 1571 1570 1570 1570 1568 1568 1569 1570 1568 1567 1565 1561 1561 1562 1561 1559 1553 1549 1548 1548 1547 1548 1550 1551 1551 1550 1549 1548 1547 1550 1550 1549 1550 1548 1541 1540 1543 1548 1550 1551 1553 1555 1555 1555 1552 1550 1550 1551 1552 1554 1553 1552 1550 1541 1539 1541 1543 1545 1551 1555 1559 1560 1559 1559 1558 1559 1561 1570 1572 1572 1577 1588 1597 1606 1617 1625 1634 1642 1649 1664 1673 1680 1691 1707 1724 1753 1768 1768 1748 1722 1713 1708 1704 1699 1690 1684 1679 1672 1664 1662 1657 1650 1643 1637 1632 1626 1619 1616 1616 1619 1624 1637 1656 1672 1686 1694 1703 1710 1717 1722 1723 1724 1724 1724 1723 1720 1719 1715 1708 1703 1696 1696 1700 1711 1729 1743 1757 1777 1804 1831 1850 1868 1885 1904 1919 1926 1929 1929 1930 1933 1936 1937 1940 1943 1944 1946 1948 1951 1952 1954 1955 1959 1956 1935 1907 1858 1823 1811 1794 1772 1764 1762 1759 1759 1760 1759 1754
 414 414 414 414 415 415 415 414 414 414 414 414 415 416 416 417 418 419 419 419 418 417 415 415 417 416 415 417 419 418 418 417 417 417 417 418 420 425 433 434 432 431 430 430 431 432 433 436 440 442 446 450 455 457 457 461 467 471 475 481 485 489 495 498 503 513 523 528 533 543 556 572 573 570 574 582 596 606 610 609 613 624 630 630 636 646 657 666 675 684 687 694 708 723 739 752 762 772 782 794 804 805 804 818 838 853 863 871 883 896 904 901 901 906 914 926 936 945 968 994 1016 1039 1063 1084 1100 1117 1130 1143 1159 1171 1186 1199 1208 1227 1239 1255 1275 1301 1325 1340 1348 1357 1363 1368 1379 1409 1437 1448 1463 1488 1502 1524 1543 1557 1572 1590 1603 1618 1632 1644 1656 1663 1661 1650 1645 1649 1653 1659 1661 1664 1665 1665 1674 1690 1702 1716 1723 1727 1732 1738 1740 1740 1741 1744 1749 1759 1775 1791 1801 1812 1830 1840 1841 1832 1808 1789 1772 1758 1743 1729 1715 1702 1694 1682 1669 1656 1642 1631 1620 1611 1603 1594 1586 1577 1561 1548 1536 1519 1505 1496 1486 1481 1476 1470 1465 1462 1460 1459 1461 1463 1460 1453 1448 1443 1438 1430 1422 1415 1398 1390 1378 1368 1360 1356 1350 1339 1331 1311 1298 1293 1288 1282 1281 1281 1282 1282 1282 1283 1287 1287 1284 1283 1285 1289 1294 1300 1296 1289 1288 1295 1302 1312 1327 1333 1337 1342 1343 1344 1344 1345 1345 1346 1347 1349 1355 1364 1366 1370 1374 1381 1388 1396 1408 1421 1432 1443 1451 1456 1461 1466 1471 1478 1491 1500 1514 1527 1538 1550 1560 1572 1583 1596 1617 1647 1667 1680 1698 1720 1744 1777 1807 1828 1849 1866 1879 1891 1894 1883 1867 1848 1828 1801 1776 1758 1743 1736 1737 1745 1748 1745 1739 1738 1743 1754 1762 1760 1750 1738 1728 1715 1702 1690 1675 1664 1659 1656 1646 1636 1623 1611 1602 1589 1576 1567 1555 1542 1535 1530 1525 1525 1525 1519 1515 1517 1523 1526 1526 1525 1528 1530 1529 1529 1527 1527 1526 1523 1518 1511 1495 1483 1478 1470 1462 1458 1454 1450 1448 1447 1443 1440 1437 1434 1427 1422 1419 1418 1415 1412 1409 1404 1393 1387 1379 1373 1368 1366 1366 1368 1370 1370 1370 1373 1377 1379 1379 1377 1377 1376 1371 1368 1369 1373 1378 1383 1388 1397 1402 1400 1399 1396 1394 1392 1390 1387 1387 1389 1386 1373 1368 1367 1364 1360 1354 1351 1349 1347 1349 1353 1349 1346 1344 1342 1340 1338 1335 1332 1328 1322 1320 1323 1332 1337 1346 1354 1358 1362 1369 1374 1380 1389 1398 1408 1418 1425 1434 1446 1456 1466 1474 1479 1483 1493 1505 1519 1541 1559 1582 1602 1617 1633 1652 1670 1687 1703 1714 1728 1740 1748 1757 1762 1765 1763 1760 1758 1756 1752 1748 1748 1745 1741 1733 1720 1708 1701 1697 1692 1685 1678 1674 1668 1660 1656 1655 1650 1644 1640 1633 1628 1623 1616 1612 1603 1592 1587 1580 1575 1569 1561 1554 1547 1539 1529 1520 1510 1504 1500 1497 1493 1490 1488 1492 1498 1503 1508 1510 1513 1518 1522 1523 1525 1526 1528 1531 1532 1534 1538 1540 1543 1546 1550 1553 1555 1557 1558 1556 1551 1537 1528 1522 1516 1511 1506 1501 1498 1495 1488 1483 1480 1477 1475 1472 1468 1463 1459 1462 1462 1460 1454 1453 1451 1447 1442 1440 1435 1429 1423 1420 1418 1412 1403 1400 1401 1395 1383 1377 1374 1371 1363 1352 1342 1333 1324 1320 1319 1317 1315 1314 1318 1319 1318 1313 1308 1306 1297 1288 1284 1283 1281 1277 1273 1268 1266 1263 1256 1251 1249 1242 1237 1234 1235 1232 1228 1227 1224 1222 1221 1220 1221 1218 1212 1205 1199 1195 1190 1187 1182 1173 1167 1156 1141 1129 1126 1125 1131 1142 1155 1161 1169 1183 1203 1210 1216 1236 1264 1285 1296 1304 1317 1334 1338 1339 1353 1362 1353 1355 1358 1360 1356 1360 1369 1381 1392 1410 1446 1469 1484 1494 1501 1506 1513 1521 1529 1540 1548 1554 1554 1556 1558 1561 1565 1577 1588 1593 1597 1600 1606 1613 1617 1617 1617 1616 1617 1621 1621 1620 1618 1616 1617 1619 1616 1610 1598 1588 1586 1587 1588 1593 1601 1609 1616 1623 1633 1647 1658 1665 1667 1668 1669 1661 1645 1635 1624 1608 1599 1592 1587 1591 1593 1594 1597 1599 1599 1596 1591 1589 1591 1595 1600 1608 1611 1614 1621 1627 1631 1630 1625 1617 1612 1606 1590 1584 1585 1588 1592 1594 1598 1603 1605 1609 1614 1618 1620 1622 1621 1614 1601 1593 1580 1564 1552 1546 1536 1529 1528 1532 1536 1537 1534 1532 1534 1540 1542 1544 1551 1555 1559 1558 1555 1552 1551 1554 1558 1564 1566 1569 1573 1575 1573 1572 1572 1574 1573 1573 1573 1570 1566 1566 1567 1566 1567 1567 1565 1560 1554 1554 1554 1554 1553 1555 1556 1557 1555 1553 1553 1556 1559 1559 1555 1555 1555 1549 1550 1554 1558 1558 1560 1560 1562 1564 1564 1562 1560 1561 1560 1560 1558 1558 1557 1552 1547 1546 1546 1549 1552 1557 1562 1566 1564 1565 1567 1566 1569 1577 1584 1585 1587 1589 1594 1606 1615 1621 1627 1637 1647 1654 1667 1679 1687 1693 1705 1719 1749 1772 1778 1765 1740 1726 1721 1719 1712 1697 1691 1691 1689 1679 1673 1668 1659 1651 1645 1640 1633 1627 1623 1623 1627 1633 1642 1661 1678 1690 1699 1711 1718 1724 1727 1729 1732 1734 1733 1733 1731 1730 1727 1715 1707 1704 1707 1714 1725 1737 1747 1760 1776 1797 1830 1857 1880 1898 1917 1927 1931 1933 1936 1938 1941 1943 1946 1949 1951 1952 1954 1957 1960 1961 1962 1969 1975 1957 1928 1895 1850 1823 1807 1785 1773 1770 1770 1768 1767 1764 1761 1755
 414 414 414 415 415 415 414 414 414 414 414 414 415 416 417 417 418 418 418 418 418 417 416 416 417 417 417 417 418 417 418 419 418 416 415 417 419 421 424 426 426 427 428 431 433 432 432 437 441 443 447 450 454 457 459 464 470 473 476 481 485 489 495 501 509 520 527 533 542 550 567 578 577 578 583 587 597 611 616 617 621 627 632 632 639 647 661 672 679 684 690 707 723 734 749 763 774 786 799 808 816 826 833 847 864 876 887 889 897 911 920 925 929 939 955 975 983 985 987 997 1007 1020 1039 1060 1078 1099 1119 1134 1150 1165 1177 1194 1205 1221 1239 1257 1276 1303 1323 1337 1342 1346 1352 1365 1388 1418 1440 1449 1463 1487 1500 1519 1540 1554 1567 1585 1598 1612 1626 1642 1657 1671 1680 1685 1685 1687 1687 1685 1695 1705 1707 1705 1708 1723 1735 1751 1759 1761 1762 1762 1765 1770 1776 1784 1800 1816 1823 1832 1838 1843 1846 1840 1833 1822 1808 1794 1767 1745 1733 1717 1702 1692 1681 1669 1658 1646 1635 1626 1617 1611 1605 1600 1594 1585 1570 1554 1539 1521 1502 1488 1478 1471 1469 1465 1460 1457 1452 1449 1445 1444 1443 1443 1443 1441 1441 1438 1428 1414 1397 1385 1373 1363 1353 1345 1330 1323 1320 1304 1289 1283 1276 1274 1275 1276 1278 1280 1283 1280 1282 1289 1288 1285 1286 1287 1285 1281 1277 1278 1287 1295 1301 1313 1322 1330 1337 1342 1341 1341 1340 1341 1341 1342 1343 1346 1349 1354 1362 1369 1376 1387 1395 1402 1412 1425 1435 1442 1448 1452 1458 1465 1471 1481 1494 1503 1517 1528 1539 1555 1572 1584 1597 1612 1630 1652 1668 1680 1706 1738 1767 1799 1825 1844 1864 1876 1879 1879 1872 1864 1852 1835 1816 1792 1769 1751 1734 1723 1719 1723 1724 1722 1716 1714 1717 1727 1740 1744 1740 1731 1722 1710 1695 1683 1668 1654 1647 1640 1628 1617 1605 1595 1587 1577 1564 1555 1546 1536 1527 1520 1516 1517 1515 1508 1507 1512 1518 1519 1514 1514 1517 1516 1517 1519 1522 1524 1523 1515 1507 1499 1480 1467 1462 1458 1452 1450 1445 1443 1441 1436 1432 1429 1427 1425 1422 1419 1413 1411 1404 1397 1392 1391 1385 1378 1367 1359 1356 1356 1359 1360 1360 1363 1366 1369 1372 1375 1372 1366 1365 1363 1362 1365 1368 1373 1379 1385 1394 1399 1394 1390 1390 1389 1388 1387 1383 1380 1380 1384 1378 1365 1363 1361 1359 1355 1351 1348 1346 1347 1350 1350 1345 1344 1342 1340 1337 1335 1331 1327 1323 1319 1319 1324 1332 1335 1342 1347 1351 1357 1363 1368 1375 1384 1392 1400 1410 1419 1426 1439 1448 1458 1464 1471 1478 1491 1505 1527 1556 1578 1596 1612 1626 1643 1661 1676 1691 1705 1718 1732 1743 1752 1761 1764 1764 1763 1761 1760 1758 1751 1747 1743 1736 1726 1715 1704 1697 1691 1684 1680 1673 1665 1660 1655 1650 1647 1641 1632 1627 1624 1619 1614 1605 1598 1593 1585 1578 1571 1565 1561 1554 1546 1540 1532 1526 1517 1510 1504 1498 1493 1488 1482 1480 1483 1487 1493 1500 1506 1508 1508 1511 1513 1516 1517 1519 1522 1526 1530 1535 1541 1545 1548 1550 1555 1557 1560 1563 1562 1556 1548 1536 1528 1522 1516 1509 1506 1502 1498 1493 1485 1481 1478 1476 1474 1470 1466 1460 1455 1450 1446 1445 1447 1448 1446 1441 1436 1432 1426 1419 1414 1409 1405 1402 1397 1396 1400 1394 1383 1373 1363 1358 1347 1340 1337 1335 1324 1315 1312 1311 1307 1306 1310 1317 1315 1308 1305 1303 1295 1291 1287 1286 1285 1280 1275 1268 1266 1261 1255 1251 1243 1238 1235 1235 1239 1237 1235 1232 1228 1227 1223 1220 1221 1217 1210 1202 1194 1188 1186 1182 1170 1150 1141 1136 1131 1128 1134 1143 1151 1164 1173 1176 1185 1194 1206 1220 1235 1255 1275 1298 1310 1324 1349 1360 1363 1366 1375 1380 1378 1377 1377 1377 1376 1382 1389 1397 1406 1419 1451 1480 1493 1502 1511 1519 1527 1533 1544 1552 1558 1565 1570 1575 1577 1574 1575 1587 1595 1599 1604 1610 1613 1617 1618 1617 1615 1615 1616 1617 1615 1611 1605 1605 1609 1612 1614 1610 1599 1590 1589 1590 1594 1599 1604 1609 1616 1624 1638 1650 1662 1668 1673 1675 1674 1667 1651 1635 1622 1605 1598 1596 1597 1600 1600 1601 1600 1601 1600 1599 1597 1597 1600 1604 1609 1613 1616 1620 1630 1634 1633 1629 1625 1620 1615 1607 1594 1587 1588 1595 1599 1600 1605 1611 1613 1615 1621 1624 1626 1625 1623 1615 1602 1592 1575 1563 1556 1547 1539 1532 1533 1538 1540 1541 1538 1534 1538 1543 1545 1547 1553 1558 1562 1562 1559 1558 1556 1558 1567 1570 1571 1573 1576 1577 1577 1575 1575 1578 1578 1578 1578 1574 1570 1568 1569 1570 1571 1572 1570 1566 1558 1557 1559 1561 1560 1561 1561 1560 1559 1557 1559 1563 1565 1565 1560 1560 1560 1557 1557 1561 1564 1567 1568 1568 1571 1569 1568 1568 1566 1566 1566 1564 1565 1567 1565 1559 1554 1552 1553 1557 1562 1565 1569 1570 1569 1569 1572 1578 1583 1586 1587 1590 1594 1595 1600 1607 1620 1627 1633 1640 1650 1659 1674 1687 1693 1698 1706 1715 1741 1773 1784 1781 1760 1742 1732 1728 1716 1702 1699 1701 1699 1691 1681 1674 1665 1658 1651 1645 1638 1633 1631 1630 1635 1640 1649 1667 1685 1696 1707 1714 1722 1726 1731 1734 1736 1739 1739 1739 1740 1739 1733 1722 1712 1711 1716 1722 1733 1743 1752 1765 1779 1801 1834 1861 1884 1903 1922 1933 1937 1940 1943 1946 1953 1954 1954 1954 1957 1960 1962 1964 1966 1967 1968 1973 1968 1943 1913 1875 1841 1821 1799 1782 1778 1777 1776 1774 1772 1768 1761 1754
 414 414 414 414 414 414 414 414 414 414 414 414 415 416 416 416 416 416 417 417 417 417 417 417 417 417 417 417 417 417 417 418 417 417 418 419 421 420 422 424 427 428 429 431 435 431 430 437 441 443 445 448 451 457 461 467 470 472 477 482 486 492 505 513 522 533 542 554 558 559 566 574 576 581 587 592 605 615 619 622 629 634 641 643 648 653 665 672 680 694 707 718 728 737 752 765 776 787 800 811 822 838 848 864 880 892 907 917 922 929 941 960 979 997 1009 1017 1026 1032 1040 1046 1042 1041 1044 1051 1064 1080 1098 1118 1133 1149 1164 1178 1198 1216 1235 1255 1276 1295 1308 1323 1332 1338 1347 1374 1399 1417 1435 1452 1464 1479 1493 1512 1530 1549 1564 1578 1590 1606 1622 1633 1647 1666 1680 1695 1707 1714 1721 1731 1737 1729 1731 1740 1761 1786 1788 1782 1786 1794 1799 1800 1806 1819 1827 1831 1835 1837 1835 1833 1830 1830 1826 1819 1812 1800 1792 1783 1766 1742 1725 1706 1692 1680 1670 1658 1647 1636 1627 1621 1612 1600 1593 1585 1579 1572 1561 1548 1534 1517 1496 1482 1473 1464 1463 1463 1455 1445 1434 1434 1434 1434 1435 1437 1437 1433 1432 1434 1427 1410 1397 1378 1364 1350 1335 1322 1311 1304 1298 1285 1275 1271 1269 1270 1270 1271 1274 1278 1288 1282 1278 1288 1289 1283 1275 1274 1271 1270 1279 1286 1295 1297 1299 1303 1313 1321 1329 1332 1333 1331 1327 1328 1332 1338 1342 1344 1348 1352 1360 1367 1374 1383 1395 1401 1410 1421 1429 1437 1445 1449 1458 1469 1478 1489 1500 1510 1523 1534 1546 1569 1597 1616 1627 1632 1642 1658 1677 1698 1731 1760 1791 1822 1840 1860 1874 1877 1873 1859 1843 1834 1824 1810 1796 1778 1758 1741 1722 1708 1700 1696 1695 1692 1687 1687 1690 1701 1718 1725 1724 1716 1707 1694 1681 1671 1658 1641 1629 1615 1602 1593 1586 1579 1573 1565 1556 1549 1542 1530 1519 1511 1508 1505 1500 1499 1499 1501 1506 1507 1503 1501 1498 1502 1507 1512 1515 1512 1507 1498 1487 1479 1465 1460 1456 1450 1444 1441 1436 1434 1431 1426 1423 1421 1418 1415 1407 1402 1399 1396 1392 1387 1380 1377 1374 1367 1359 1350 1347 1348 1352 1354 1354 1354 1358 1363 1365 1365 1362 1359 1357 1354 1355 1360 1365 1372 1384 1387 1390 1391 1390 1386 1385 1382 1382 1379 1376 1373 1371 1370 1361 1357 1355 1350 1347 1348 1347 1345 1346 1351 1350 1344 1343 1342 1342 1339 1336 1333 1327 1324 1320 1317 1318 1323 1328 1330 1334 1342 1349 1354 1362 1367 1372 1380 1387 1393 1402 1411 1422 1436 1444 1453 1462 1472 1485 1502 1521 1553 1574 1590 1606 1623 1635 1653 1671 1684 1699 1711 1724 1739 1749 1756 1763 1763 1760 1756 1752 1747 1739 1735 1729 1718 1707 1701 1693 1687 1682 1676 1668 1662 1654 1650 1647 1642 1637 1631 1624 1616 1612 1608 1603 1598 1589 1582 1577 1570 1563 1558 1553 1544 1535 1528 1522 1516 1508 1503 1499 1493 1487 1481 1475 1474 1475 1479 1483 1487 1494 1498 1501 1501 1500 1498 1498 1503 1510 1520 1529 1536 1540 1546 1551 1555 1558 1562 1565 1567 1569 1568 1562 1551 1539 1531 1523 1517 1510 1506 1500 1495 1489 1485 1483 1482 1479 1475 1471 1467 1465 1462 1455 1448 1437 1431 1434 1437 1434 1430 1425 1417 1410 1402 1396 1392 1390 1391 1390 1388 1380 1373 1365 1347 1337 1333 1330 1331 1328 1317 1311 1307 1305 1302 1303 1308 1316 1316 1311 1309 1306 1296 1293 1294 1294 1289 1283 1280 1277 1270 1260 1255 1252 1243 1236 1233 1233 1240 1243 1240 1235 1234 1233 1231 1228 1219 1211 1203 1194 1186 1183 1180 1167 1146 1137 1134 1134 1142 1153 1157 1156 1165 1182 1192 1202 1214 1222 1223 1232 1248 1270 1299 1322 1336 1352 1374 1383 1391 1403 1407 1406 1409 1405 1401 1406 1408 1414 1417 1415 1423 1434 1456 1486 1501 1512 1521 1530 1538 1547 1554 1559 1566 1573 1581 1589 1593 1593 1591 1601 1607 1609 1609 1613 1616 1616 1614 1609 1603 1606 1603 1601 1602 1600 1596 1599 1603 1606 1609 1607 1599 1594 1592 1594 1597 1601 1608 1615 1621 1631 1645 1654 1664 1675 1679 1680 1680 1675 1656 1635 1618 1605 1600 1598 1603 1606 1606 1608 1608 1605 1602 1600 1600 1605 1608 1612 1617 1623 1623 1630 1636 1637 1637 1633 1627 1625 1620 1612 1604 1599 1600 1603 1606 1608 1613 1617 1620 1624 1629 1631 1632 1631 1627 1615 1601 1591 1574 1565 1558 1550 1542 1537 1542 1545 1545 1544 1541 1540 1547 1552 1553 1553 1557 1561 1567 1566 1563 1559 1560 1567 1574 1576 1578 1580 1581 1580 1579 1581 1582 1582 1582 1582 1582 1579 1576 1576 1577 1576 1576 1576 1573 1569 1563 1562 1566 1568 1569 1569 1568 1567 1566 1567 1570 1573 1573 1574 1570 1569 1570 1567 1566 1569 1575 1577 1578 1580 1579 1578 1574 1572 1571 1571 1572 1571 1574 1573 1570 1565 1563 1562 1561 1565 1569 1574 1575 1574 1575 1577 1583 1589 1590 1591 1595 1597 1600 1603 1608 1613 1622 1630 1637 1644 1653 1664 1680 1691 1696 1699 1704 1716 1734 1768 1788 1796 1782 1758 1745 1732 1719 1715 1710 1709 1707 1698 1687 1679 1670 1664 1657 1652 1645 1641 1639 1641 1644 1650 1659 1673 1691 1707 1716 1723 1728 1734 1738 1742 1745 1748 1749 1749 1748 1746 1738 1728 1721 1722 1726 1732 1748 1756 1766 1779 1796 1825 1850 1872 1886 1907 1928 1942 1945 1947 1951 1957 1963 1962 1963 1966 1967 1970 1972 1974 1976 1975 1973 1960 1935 1914 1894 1860 1834 1818 1798 1790 1787 1784 1781 1776 1773 1768 1761 1752
 415 415 415 414 414 415 414 413 413 414 414 414 415 416 416 415 415 415 416 416 416 417 417 417 416 416 416 416 417 417 418 418 418 418 420 420 420 421 424 425 427 429 429 430 432 432 431 436 439 442 445 450 454 460 464 468 471 474 478 483 491 501 513 526 543 554 563 564 559 557 562 570 582 597 603 608 612 615 620 628 636 643 653 662 668 674 675 676 691 706 714 721 731 741 752 763 771 778 787 798 815 833 850 869 884 895 915 931 941 955 981 994 1007 1023 1035 1048 1058 1069 1078 1082 1085 1091 1092 1087 1086 1088 1099 1117 1131 1142 1157 1174 1193 1209 1228 1248 1271 1288 1297 1307 1318 1329 1351 1380 1399 1417 1433 1448 1465 1477 1488 1508 1524 1542 1558 1572 1582 1599 1613 1626 1640 1658 1676 1691 1705 1720 1739 1754 1763 1764 1762 1765 1789 1819 1829 1829 1832 1843 1847 1845 1842 1838 1831 1825 1820 1816 1812 1807 1803 1800 1797 1796 1790 1785 1775 1763 1753 1744 1726 1701 1685 1675 1660 1644 1635 1627 1620 1611 1601 1589 1578 1568 1562 1555 1549 1537 1524 1506 1489 1477 1466 1454 1447 1447 1442 1427 1422 1422 1422 1425 1429 1430 1428 1425 1426 1427 1416 1398 1388 1362 1342 1328 1318 1310 1298 1288 1280 1273 1268 1264 1263 1264 1264 1264 1266 1273 1284 1281 1274 1276 1271 1264 1261 1264 1267 1274 1282 1283 1283 1286 1288 1294 1305 1311 1317 1319 1319 1317 1318 1322 1331 1336 1336 1338 1345 1355 1366 1373 1380 1389 1397 1404 1416 1427 1434 1440 1448 1454 1466 1478 1488 1499 1511 1521 1532 1554 1577 1610 1637 1652 1663 1660 1665 1681 1707 1729 1754 1786 1814 1838 1859 1872 1872 1864 1852 1833 1814 1803 1792 1780 1768 1753 1737 1720 1703 1689 1679 1671 1666 1662 1661 1665 1671 1688 1705 1710 1705 1694 1684 1672 1661 1652 1637 1617 1604 1590 1580 1574 1567 1562 1558 1554 1548 1540 1527 1520 1512 1503 1498 1496 1490 1487 1490 1493 1492 1488 1483 1484 1487 1496 1504 1507 1503 1492 1484 1476 1466 1460 1457 1454 1448 1439 1436 1434 1431 1428 1423 1419 1414 1408 1404 1397 1392 1393 1390 1386 1380 1373 1366 1361 1359 1356 1350 1343 1343 1345 1347 1348 1348 1348 1351 1356 1358 1358 1355 1352 1350 1349 1352 1355 1358 1366 1378 1380 1379 1380 1383 1382 1379 1376 1375 1373 1372 1368 1360 1354 1350 1348 1345 1342 1340 1338 1336 1338 1344 1348 1345 1342 1342 1342 1343 1340 1334 1330 1324 1320 1317 1314 1315 1317 1322 1326 1332 1342 1350 1358 1366 1369 1375 1383 1392 1401 1410 1419 1440 1454 1459 1469 1478 1488 1501 1526 1548 1570 1584 1601 1618 1632 1648 1667 1681 1691 1704 1717 1729 1743 1752 1754 1755 1745 1739 1734 1720 1713 1711 1707 1701 1696 1691 1685 1679 1671 1665 1658 1650 1644 1638 1635 1631 1625 1617 1613 1610 1604 1598 1593 1585 1580 1575 1568 1559 1553 1548 1542 1534 1527 1519 1512 1505 1500 1496 1492 1487 1481 1475 1469 1466 1468 1470 1475 1477 1479 1483 1485 1482 1482 1484 1487 1496 1511 1520 1529 1536 1540 1547 1553 1557 1563 1566 1568 1571 1573 1574 1572 1564 1556 1547 1536 1529 1519 1511 1506 1499 1492 1489 1488 1488 1488 1485 1480 1475 1473 1471 1466 1463 1454 1444 1432 1424 1421 1422 1421 1417 1410 1402 1397 1393 1391 1382 1373 1369 1366 1362 1356 1355 1343 1326 1319 1319 1320 1315 1309 1304 1303 1300 1298 1300 1308 1311 1309 1308 1303 1296 1291 1291 1293 1294 1286 1281 1280 1276 1267 1258 1255 1251 1247 1240 1237 1239 1245 1248 1243 1237 1234 1230 1226 1218 1208 1200 1195 1189 1182 1179 1174 1150 1140 1146 1155 1158 1172 1173 1182 1189 1192 1196 1204 1225 1236 1243 1255 1259 1275 1304 1327 1346 1360 1375 1393 1406 1421 1434 1437 1442 1450 1445 1437 1435 1438 1434 1433 1434 1440 1449 1470 1494 1510 1524 1533 1542 1550 1558 1565 1572 1576 1580 1590 1595 1599 1605 1610 1614 1617 1617 1615 1614 1615 1614 1611 1604 1597 1595 1593 1591 1592 1593 1592 1594 1597 1604 1607 1606 1602 1598 1595 1597 1600 1605 1615 1620 1628 1639 1649 1658 1669 1679 1682 1683 1681 1675 1656 1631 1616 1607 1603 1604 1609 1613 1613 1615 1616 1612 1605 1603 1605 1610 1613 1616 1624 1632 1635 1639 1640 1640 1639 1635 1630 1626 1622 1615 1611 1607 1608 1610 1617 1619 1619 1623 1626 1631 1635 1636 1636 1634 1628 1611 1601 1592 1578 1567 1559 1550 1544 1545 1550 1552 1551 1550 1548 1548 1555 1558 1560 1561 1564 1569 1572 1569 1566 1562 1567 1575 1579 1581 1583 1584 1585 1584 1583 1585 1586 1584 1583 1583 1584 1582 1581 1584 1586 1585 1585 1582 1578 1574 1569 1568 1573 1577 1578 1578 1579 1579 1579 1580 1581 1584 1583 1583 1581 1577 1578 1577 1578 1579 1583 1585 1585 1587 1586 1583 1580 1577 1577 1579 1582 1582 1580 1578 1574 1572 1570 1566 1567 1573 1578 1582 1582 1582 1582 1585 1591 1594 1594 1596 1601 1606 1611 1617 1618 1620 1625 1632 1639 1649 1659 1667 1680 1687 1692 1696 1704 1721 1739 1758 1782 1802 1799 1779 1758 1741 1728 1722 1723 1723 1713 1702 1692 1683 1677 1670 1663 1659 1655 1652 1651 1652 1656 1663 1670 1683 1696 1711 1726 1732 1737 1745 1749 1754 1757 1757 1758 1759 1757 1751 1739 1730 1729 1731 1736 1744 1754 1772 1784 1796 1818 1847 1874 1885 1899 1923 1940 1950 1952 1956 1960 1966 1970 1971 1973 1976 1976 1977 1979 1981 1982 1982 1976 1946 1909 1894 1885 1857 1837 1821 1803 1796 1792 1789 1787 1780 1773 1768 1762 1747
 415 416 415 415 415 415 415 413 413 413 414 414 415 416 416 416 415 415 415 416 416 417 417 417 416 416 416 416 417 418 418 418 418 418 419 420 420 422 424 424 425 427 429 429 430 431 434 436 438 444 450 458 463 464 466 469 474 477 478 482 496 509 528 546 553 552 560 561 552 555 563 574 593 600 602 606 612 617 624 630 637 644 655 664 671 678 683 690 699 709 718 727 738 747 757 767 776 783 789 798 814 829 846 867 883 897 918 938 957 982 1001 1008 1019 1035 1048 1060 1073 1086 1097 1102 1107 1114 1122 1124 1125 1117 1118 1135 1150 1156 1166 1182 1197 1214 1232 1249 1264 1281 1290 1301 1310 1323 1351 1375 1390 1407 1426 1440 1457 1475 1485 1502 1520 1534 1547 1564 1577 1590 1609 1624 1639 1658 1676 1690 1705 1720 1739 1753 1765 1781 1792 1799 1820 1842 1852 1855 1856 1855 1850 1843 1833 1820 1809 1801 1794 1791 1788 1786 1781 1777 1777 1778 1776 1774 1766 1760 1750 1740 1728 1703 1683 1670 1654 1642 1632 1622 1612 1604 1595 1584 1574 1565 1557 1549 1541 1528 1513 1499 1489 1475 1462 1449 1434 1425 1421 1415 1410 1408 1412 1418 1418 1418 1419 1422 1423 1420 1406 1394 1376 1350 1334 1323 1316 1306 1292 1285 1276 1266 1262 1260 1260 1259 1260 1262 1263 1267 1280 1282 1277 1270 1266 1262 1259 1266 1275 1280 1279 1276 1273 1273 1280 1293 1304 1307 1306 1308 1311 1316 1321 1324 1330 1334 1335 1338 1347 1356 1369 1381 1392 1400 1407 1416 1425 1433 1439 1447 1456 1464 1475 1486 1496 1507 1521 1531 1550 1589 1614 1636 1652 1666 1684 1703 1709 1711 1728 1746 1776 1804 1826 1854 1868 1868 1855 1836 1821 1804 1788 1777 1766 1755 1744 1730 1713 1697 1681 1667 1658 1652 1647 1643 1644 1648 1655 1675 1696 1700 1690 1675 1666 1650 1636 1625 1609 1593 1583 1573 1565 1559 1552 1547 1544 1542 1536 1528 1517 1512 1507 1494 1490 1484 1476 1470 1475 1481 1475 1471 1471 1473 1480 1490 1497 1495 1484 1470 1463 1458 1452 1449 1447 1439 1436 1434 1432 1429 1424 1415 1410 1407 1401 1398 1394 1389 1387 1385 1381 1377 1371 1357 1349 1347 1346 1343 1340 1338 1338 1340 1341 1338 1337 1340 1344 1349 1350 1347 1344 1343 1342 1344 1348 1353 1359 1367 1371 1372 1370 1369 1370 1373 1374 1373 1372 1366 1365 1363 1353 1348 1344 1342 1341 1338 1335 1331 1331 1335 1339 1341 1340 1341 1342 1343 1344 1337 1330 1325 1319 1315 1310 1306 1310 1314 1321 1327 1336 1344 1353 1362 1369 1373 1381 1391 1399 1407 1419 1431 1453 1463 1470 1482 1496 1510 1526 1546 1558 1576 1589 1606 1622 1637 1656 1670 1684 1694 1708 1718 1726 1737 1747 1746 1739 1726 1720 1711 1699 1690 1684 1682 1684 1682 1677 1672 1666 1655 1648 1640 1634 1627 1621 1618 1615 1609 1602 1597 1594 1589 1583 1576 1570 1565 1560 1554 1549 1543 1535 1528 1521 1514 1506 1499 1493 1491 1486 1479 1474 1467 1464 1461 1464 1466 1469 1473 1474 1472 1470 1474 1474 1479 1486 1495 1508 1518 1525 1532 1540 1547 1555 1559 1563 1568 1570 1573 1576 1578 1579 1578 1569 1562 1552 1541 1532 1522 1514 1509 1502 1497 1494 1494 1493 1490 1487 1483 1479 1475 1471 1467 1463 1455 1449 1442 1433 1424 1415 1410 1406 1399 1395 1392 1389 1388 1378 1367 1364 1363 1357 1344 1336 1330 1327 1324 1312 1305 1300 1296 1293 1291 1288 1286 1289 1295 1291 1295 1302 1296 1287 1284 1283 1284 1288 1283 1278 1276 1269 1257 1250 1253 1252 1247 1241 1243 1248 1249 1246 1237 1231 1229 1223 1212 1202 1195 1191 1187 1179 1174 1170 1162 1145 1143 1153 1171 1180 1185 1194 1201 1209 1214 1217 1233 1252 1261 1268 1284 1298 1320 1338 1353 1367 1381 1396 1412 1432 1444 1454 1459 1465 1474 1471 1464 1456 1455 1451 1454 1458 1459 1465 1483 1502 1516 1530 1539 1550 1558 1569 1577 1584 1589 1596 1598 1600 1606 1615 1621 1625 1627 1628 1627 1618 1616 1616 1613 1607 1598 1594 1591 1588 1588 1590 1592 1594 1596 1603 1606 1604 1601 1597 1596 1600 1605 1612 1619 1625 1634 1644 1653 1663 1674 1680 1682 1683 1682 1675 1652 1628 1618 1611 1606 1607 1613 1616 1617 1619 1618 1614 1609 1608 1609 1614 1620 1623 1629 1634 1637 1642 1643 1642 1641 1638 1634 1627 1623 1619 1615 1615 1614 1615 1621 1626 1628 1631 1634 1638 1641 1643 1639 1635 1625 1608 1602 1597 1585 1573 1563 1556 1550 1549 1553 1554 1554 1553 1553 1553 1557 1562 1566 1571 1574 1575 1575 1573 1570 1571 1578 1582 1585 1588 1588 1588 1590 1590 1588 1591 1592 1590 1587 1588 1590 1588 1586 1588 1591 1593 1592 1589 1585 1582 1580 1578 1581 1585 1588 1589 1588 1586 1586 1588 1590 1594 1594 1595 1590 1585 1584 1585 1586 1588 1591 1594 1595 1597 1593 1589 1587 1588 1589 1588 1589 1587 1585 1582 1580 1578 1576 1572 1572 1581 1585 1588 1592 1591 1588 1590 1595 1598 1600 1605 1609 1615 1619 1624 1628 1631 1634 1640 1644 1651 1661 1671 1682 1686 1689 1694 1702 1716 1741 1757 1772 1799 1806 1795 1775 1761 1742 1731 1731 1728 1716 1701 1695 1688 1683 1677 1670 1664 1661 1657 1657 1661 1667 1674 1682 1694 1704 1712 1729 1739 1743 1751 1758 1761 1763 1764 1765 1764 1760 1752 1737 1732 1734 1740 1748 1757 1766 1788 1795 1807 1838 1869 1891 1901 1917 1939 1953 1959 1961 1966 1970 1975 1976 1978 1980 1981 1982 1984 1986 1986 1987 1988 1989 1973 1921 1892 1874 1853 1841 1828 1811 1804 1799 1794 1792 1787 1777 1771 1763 1751
 415 415 415 415 415 415 415 414 413 414 414 414 414 415 416 416 416 416 415 415 415 416 417 417 416 416 416 417 418 419 418 418 418 418 419 420 421 421 421 423 424 425 427 428 429 431 433 436 438 448 459 466 469 468 468 472 477 479 482 492 506 520 536 545 550 545 545 548 552 561 568 578 588 593 598 604 612 618 624 631 637 642 651 662 672 679 688 699 704 715 725 734 746 755 767 777 788 797 807 818 830 843 861 875 891 906 933 961 979 997 1013 1023 1040 1051 1056 1063 1073 1089 1112 1126 1132 1138 1145 1147 1151 1154 1151 1156 1176 1188 1200 1213 1227 1242 1258 1274 1283 1289 1299 1310 1319 1328 1347 1368 1383 1402 1420 1434 1451 1470 1483 1498 1518 1532 1548 1562 1575 1591 1611 1624 1641 1659 1673 1690 1706 1720 1734 1751 1770 1791 1806 1819 1840 1852 1855 1852 1844 1836 1824 1814 1805 1796 1786 1779 1772 1764 1758 1754 1756 1754 1755 1765 1774 1779 1768 1758 1745 1736 1730 1707 1679 1665 1650 1638 1627 1615 1602 1588 1580 1569 1560 1554 1544 1533 1522 1512 1503 1492 1478 1462 1448 1435 1425 1414 1407 1404 1403 1404 1407 1409 1406 1407 1410 1412 1409 1397 1382 1369 1355 1345 1336 1323 1316 1307 1291 1282 1271 1266 1260 1257 1255 1256 1259 1262 1261 1263 1271 1278 1275 1268 1263 1259 1260 1271 1277 1276 1269 1266 1269 1273 1279 1290 1297 1302 1302 1305 1315 1324 1325 1326 1331 1338 1342 1347 1355 1363 1376 1390 1402 1409 1417 1425 1432 1443 1450 1459 1469 1478 1488 1500 1509 1520 1537 1559 1590 1617 1631 1646 1662 1683 1715 1735 1748 1749 1752 1769 1795 1822 1848 1859 1854 1838 1816 1798 1786 1773 1761 1750 1741 1730 1717 1701 1681 1666 1652 1641 1635 1631 1629 1628 1627 1631 1639 1658 1678 1682 1670 1655 1640 1620 1604 1593 1581 1571 1563 1555 1548 1542 1537 1531 1527 1525 1523 1519 1511 1499 1492 1486 1480 1469 1462 1457 1456 1458 1457 1458 1462 1465 1470 1476 1478 1473 1463 1453 1445 1439 1437 1436 1432 1430 1429 1426 1421 1417 1410 1405 1401 1398 1395 1392 1389 1386 1381 1373 1371 1370 1360 1346 1342 1340 1338 1337 1334 1332 1331 1331 1329 1330 1330 1334 1337 1339 1339 1336 1332 1337 1344 1349 1351 1358 1367 1367 1364 1363 1362 1361 1363 1367 1367 1363 1361 1359 1355 1352 1344 1339 1337 1337 1335 1332 1329 1330 1333 1335 1338 1341 1342 1343 1343 1340 1336 1329 1325 1318 1314 1310 1304 1302 1308 1320 1328 1335 1346 1355 1362 1368 1373 1378 1389 1398 1404 1415 1428 1443 1458 1471 1485 1503 1517 1530 1545 1556 1564 1576 1591 1608 1625 1645 1658 1671 1683 1693 1705 1716 1723 1731 1737 1737 1729 1713 1701 1686 1673 1663 1657 1659 1662 1660 1651 1644 1639 1634 1629 1622 1618 1612 1607 1601 1597 1593 1586 1581 1573 1569 1566 1563 1557 1550 1546 1539 1533 1526 1519 1511 1503 1495 1491 1486 1483 1479 1472 1466 1460 1456 1455 1458 1461 1464 1463 1466 1465 1462 1464 1475 1484 1493 1500 1509 1517 1525 1532 1542 1549 1555 1561 1566 1570 1575 1578 1582 1584 1587 1588 1588 1579 1570 1556 1545 1539 1528 1522 1516 1512 1506 1504 1502 1500 1496 1490 1485 1481 1476 1470 1464 1458 1452 1450 1446 1439 1432 1421 1411 1404 1397 1390 1384 1378 1376 1370 1364 1358 1352 1344 1338 1336 1340 1345 1337 1323 1319 1314 1306 1298 1293 1282 1274 1271 1269 1271 1276 1279 1278 1277 1273 1268 1267 1266 1272 1273 1268 1256 1245 1241 1244 1244 1241 1240 1245 1247 1239 1234 1229 1224 1217 1207 1197 1193 1186 1184 1178 1164 1158 1154 1156 1164 1166 1169 1182 1192 1195 1208 1219 1227 1238 1256 1271 1282 1295 1314 1325 1343 1358 1367 1378 1386 1400 1415 1441 1462 1470 1480 1488 1494 1499 1495 1492 1483 1472 1468 1472 1482 1486 1485 1494 1505 1521 1535 1544 1554 1566 1578 1588 1595 1606 1616 1619 1620 1624 1628 1632 1634 1640 1644 1643 1634 1625 1617 1612 1606 1599 1592 1589 1588 1588 1590 1591 1596 1599 1602 1602 1600 1599 1597 1598 1605 1612 1620 1627 1635 1644 1651 1659 1667 1677 1684 1685 1685 1683 1676 1652 1636 1625 1617 1613 1615 1620 1623 1625 1623 1619 1614 1611 1612 1616 1623 1626 1633 1638 1639 1643 1648 1648 1646 1645 1644 1642 1635 1628 1623 1622 1621 1620 1621 1630 1633 1633 1637 1641 1643 1645 1649 1646 1636 1621 1607 1602 1599 1592 1580 1568 1562 1558 1558 1560 1560 1559 1559 1561 1560 1563 1570 1575 1578 1581 1582 1581 1579 1577 1581 1588 1590 1592 1594 1595 1596 1598 1599 1597 1597 1597 1596 1595 1597 1598 1597 1596 1597 1598 1601 1602 1599 1594 1588 1588 1589 1589 1591 1594 1595 1596 1595 1594 1598 1601 1604 1606 1607 1603 1596 1595 1594 1595 1599 1602 1605 1607 1606 1601 1596 1599 1601 1601 1598 1595 1596 1594 1589 1588 1588 1587 1585 1582 1588 1594 1600 1605 1603 1599 1599 1602 1605 1610 1615 1622 1627 1628 1630 1637 1643 1647 1650 1653 1659 1663 1669 1682 1689 1692 1696 1703 1714 1733 1755 1774 1799 1812 1811 1794 1777 1760 1741 1733 1724 1713 1702 1696 1692 1689 1684 1677 1670 1666 1665 1666 1671 1679 1688 1696 1703 1710 1717 1726 1743 1750 1756 1761 1764 1766 1767 1766 1763 1759 1751 1741 1739 1744 1753 1764 1774 1789 1802 1809 1826 1865 1893 1906 1919 1935 1954 1964 1971 1975 1975 1978 1983 1988 1993 1991 1991 1992 1993 1994 1994 1995 1997 1999 1988 1949 1904 1874 1857 1849 1839 1824 1814 1808 1802 1799 1796 1785 1776 1768 1757
 414 414 415 415 415 415 415 414 414 414 415 414 414 415 416 416 416 416 416 416 416 417 417 416 416 415 415 416 417 418 417 417 417 417 418 419 422 424 420 422 424 424 425 427 428 430 432 435 441 449 456 463 467 469 471 476 478 482 491 501 513 525 528 527 532 537 540 544 553 563 565 568 572 576 584 597 609 616 623 630 638 643 652 664 672 683 700 708 712 722 729 741 751 762 773 784 795 805 819 829 843 860 873 886 904 929 955 975 989 1004 1022 1038 1053 1065 1074 1082 1089 1099 1113 1130 1146 1157 1164 1167 1172 1179 1187 1191 1192 1199 1223 1243 1252 1263 1276 1287 1301 1314 1329 1347 1358 1365 1371 1381 1392 1410 1428 1446 1462 1476 1489 1508 1526 1543 1558 1572 1588 1604 1621 1635 1648 1665 1680 1698 1713 1724 1744 1766 1782 1797 1817 1833 1840 1839 1830 1819 1811 1802 1789 1781 1775 1767 1757 1749 1740 1733 1732 1729 1727 1728 1737 1756 1784 1795 1790 1774 1750 1737 1731 1717 1682 1666 1649 1634 1621 1607 1595 1583 1571 1556 1549 1538 1523 1513 1505 1492 1481 1468 1454 1447 1438 1428 1420 1410 1403 1401 1400 1401 1401 1400 1400 1398 1391 1385 1379 1373 1364 1355 1345 1339 1334 1322 1309 1297 1282 1270 1264 1262 1257 1254 1252 1256 1265 1262 1257 1254 1259 1264 1264 1262 1259 1257 1260 1265 1266 1256 1253 1254 1263 1273 1277 1285 1287 1290 1301 1308 1316 1323 1326 1331 1340 1350 1358 1362 1369 1376 1387 1401 1409 1416 1423 1430 1440 1451 1459 1470 1481 1492 1505 1517 1527 1542 1568 1595 1617 1629 1638 1658 1687 1712 1741 1765 1785 1800 1804 1804 1820 1845 1851 1840 1820 1800 1780 1763 1755 1747 1736 1725 1713 1698 1685 1669 1652 1640 1631 1623 1617 1613 1612 1612 1613 1618 1626 1641 1657 1660 1648 1626 1609 1594 1583 1574 1563 1553 1546 1539 1533 1529 1523 1517 1511 1508 1505 1507 1502 1491 1486 1479 1470 1459 1454 1447 1443 1446 1448 1446 1450 1455 1454 1456 1454 1448 1443 1436 1429 1426 1426 1425 1423 1419 1416 1410 1405 1404 1404 1400 1398 1393 1388 1383 1375 1369 1367 1363 1360 1357 1346 1337 1335 1335 1334 1332 1327 1325 1324 1321 1320 1321 1320 1323 1329 1330 1329 1324 1321 1334 1345 1354 1360 1362 1363 1360 1358 1357 1353 1353 1351 1353 1349 1346 1352 1349 1340 1336 1331 1331 1333 1337 1335 1329 1328 1333 1332 1333 1340 1343 1343 1343 1336 1332 1325 1319 1314 1310 1306 1301 1299 1307 1319 1333 1344 1353 1360 1366 1372 1379 1384 1390 1399 1407 1414 1423 1438 1459 1473 1491 1501 1513 1527 1538 1547 1555 1562 1573 1590 1606 1623 1643 1654 1663 1675 1688 1699 1712 1718 1725 1725 1721 1713 1695 1679 1664 1652 1643 1641 1643 1643 1637 1629 1626 1618 1614 1608 1600 1597 1591 1587 1583 1581 1574 1568 1564 1560 1556 1552 1546 1540 1536 1528 1517 1512 1506 1497 1491 1485 1482 1479 1472 1465 1462 1456 1450 1447 1446 1451 1455 1456 1454 1450 1453 1456 1461 1472 1484 1492 1501 1508 1514 1525 1536 1543 1551 1556 1562 1568 1574 1578 1582 1586 1590 1593 1595 1597 1595 1582 1574 1563 1552 1545 1534 1527 1523 1518 1515 1512 1509 1506 1502 1495 1489 1483 1477 1471 1463 1457 1452 1450 1445 1437 1431 1423 1412 1407 1402 1396 1386 1381 1382 1383 1376 1370 1368 1362 1358 1358 1357 1352 1337 1329 1330 1326 1323 1321 1317 1305 1289 1281 1270 1257 1251 1249 1252 1257 1257 1255 1254 1249 1250 1252 1250 1243 1244 1248 1248 1248 1246 1244 1243 1237 1226 1222 1217 1211 1204 1195 1189 1179 1164 1164 1165 1166 1166 1167 1173 1183 1192 1197 1197 1203 1214 1223 1235 1249 1268 1286 1306 1324 1332 1343 1357 1370 1378 1388 1398 1410 1429 1447 1467 1479 1488 1500 1512 1520 1522 1519 1513 1502 1489 1486 1492 1503 1503 1502 1506 1512 1532 1553 1560 1567 1581 1590 1599 1613 1624 1629 1630 1631 1634 1636 1637 1639 1648 1656 1656 1645 1630 1618 1611 1606 1595 1589 1588 1588 1589 1590 1593 1598 1600 1599 1599 1598 1599 1599 1604 1612 1621 1627 1638 1647 1653 1659 1665 1674 1683 1688 1689 1688 1685 1675 1658 1646 1635 1622 1619 1623 1627 1629 1631 1629 1625 1621 1618 1618 1624 1630 1635 1642 1645 1645 1648 1652 1654 1653 1650 1648 1647 1642 1633 1626 1624 1624 1625 1630 1635 1637 1638 1642 1645 1647 1650 1650 1643 1633 1622 1612 1603 1598 1591 1582 1575 1569 1565 1568 1570 1569 1566 1564 1568 1571 1575 1579 1582 1585 1588 1590 1586 1584 1583 1586 1591 1594 1598 1601 1601 1602 1604 1605 1605 1605 1605 1602 1604 1607 1607 1605 1604 1607 1608 1611 1611 1607 1603 1599 1598 1596 1594 1596 1598 1602 1604 1604 1606 1609 1611 1612 1615 1616 1616 1609 1606 1607 1609 1613 1613 1616 1616 1614 1611 1609 1610 1610 1609 1607 1608 1607 1605 1602 1600 1599 1594 1593 1596 1602 1607 1610 1611 1612 1609 1610 1614 1616 1621 1624 1630 1634 1634 1637 1643 1648 1653 1660 1666 1669 1673 1677 1683 1690 1693 1697 1703 1711 1727 1750 1781 1807 1822 1828 1818 1793 1770 1748 1733 1722 1713 1705 1699 1696 1693 1687 1681 1677 1675 1675 1678 1683 1693 1700 1705 1711 1716 1721 1726 1739 1754 1764 1769 1771 1775 1775 1769 1763 1758 1752 1748 1750 1756 1766 1778 1793 1806 1813 1824 1851 1882 1902 1916 1931 1945 1961 1977 1984 1988 1987 1986 1988 1994 2000 2000 2001 2002 2002 2004 2004 2005 2004 2001 1986 1963 1938 1899 1869 1859 1852 1843 1833 1818 1810 1806 1803 1789 1780 1769 1757
 414 415 415 415 415 415 415 415 415 415 415 415 415 415 416 416 416 416 416 417 417 417 416 416 415 415 415 415 416 417 417 417 416 416 417 418 421 428 423 422 424 423 425 426 427 429 434 439 443 447 453 459 468 476 482 486 490 494 498 504 513 519 520 520 523 530 536 541 547 552 556 562 568 575 582 589 597 608 618 632 643 648 655 665 675 690 703 711 718 726 734 746 756 767 778 790 800 813 827 839 854 869 881 898 923 945 970 987 1000 1016 1033 1048 1062 1074 1085 1099 1104 1110 1122 1137 1158 1171 1180 1185 1190 1200 1207 1214 1222 1225 1237 1253 1266 1280 1293 1298 1306 1321 1337 1356 1370 1382 1401 1413 1412 1415 1432 1450 1463 1480 1495 1515 1534 1546 1562 1580 1596 1616 1633 1645 1662 1681 1693 1708 1719 1734 1756 1771 1786 1808 1826 1830 1822 1810 1803 1796 1788 1778 1768 1759 1749 1744 1735 1725 1717 1711 1707 1705 1708 1713 1721 1750 1783 1794 1788 1779 1763 1748 1738 1724 1693 1672 1654 1636 1622 1607 1593 1583 1567 1554 1543 1527 1512 1504 1493 1478 1468 1457 1443 1434 1425 1416 1410 1402 1397 1396 1394 1395 1397 1398 1395 1389 1379 1372 1370 1370 1366 1353 1339 1332 1330 1325 1302 1282 1271 1261 1257 1255 1254 1252 1251 1255 1261 1257 1249 1246 1249 1253 1253 1255 1253 1251 1255 1259 1255 1251 1253 1256 1261 1272 1274 1278 1282 1285 1292 1299 1308 1320 1327 1336 1348 1360 1369 1376 1381 1387 1397 1407 1415 1422 1429 1437 1448 1458 1467 1478 1490 1500 1514 1528 1539 1556 1577 1600 1620 1630 1648 1691 1724 1741 1772 1795 1814 1834 1843 1844 1844 1840 1827 1803 1785 1767 1749 1738 1731 1721 1709 1697 1683 1669 1658 1645 1632 1624 1617 1610 1604 1601 1599 1598 1600 1607 1618 1632 1643 1646 1631 1605 1589 1578 1569 1559 1548 1539 1533 1527 1521 1517 1511 1504 1498 1493 1490 1491 1490 1487 1482 1474 1463 1451 1444 1439 1436 1435 1436 1436 1439 1439 1438 1436 1436 1434 1431 1426 1422 1419 1418 1416 1411 1407 1404 1401 1399 1399 1398 1396 1391 1385 1379 1371 1363 1360 1359 1354 1352 1351 1342 1335 1332 1330 1329 1327 1325 1323 1319 1316 1314 1315 1315 1317 1320 1321 1319 1315 1316 1328 1341 1349 1356 1360 1358 1354 1355 1354 1350 1347 1339 1337 1337 1337 1338 1336 1329 1323 1321 1324 1331 1336 1331 1324 1330 1337 1335 1337 1338 1337 1336 1333 1329 1325 1319 1314 1308 1302 1296 1296 1303 1317 1327 1344 1361 1364 1369 1376 1382 1387 1393 1401 1411 1422 1428 1436 1450 1470 1490 1501 1508 1517 1528 1535 1542 1551 1561 1575 1590 1606 1620 1636 1647 1660 1670 1682 1696 1707 1712 1716 1710 1702 1694 1681 1667 1647 1633 1627 1623 1617 1617 1616 1611 1608 1603 1598 1590 1583 1578 1574 1571 1568 1563 1557 1553 1549 1547 1542 1536 1531 1525 1519 1508 1498 1493 1486 1480 1478 1476 1469 1463 1458 1452 1451 1448 1443 1442 1444 1448 1449 1444 1439 1441 1449 1460 1467 1477 1486 1497 1504 1511 1521 1533 1544 1550 1556 1562 1566 1572 1578 1583 1589 1594 1598 1601 1603 1604 1601 1590 1581 1572 1561 1552 1541 1533 1528 1524 1521 1518 1514 1510 1506 1498 1492 1487 1480 1473 1467 1459 1453 1449 1445 1438 1432 1421 1413 1409 1404 1398 1393 1392 1404 1409 1409 1404 1401 1393 1377 1367 1360 1353 1345 1346 1345 1338 1324 1319 1320 1315 1303 1296 1288 1272 1252 1244 1243 1247 1247 1249 1247 1245 1247 1248 1245 1237 1238 1245 1242 1239 1239 1238 1234 1225 1217 1213 1209 1202 1195 1184 1178 1172 1164 1162 1167 1175 1175 1179 1183 1189 1201 1216 1223 1224 1229 1239 1257 1274 1297 1312 1335 1345 1349 1358 1369 1382 1393 1408 1421 1434 1452 1466 1484 1496 1506 1517 1530 1535 1540 1537 1533 1524 1514 1508 1509 1515 1515 1515 1520 1529 1553 1572 1576 1587 1599 1606 1618 1628 1633 1635 1637 1639 1640 1641 1642 1645 1654 1660 1661 1653 1639 1626 1616 1609 1598 1588 1588 1591 1592 1593 1596 1599 1601 1599 1598 1598 1600 1603 1609 1619 1629 1635 1644 1653 1659 1663 1670 1679 1687 1691 1691 1689 1686 1678 1663 1651 1637 1624 1627 1631 1634 1636 1636 1633 1630 1627 1624 1624 1631 1636 1642 1646 1649 1651 1655 1658 1658 1657 1656 1653 1651 1645 1636 1630 1627 1628 1631 1635 1640 1642 1644 1649 1652 1654 1653 1649 1642 1633 1623 1614 1604 1596 1589 1582 1576 1573 1571 1574 1576 1573 1573 1571 1573 1576 1581 1582 1585 1591 1595 1596 1594 1592 1590 1590 1595 1599 1605 1607 1607 1608 1611 1611 1611 1613 1614 1610 1608 1611 1610 1610 1611 1612 1617 1620 1619 1615 1609 1606 1605 1601 1598 1601 1604 1607 1610 1609 1612 1617 1618 1622 1621 1623 1625 1621 1616 1614 1620 1623 1624 1625 1624 1623 1621 1621 1619 1615 1614 1614 1614 1614 1611 1610 1609 1608 1604 1605 1611 1611 1614 1615 1617 1619 1620 1622 1625 1626 1629 1633 1639 1642 1644 1648 1653 1656 1660 1668 1673 1678 1684 1687 1693 1696 1697 1700 1705 1712 1728 1752 1782 1812 1829 1837 1831 1806 1778 1755 1738 1727 1716 1708 1703 1699 1696 1692 1686 1684 1686 1685 1689 1695 1703 1708 1716 1721 1723 1726 1731 1738 1750 1763 1770 1774 1780 1778 1773 1765 1758 1755 1754 1758 1765 1777 1790 1804 1815 1824 1840 1868 1891 1907 1925 1941 1957 1977 1989 1994 1997 1997 1997 2000 2002 2007 2009 2010 2010 2011 2014 2014 2015 2010 2002 1989 1972 1956 1927 1889 1871 1864 1857 1846 1827 1816 1812 1805 1792 1781 1767 1758
 415 415 414 414 415 415 415 416 416 415 415 416 417 416 416 416 417 417 417 417 417 416 415 415 415 415 415 415 415 416 416 417 416 417 418 419 420 421 421 421 420 420 421 425 427 431 440 449 455 458 460 468 480 491 494 497 502 503 504 507 509 513 514 515 518 526 532 538 546 550 556 561 566 573 580 588 594 601 613 636 649 654 661 668 682 695 705 713 721 733 743 754 766 775 787 800 811 824 838 852 869 891 909 931 952 968 988 1003 1017 1032 1048 1062 1074 1087 1102 1115 1127 1139 1153 1165 1175 1187 1200 1207 1214 1222 1231 1240 1253 1263 1264 1268 1273 1285 1308 1321 1327 1330 1338 1358 1385 1406 1430 1448 1453 1444 1444 1453 1470 1487 1505 1526 1541 1555 1573 1592 1609 1626 1642 1657 1675 1692 1705 1724 1739 1750 1764 1782 1805 1820 1821 1816 1804 1791 1781 1772 1762 1754 1745 1734 1724 1717 1709 1702 1694 1688 1684 1685 1691 1697 1708 1734 1761 1770 1762 1756 1748 1742 1737 1722 1703 1684 1666 1646 1628 1607 1592 1579 1565 1552 1540 1527 1513 1502 1488 1474 1465 1453 1440 1430 1420 1410 1403 1397 1394 1392 1392 1395 1397 1392 1381 1373 1367 1365 1365 1366 1357 1338 1327 1326 1325 1318 1292 1272 1263 1256 1252 1249 1248 1248 1250 1251 1251 1246 1243 1243 1241 1237 1245 1253 1250 1247 1243 1245 1249 1253 1253 1254 1263 1273 1275 1276 1277 1282 1287 1290 1298 1317 1331 1342 1352 1363 1371 1380 1387 1392 1402 1412 1421 1429 1439 1449 1460 1471 1479 1488 1498 1508 1524 1538 1552 1566 1580 1594 1613 1630 1660 1723 1755 1771 1797 1814 1825 1835 1839 1838 1829 1809 1788 1768 1748 1733 1720 1710 1701 1689 1676 1664 1651 1641 1633 1624 1615 1608 1602 1597 1594 1590 1587 1586 1586 1590 1600 1612 1619 1617 1602 1580 1569 1562 1552 1543 1533 1525 1518 1511 1505 1500 1494 1487 1480 1473 1471 1472 1475 1477 1474 1464 1452 1442 1438 1435 1431 1430 1429 1428 1426 1424 1423 1425 1426 1425 1418 1416 1415 1412 1410 1408 1404 1399 1395 1393 1393 1394 1391 1387 1381 1370 1361 1358 1356 1355 1351 1342 1342 1341 1334 1328 1326 1324 1322 1322 1321 1320 1315 1311 1308 1306 1308 1309 1309 1309 1306 1309 1319 1332 1337 1338 1339 1342 1341 1346 1348 1350 1346 1339 1334 1331 1331 1330 1318 1317 1320 1316 1316 1317 1326 1329 1321 1321 1324 1333 1340 1342 1338 1331 1327 1323 1321 1315 1308 1302 1296 1288 1290 1300 1312 1327 1337 1350 1363 1369 1376 1386 1390 1396 1404 1414 1423 1432 1440 1457 1473 1488 1496 1500 1506 1513 1521 1529 1537 1546 1558 1574 1590 1602 1618 1629 1636 1650 1666 1677 1690 1697 1700 1694 1689 1686 1681 1672 1662 1643 1623 1611 1600 1599 1598 1593 1589 1584 1581 1574 1569 1564 1561 1556 1554 1552 1549 1547 1543 1538 1532 1524 1519 1512 1507 1500 1490 1477 1471 1472 1469 1465 1459 1452 1448 1445 1442 1439 1436 1434 1437 1441 1441 1436 1430 1433 1438 1450 1463 1471 1481 1489 1495 1502 1514 1528 1539 1547 1553 1560 1565 1568 1575 1582 1588 1597 1603 1606 1610 1613 1614 1609 1596 1586 1576 1565 1557 1547 1541 1536 1529 1525 1521 1518 1514 1510 1503 1496 1487 1480 1472 1465 1460 1455 1450 1446 1443 1438 1428 1422 1419 1409 1405 1404 1414 1429 1431 1429 1420 1410 1404 1402 1391 1370 1359 1362 1365 1355 1344 1322 1317 1316 1309 1298 1293 1291 1280 1258 1248 1244 1240 1235 1231 1234 1243 1248 1247 1241 1230 1223 1216 1218 1214 1212 1212 1211 1210 1203 1197 1194 1190 1181 1173 1172 1176 1179 1178 1179 1181 1183 1186 1191 1197 1207 1226 1237 1249 1254 1258 1270 1292 1323 1340 1354 1364 1375 1382 1386 1395 1409 1433 1449 1462 1477 1487 1502 1514 1525 1538 1546 1552 1558 1555 1551 1545 1538 1534 1528 1527 1531 1540 1555 1567 1581 1585 1590 1602 1619 1627 1634 1638 1641 1644 1645 1646 1648 1651 1650 1648 1650 1651 1654 1646 1636 1629 1620 1609 1596 1586 1589 1599 1599 1597 1600 1601 1603 1603 1601 1602 1607 1611 1617 1626 1635 1641 1652 1660 1664 1667 1674 1684 1690 1693 1693 1692 1689 1685 1671 1655 1639 1623 1627 1639 1642 1642 1643 1640 1635 1630 1628 1632 1639 1643 1647 1650 1653 1656 1659 1660 1660 1660 1660 1660 1658 1648 1639 1634 1632 1632 1633 1640 1645 1646 1650 1655 1658 1658 1654 1649 1642 1634 1625 1618 1607 1599 1592 1588 1582 1576 1580 1584 1582 1579 1579 1579 1581 1583 1588 1591 1594 1600 1605 1607 1604 1599 1597 1597 1600 1602 1606 1610 1613 1614 1616 1617 1619 1620 1621 1619 1616 1613 1612 1614 1614 1617 1623 1623 1619 1615 1612 1610 1606 1603 1601 1605 1607 1609 1612 1614 1621 1626 1630 1632 1632 1631 1631 1628 1622 1622 1628 1633 1634 1632 1630 1629 1627 1627 1626 1624 1623 1623 1627 1626 1625 1623 1622 1620 1617 1622 1625 1627 1625 1623 1626 1627 1632 1636 1636 1636 1639 1646 1649 1652 1654 1659 1664 1668 1672 1675 1680 1686 1690 1695 1703 1706 1707 1709 1714 1719 1735 1758 1786 1818 1837 1843 1843 1819 1790 1763 1745 1731 1720 1714 1711 1708 1705 1704 1699 1698 1699 1699 1702 1706 1713 1719 1724 1730 1733 1737 1740 1744 1750 1758 1766 1771 1775 1774 1771 1765 1762 1760 1759 1765 1775 1788 1798 1811 1825 1843 1863 1884 1903 1918 1937 1958 1975 1990 2000 2003 2006 2010 2012 2012 2014 2017 2019 2019 2019 2019 2019 2020 2019 2012 2001 1991 1983 1973 1948 1911 1890 1875 1867 1854 1837 1825 1818 1804 1793 1780 1767 1760
 415 415 415 415 414 414 414 415 416 415 415 416 417 417 416 417 417 417 417 417 417 416 415 415 416 416 416 416 415 416 416 417 417 418 420 421 420 420 420 420 418 410 408 420 425 434 449 462 468 475 481 487 492 496 499 500 499 500 504 506 507 507 509 511 517 526 531 537 546 553 559 563 568 573 583 594 609 621 635 647 656 659 667 679 688 698 709 717 727 742 751 762 772 781 794 809 820 833 847 859 880 907 932 957 978 992 1008 1022 1033 1047 1063 1075 1089 1103 1113 1125 1141 1153 1165 1179 1188 1205 1223 1234 1247 1254 1263 1274 1282 1288 1285 1287 1296 1295 1307 1328 1346 1354 1364 1386 1414 1430 1449 1465 1476 1479 1477 1485 1493 1505 1519 1532 1550 1564 1583 1601 1617 1636 1653 1666 1683 1700 1718 1736 1749 1760 1780 1799 1815 1824 1819 1809 1795 1783 1771 1759 1747 1737 1726 1711 1701 1694 1686 1678 1668 1663 1660 1666 1675 1685 1698 1719 1739 1745 1737 1730 1723 1730 1729 1720 1701 1684 1668 1656 1642 1616 1595 1580 1568 1551 1536 1526 1515 1500 1487 1473 1460 1449 1437 1428 1421 1411 1403 1395 1391 1387 1387 1391 1386 1373 1367 1362 1356 1351 1347 1342 1332 1325 1315 1306 1303 1293 1273 1263 1256 1252 1249 1245 1244 1245 1245 1242 1241 1242 1239 1234 1233 1232 1238 1246 1243 1239 1239 1242 1244 1239 1240 1247 1258 1268 1274 1276 1277 1282 1290 1294 1301 1318 1336 1349 1358 1365 1371 1378 1386 1393 1402 1415 1426 1439 1452 1462 1474 1483 1491 1502 1511 1521 1535 1554 1575 1585 1594 1606 1625 1653 1683 1747 1784 1799 1808 1810 1810 1815 1814 1806 1796 1781 1762 1739 1720 1708 1695 1679 1669 1657 1647 1637 1626 1618 1614 1608 1602 1595 1589 1587 1585 1582 1580 1578 1576 1572 1572 1577 1578 1575 1565 1556 1550 1544 1535 1528 1519 1510 1503 1495 1488 1483 1476 1470 1465 1460 1458 1458 1459 1458 1452 1447 1441 1438 1439 1434 1425 1422 1422 1420 1417 1415 1414 1416 1416 1417 1415 1411 1410 1407 1405 1402 1399 1393 1389 1385 1383 1382 1380 1375 1365 1354 1352 1352 1354 1354 1348 1336 1333 1332 1328 1325 1321 1318 1317 1315 1314 1312 1309 1306 1303 1300 1301 1298 1295 1297 1299 1305 1322 1329 1328 1323 1325 1327 1327 1331 1338 1338 1330 1329 1329 1325 1321 1315 1308 1308 1313 1308 1308 1315 1319 1317 1314 1318 1320 1326 1335 1335 1332 1329 1321 1311 1300 1294 1289 1286 1282 1286 1298 1306 1321 1335 1344 1354 1365 1371 1380 1389 1395 1404 1413 1421 1432 1446 1459 1471 1490 1501 1503 1503 1504 1509 1516 1524 1533 1545 1556 1572 1588 1596 1610 1621 1630 1644 1659 1672 1681 1683 1679 1676 1673 1669 1660 1654 1649 1633 1609 1584 1575 1577 1575 1570 1570 1569 1565 1558 1553 1549 1544 1538 1533 1530 1529 1526 1522 1520 1514 1508 1504 1497 1491 1484 1474 1462 1456 1451 1447 1443 1441 1438 1435 1435 1434 1433 1430 1429 1430 1429 1427 1423 1425 1431 1439 1446 1454 1463 1474 1485 1492 1499 1510 1525 1537 1546 1552 1559 1563 1567 1576 1583 1590 1601 1609 1613 1616 1619 1622 1620 1607 1597 1587 1574 1566 1558 1550 1543 1535 1528 1522 1518 1514 1509 1505 1496 1484 1475 1467 1463 1458 1454 1449 1444 1442 1440 1436 1430 1426 1418 1414 1421 1435 1444 1446 1441 1432 1424 1416 1413 1406 1396 1385 1377 1368 1362 1349 1338 1329 1316 1302 1296 1292 1284 1270 1258 1250 1247 1243 1233 1224 1219 1219 1226 1223 1216 1216 1211 1199 1190 1186 1185 1183 1181 1183 1186 1186 1184 1182 1183 1181 1179 1181 1184 1186 1187 1190 1196 1198 1204 1214 1227 1239 1251 1268 1281 1286 1301 1319 1347 1361 1371 1386 1396 1404 1408 1417 1436 1459 1473 1487 1498 1506 1517 1532 1545 1560 1565 1569 1581 1574 1564 1565 1563 1561 1559 1559 1563 1570 1580 1589 1595 1599 1605 1615 1629 1636 1641 1645 1649 1654 1659 1659 1661 1660 1658 1651 1647 1646 1644 1635 1630 1625 1615 1606 1594 1590 1598 1607 1607 1606 1606 1606 1609 1609 1608 1610 1615 1618 1624 1632 1641 1650 1658 1666 1672 1677 1683 1689 1693 1696 1697 1696 1692 1689 1678 1658 1638 1622 1627 1640 1643 1644 1644 1643 1638 1634 1633 1640 1644 1647 1652 1654 1657 1660 1662 1663 1663 1662 1663 1662 1658 1647 1642 1639 1637 1639 1641 1647 1648 1651 1654 1657 1661 1662 1658 1650 1644 1638 1629 1622 1612 1607 1600 1595 1590 1582 1585 1588 1585 1584 1583 1585 1589 1593 1599 1602 1605 1608 1611 1615 1612 1608 1605 1607 1608 1608 1611 1614 1616 1619 1623 1626 1626 1626 1625 1624 1622 1618 1617 1616 1616 1619 1623 1621 1617 1615 1614 1614 1610 1608 1608 1610 1613 1614 1616 1621 1631 1635 1638 1640 1643 1640 1637 1635 1630 1628 1632 1636 1638 1637 1634 1633 1633 1633 1635 1635 1635 1634 1636 1637 1640 1639 1635 1631 1631 1634 1637 1638 1637 1635 1634 1638 1646 1649 1646 1648 1654 1656 1657 1661 1664 1669 1673 1679 1685 1688 1692 1694 1702 1707 1710 1711 1713 1713 1717 1725 1742 1762 1792 1829 1846 1852 1856 1838 1804 1778 1758 1743 1728 1722 1720 1720 1720 1719 1717 1715 1713 1715 1720 1723 1724 1726 1729 1734 1740 1745 1749 1752 1755 1759 1762 1767 1772 1771 1770 1766 1765 1766 1765 1771 1786 1797 1811 1825 1838 1865 1879 1898 1916 1934 1955 1974 1987 2003 2010 2014 2019 2021 2021 2022 2023 2024 2026 2026 2026 2027 2026 2026 2022 2011 2001 1994 1987 1982 1969 1941 1911 1887 1872 1859 1845 1832 1820 1805 1792 1780 1773 1764
 415 415 415 415 414 414 414 414 415 415 415 416 416 417 416 417 417 419 421 418 416 416 415 416 416 417 417 416 416 416 416 417 417 418 420 421 421 420 420 421 423 423 420 424 431 443 464 482 486 484 486 490 493 494 494 492 492 493 498 497 499 502 505 509 516 523 530 538 547 554 559 566 572 580 595 617 632 639 645 653 661 666 679 688 694 703 713 723 735 746 755 765 777 788 801 815 826 839 856 877 899 924 948 971 990 1006 1021 1035 1047 1061 1075 1087 1101 1113 1124 1136 1152 1161 1174 1189 1201 1220 1240 1259 1271 1277 1283 1294 1300 1306 1309 1311 1318 1324 1326 1340 1363 1386 1408 1430 1440 1445 1453 1470 1483 1495 1508 1516 1518 1523 1535 1547 1565 1581 1598 1614 1632 1648 1662 1674 1693 1711 1727 1740 1757 1773 1792 1806 1818 1825 1819 1807 1790 1774 1764 1752 1739 1727 1710 1695 1685 1675 1665 1659 1653 1647 1644 1653 1663 1675 1690 1703 1717 1717 1710 1702 1703 1719 1724 1717 1702 1688 1673 1662 1655 1638 1613 1592 1573 1552 1539 1528 1516 1500 1486 1470 1456 1443 1432 1424 1415 1405 1397 1389 1383 1380 1377 1376 1373 1367 1359 1353 1346 1340 1332 1324 1319 1321 1315 1296 1283 1273 1266 1261 1254 1249 1244 1241 1241 1240 1239 1239 1239 1235 1227 1224 1230 1233 1233 1233 1234 1233 1236 1234 1227 1222 1230 1245 1256 1263 1268 1274 1281 1294 1304 1311 1315 1322 1335 1346 1356 1365 1373 1381 1390 1400 1410 1422 1433 1448 1462 1473 1484 1495 1504 1516 1525 1533 1544 1559 1579 1595 1617 1634 1662 1690 1717 1763 1792 1800 1796 1796 1798 1794 1778 1764 1768 1758 1738 1713 1695 1685 1674 1663 1656 1643 1631 1622 1612 1604 1600 1596 1591 1585 1580 1579 1579 1579 1578 1578 1574 1563 1553 1548 1548 1546 1543 1540 1536 1531 1524 1516 1506 1496 1488 1481 1475 1470 1466 1461 1454 1447 1445 1447 1447 1443 1440 1437 1435 1434 1438 1437 1423 1417 1416 1415 1412 1411 1410 1410 1411 1412 1411 1406 1402 1398 1399 1398 1393 1387 1385 1379 1375 1371 1361 1354 1348 1346 1346 1348 1350 1348 1339 1333 1332 1330 1329 1326 1321 1316 1312 1310 1307 1305 1302 1299 1297 1296 1295 1292 1290 1290 1295 1306 1317 1321 1318 1316 1315 1316 1318 1321 1327 1327 1313 1309 1313 1313 1307 1301 1304 1306 1307 1302 1307 1316 1308 1304 1309 1315 1319 1325 1326 1324 1325 1317 1303 1290 1282 1277 1273 1274 1280 1295 1307 1316 1330 1340 1348 1359 1372 1379 1388 1397 1405 1414 1424 1435 1447 1463 1472 1482 1495 1504 1507 1506 1506 1508 1513 1518 1531 1547 1556 1567 1579 1589 1600 1611 1622 1638 1653 1662 1667 1665 1663 1661 1656 1650 1643 1637 1629 1612 1589 1564 1559 1565 1561 1557 1556 1553 1549 1541 1537 1532 1525 1518 1518 1519 1517 1513 1509 1504 1494 1489 1485 1481 1476 1470 1459 1451 1446 1440 1435 1434 1432 1431 1430 1429 1427 1426 1422 1421 1423 1421 1419 1418 1423 1429 1435 1442 1448 1457 1467 1482 1492 1498 1508 1522 1534 1542 1545 1551 1559 1563 1573 1584 1590 1600 1610 1620 1622 1625 1628 1626 1616 1606 1594 1582 1572 1564 1558 1551 1537 1528 1522 1516 1510 1503 1495 1487 1480 1474 1466 1462 1456 1452 1449 1449 1449 1447 1442 1435 1429 1430 1432 1440 1449 1452 1452 1445 1438 1430 1423 1418 1407 1401 1396 1380 1364 1358 1354 1347 1335 1319 1304 1296 1291 1281 1268 1259 1251 1249 1246 1239 1232 1228 1223 1215 1206 1201 1204 1200 1190 1188 1186 1184 1188 1184 1180 1183 1186 1187 1187 1187 1186 1186 1187 1191 1193 1196 1202 1207 1211 1219 1236 1245 1254 1273 1283 1295 1314 1336 1352 1365 1372 1383 1394 1403 1413 1424 1440 1463 1478 1490 1504 1511 1520 1533 1546 1562 1578 1580 1582 1595 1590 1578 1576 1576 1574 1578 1585 1586 1583 1591 1599 1604 1614 1620 1629 1636 1643 1647 1653 1657 1661 1662 1663 1663 1663 1661 1657 1650 1645 1637 1631 1627 1622 1613 1607 1597 1596 1605 1609 1607 1608 1608 1609 1612 1614 1614 1616 1619 1622 1628 1637 1647 1654 1663 1673 1680 1684 1689 1692 1697 1700 1702 1700 1695 1692 1680 1660 1642 1628 1631 1639 1644 1644 1643 1641 1637 1637 1640 1645 1648 1653 1655 1657 1661 1662 1665 1668 1666 1664 1665 1664 1658 1649 1646 1644 1645 1647 1650 1654 1657 1656 1658 1659 1662 1664 1660 1654 1650 1642 1634 1626 1618 1609 1604 1599 1593 1586 1589 1593 1594 1593 1592 1593 1597 1602 1605 1609 1612 1615 1618 1620 1618 1613 1613 1613 1614 1617 1619 1619 1621 1624 1627 1629 1630 1628 1626 1624 1621 1619 1618 1619 1619 1621 1624 1623 1620 1616 1615 1616 1613 1612 1613 1616 1621 1624 1626 1629 1636 1642 1645 1649 1650 1647 1642 1639 1634 1632 1636 1639 1642 1642 1638 1636 1637 1639 1643 1645 1646 1643 1644 1645 1646 1648 1645 1644 1646 1647 1646 1646 1645 1644 1646 1649 1655 1659 1657 1661 1665 1666 1669 1672 1674 1677 1683 1687 1693 1698 1702 1707 1712 1714 1715 1717 1718 1717 1721 1731 1747 1767 1796 1835 1853 1861 1868 1858 1824 1792 1771 1756 1738 1730 1727 1727 1730 1731 1727 1720 1719 1725 1730 1732 1733 1735 1738 1741 1744 1748 1752 1756 1761 1763 1764 1766 1770 1772 1771 1768 1766 1766 1767 1776 1794 1806 1822 1838 1854 1876 1890 1909 1931 1950 1968 1987 1999 2013 2020 2023 2025 2027 2028 2030 2033 2033 2032 2033 2034 2034 2032 2029 2021 2010 2002 1996 1991 1989 1984 1961 1936 1898 1876 1862 1850 1837 1822 1807 1792 1784 1778 1770
 414 415 415 415 415 415 415 415 415 415 415 416 417 417 416 416 417 424 424 417 416 416 417 417 416 417 417 417 417 417 417 417 417 417 419 421 422 421 421 422 429 435 433 434 440 450 474 485 487 488 488 489 489 488 487 487 487 488 490 491 492 496 501 507 515 521 527 535 546 555 561 566 577 598 623 633 640 646 649 657 665 675 687 696 704 712 721 730 740 751 759 768 783 793 807 823 833 849 873 891 912 934 953 974 995 1011 1027 1048 1061 1075 1089 1098 1109 1125 1137 1148 1164 1175 1187 1202 1216 1235 1254 1272 1286 1299 1307 1316 1323 1332 1338 1341 1348 1366 1378 1375 1386 1408 1429 1456 1470 1473 1474 1487 1497 1513 1528 1537 1546 1554 1558 1573 1591 1604 1619 1635 1649 1663 1678 1695 1710 1723 1737 1754 1773 1788 1800 1811 1817 1820 1813 1801 1786 1770 1759 1745 1733 1717 1700 1685 1676 1666 1655 1648 1642 1638 1638 1646 1652 1664 1679 1687 1690 1688 1682 1678 1683 1694 1699 1692 1679 1668 1660 1658 1653 1641 1627 1610 1586 1561 1548 1538 1526 1513 1498 1484 1468 1449 1435 1424 1410 1399 1390 1382 1377 1373 1369 1366 1365 1358 1349 1343 1337 1326 1317 1307 1302 1297 1295 1282 1273 1268 1264 1258 1250 1243 1237 1232 1230 1230 1231 1227 1226 1221 1217 1221 1225 1226 1227 1224 1217 1220 1220 1213 1212 1221 1233 1245 1254 1264 1268 1280 1290 1297 1308 1320 1326 1332 1342 1349 1357 1367 1374 1384 1398 1408 1419 1432 1444 1458 1474 1485 1496 1506 1514 1527 1539 1549 1560 1573 1587 1619 1655 1682 1708 1736 1756 1772 1775 1771 1764 1770 1774 1762 1744 1729 1726 1716 1698 1679 1670 1664 1656 1649 1643 1632 1622 1613 1603 1594 1589 1585 1581 1575 1571 1571 1573 1576 1578 1576 1565 1547 1531 1523 1522 1524 1525 1525 1522 1517 1509 1502 1491 1481 1473 1464 1458 1455 1455 1448 1443 1437 1430 1427 1427 1426 1425 1424 1421 1422 1423 1418 1412 1411 1408 1406 1404 1402 1398 1396 1399 1400 1399 1394 1394 1394 1391 1388 1383 1379 1376 1370 1362 1352 1347 1343 1340 1340 1341 1339 1335 1332 1328 1324 1322 1323 1324 1320 1317 1312 1308 1306 1303 1299 1297 1294 1292 1291 1289 1287 1285 1284 1286 1297 1308 1306 1305 1307 1307 1308 1309 1309 1311 1307 1297 1295 1296 1296 1292 1291 1293 1297 1296 1298 1304 1302 1298 1301 1310 1314 1318 1317 1315 1315 1306 1291 1281 1272 1267 1266 1268 1276 1290 1306 1323 1329 1338 1347 1358 1373 1381 1388 1400 1409 1415 1428 1438 1448 1459 1475 1482 1492 1502 1509 1513 1513 1510 1510 1512 1517 1527 1539 1550 1561 1572 1580 1589 1602 1615 1630 1640 1645 1649 1649 1647 1642 1637 1632 1625 1616 1608 1595 1569 1551 1543 1539 1543 1542 1537 1533 1528 1523 1519 1512 1506 1502 1500 1502 1500 1500 1493 1486 1482 1479 1475 1470 1463 1456 1445 1438 1431 1427 1425 1427 1429 1428 1424 1420 1420 1420 1415 1412 1412 1415 1420 1424 1428 1430 1431 1436 1443 1452 1463 1477 1487 1499 1507 1514 1525 1530 1533 1540 1553 1561 1570 1580 1587 1597 1609 1618 1623 1627 1629 1628 1622 1612 1599 1586 1575 1565 1554 1544 1531 1524 1517 1511 1503 1496 1489 1484 1480 1476 1468 1465 1463 1460 1459 1460 1458 1456 1449 1444 1441 1443 1444 1448 1450 1448 1446 1443 1440 1436 1431 1424 1412 1405 1401 1390 1377 1365 1355 1348 1339 1324 1315 1310 1302 1292 1277 1263 1256 1254 1253 1251 1251 1252 1246 1234 1217 1198 1192 1190 1193 1204 1212 1206 1208 1207 1201 1197 1195 1195 1196 1196 1193 1193 1197 1202 1205 1211 1216 1222 1233 1241 1253 1263 1283 1296 1303 1314 1339 1356 1364 1373 1384 1397 1410 1422 1432 1445 1463 1489 1501 1513 1521 1528 1540 1552 1565 1578 1593 1597 1594 1599 1597 1584 1581 1584 1588 1594 1601 1604 1607 1609 1608 1613 1624 1634 1641 1650 1654 1656 1660 1664 1664 1663 1664 1663 1662 1660 1656 1651 1645 1637 1630 1627 1623 1616 1610 1605 1606 1610 1610 1610 1612 1613 1615 1618 1619 1620 1621 1626 1630 1635 1643 1653 1662 1672 1682 1686 1691 1695 1699 1701 1703 1705 1702 1699 1693 1681 1665 1652 1642 1642 1644 1645 1644 1643 1639 1638 1640 1644 1651 1654 1657 1658 1659 1663 1666 1667 1668 1670 1671 1671 1669 1661 1656 1653 1654 1655 1656 1658 1661 1662 1664 1665 1666 1672 1672 1665 1660 1656 1648 1640 1632 1625 1616 1609 1605 1599 1593 1595 1598 1601 1603 1606 1605 1605 1609 1614 1619 1620 1622 1624 1623 1620 1616 1618 1620 1623 1627 1628 1627 1626 1626 1628 1628 1627 1624 1622 1621 1620 1619 1620 1622 1622 1626 1631 1632 1629 1621 1618 1618 1619 1617 1616 1621 1629 1635 1637 1640 1645 1650 1653 1654 1653 1651 1648 1643 1639 1639 1643 1645 1646 1645 1643 1644 1645 1647 1650 1651 1652 1652 1653 1655 1657 1659 1659 1657 1658 1659 1657 1654 1656 1657 1658 1659 1663 1667 1668 1669 1673 1678 1680 1682 1685 1692 1695 1697 1703 1707 1712 1716 1719 1721 1723 1725 1725 1724 1729 1742 1756 1778 1807 1839 1861 1875 1883 1875 1842 1807 1788 1771 1751 1739 1737 1740 1741 1742 1738 1728 1724 1728 1735 1738 1740 1743 1747 1749 1750 1752 1758 1762 1765 1769 1770 1770 1772 1773 1772 1770 1770 1770 1773 1784 1802 1821 1838 1850 1867 1888 1907 1925 1946 1965 1987 2003 2014 2027 2031 2031 2035 2036 2036 2039 2041 2041 2041 2042 2041 2041 2035 2028 2017 2007 2001 1998 2000 2004 2006 1986 1954 1912 1880 1864 1853 1839 1827 1808 1792 1788 1782 1777
 414 414 415 415 416 415 415 416 416 415 415 416 418 418 418 417 416 416 413 413 416 417 417 416 416 417 418 419 420 420 419 417 417 418 419 421 422 422 424 428 436 439 444 449 455 465 477 481 483 485 485 484 484 483 484 484 482 483 487 489 489 494 503 509 516 522 530 540 549 556 562 569 588 622 632 636 640 647 654 659 667 677 690 701 709 718 727 736 744 755 763 773 788 800 817 832 848 872 895 910 926 944 960 980 998 1016 1039 1057 1070 1087 1100 1108 1122 1134 1144 1159 1174 1188 1202 1221 1238 1252 1266 1281 1298 1318 1330 1339 1351 1363 1380 1393 1398 1402 1413 1420 1413 1418 1434 1464 1481 1491 1501 1510 1516 1527 1541 1555 1574 1589 1596 1602 1613 1626 1638 1650 1662 1683 1701 1713 1729 1748 1759 1770 1783 1791 1797 1799 1804 1811 1810 1802 1790 1772 1757 1741 1729 1716 1699 1683 1674 1662 1652 1646 1639 1634 1631 1634 1642 1653 1664 1668 1671 1661 1653 1654 1658 1666 1666 1656 1646 1641 1637 1641 1639 1629 1617 1607 1590 1571 1554 1534 1523 1515 1501 1489 1477 1461 1446 1433 1414 1393 1383 1377 1372 1367 1362 1355 1353 1346 1338 1331 1317 1309 1303 1295 1287 1281 1277 1273 1268 1263 1255 1248 1239 1232 1226 1223 1222 1224 1220 1215 1211 1209 1213 1216 1218 1217 1211 1199 1199 1201 1205 1212 1217 1224 1234 1244 1255 1263 1270 1287 1296 1302 1308 1317 1326 1337 1346 1353 1362 1371 1381 1392 1403 1413 1426 1438 1452 1467 1482 1495 1509 1519 1528 1544 1556 1566 1577 1586 1603 1638 1687 1725 1753 1763 1764 1755 1743 1738 1739 1739 1741 1740 1730 1715 1697 1678 1665 1658 1653 1647 1640 1634 1627 1619 1613 1608 1597 1586 1580 1577 1574 1570 1566 1566 1567 1567 1560 1549 1534 1518 1508 1504 1506 1508 1511 1512 1509 1503 1495 1488 1478 1469 1459 1451 1444 1438 1433 1431 1428 1417 1413 1410 1407 1407 1407 1409 1408 1406 1406 1405 1404 1402 1400 1400 1397 1395 1392 1390 1393 1396 1392 1387 1386 1383 1377 1376 1374 1370 1366 1358 1348 1342 1339 1336 1335 1334 1331 1328 1325 1322 1320 1318 1316 1314 1315 1314 1312 1306 1301 1298 1295 1292 1291 1287 1286 1286 1286 1285 1283 1280 1279 1281 1295 1298 1296 1295 1296 1297 1298 1298 1296 1293 1289 1287 1287 1286 1285 1285 1287 1290 1290 1291 1291 1286 1290 1298 1304 1305 1306 1308 1308 1300 1282 1273 1265 1264 1269 1276 1280 1288 1301 1316 1327 1334 1346 1362 1374 1383 1390 1399 1409 1418 1427 1439 1448 1460 1470 1484 1497 1505 1510 1514 1516 1514 1511 1511 1511 1514 1523 1529 1536 1548 1558 1567 1578 1592 1606 1618 1626 1630 1630 1629 1626 1623 1620 1617 1609 1599 1588 1570 1552 1541 1533 1526 1527 1528 1523 1518 1514 1509 1504 1498 1493 1491 1488 1484 1479 1478 1478 1475 1472 1470 1464 1457 1449 1443 1434 1423 1419 1418 1418 1418 1420 1418 1415 1415 1415 1413 1410 1410 1414 1422 1426 1431 1439 1443 1445 1444 1446 1450 1456 1466 1472 1485 1497 1503 1509 1517 1525 1537 1547 1556 1566 1577 1584 1592 1602 1609 1617 1622 1626 1625 1622 1612 1599 1583 1571 1558 1549 1541 1531 1521 1512 1505 1501 1496 1490 1485 1482 1480 1478 1475 1473 1470 1470 1468 1469 1470 1465 1455 1452 1448 1447 1445 1444 1441 1435 1433 1436 1433 1428 1413 1405 1404 1400 1393 1381 1368 1357 1345 1342 1337 1326 1321 1312 1303 1289 1268 1261 1267 1267 1260 1262 1257 1243 1232 1217 1200 1194 1195 1204 1223 1232 1225 1216 1213 1209 1204 1200 1201 1208 1209 1204 1206 1212 1214 1214 1219 1227 1244 1261 1267 1274 1287 1302 1311 1320 1341 1359 1369 1375 1395 1414 1427 1437 1444 1453 1467 1487 1508 1519 1527 1535 1547 1557 1569 1581 1595 1608 1614 1611 1608 1608 1601 1593 1595 1597 1601 1609 1619 1621 1626 1628 1630 1635 1643 1651 1657 1661 1667 1670 1672 1669 1669 1669 1666 1662 1658 1654 1646 1641 1635 1631 1626 1621 1617 1613 1610 1612 1614 1614 1614 1616 1619 1623 1622 1622 1625 1630 1636 1639 1643 1649 1659 1667 1679 1689 1694 1699 1701 1704 1706 1705 1705 1706 1704 1695 1680 1668 1658 1652 1652 1651 1651 1650 1648 1645 1644 1646 1653 1658 1660 1661 1664 1667 1668 1668 1669 1673 1675 1676 1676 1669 1664 1660 1659 1659 1660 1663 1667 1670 1669 1673 1674 1676 1679 1678 1670 1664 1661 1654 1646 1642 1633 1625 1618 1612 1605 1601 1604 1608 1612 1615 1617 1617 1615 1618 1623 1627 1630 1632 1633 1629 1622 1620 1623 1629 1630 1633 1634 1633 1631 1630 1629 1628 1626 1623 1621 1620 1619 1618 1621 1625 1626 1631 1634 1635 1633 1627 1622 1623 1624 1622 1622 1628 1636 1645 1650 1651 1654 1658 1663 1661 1660 1661 1656 1651 1645 1645 1647 1649 1650 1651 1653 1655 1656 1657 1657 1658 1658 1660 1662 1663 1665 1667 1667 1664 1665 1667 1667 1666 1667 1664 1665 1667 1670 1671 1673 1675 1680 1686 1690 1693 1698 1705 1708 1710 1712 1714 1717 1721 1724 1725 1724 1725 1727 1730 1739 1754 1771 1795 1818 1844 1872 1888 1891 1878 1851 1821 1807 1790 1766 1752 1749 1747 1745 1743 1739 1734 1733 1732 1736 1742 1747 1751 1754 1759 1758 1762 1767 1770 1774 1778 1779 1778 1776 1773 1773 1772 1772 1775 1780 1796 1812 1830 1851 1864 1880 1903 1925 1944 1963 1977 1999 2013 2027 2041 2045 2042 2042 2044 2046 2047 2048 2050 2050 2049 2048 2044 2036 2026 2016 2007 2004 2008 2015 2020 2021 2006 1977 1923 1885 1868 1854 1840 1831 1809 1798 1794 1792 1790
 414 414 415 415 415 415 415 415 416 416 415 416 417 418 419 418 418 418 415 414 416 416 417 416 417 418 419 420 422 423 421 418 417 418 419 421 422 423 426 432 440 445 449 454 463 470 478 480 481 482 481 481 479 479 481 482 479 479 485 487 489 498 507 511 518 525 531 540 551 559 569 584 605 626 634 637 641 647 655 662 670 682 695 704 713 722 734 742 749 761 770 782 794 806 824 846 868 890 908 919 935 953 970 989 1008 1029 1047 1061 1073 1088 1099 1107 1125 1139 1150 1168 1184 1201 1219 1239 1253 1266 1280 1293 1311 1329 1346 1368 1380 1386 1403 1422 1433 1435 1442 1452 1442 1440 1451 1471 1490 1502 1515 1529 1537 1545 1561 1578 1594 1610 1619 1625 1632 1641 1653 1670 1685 1699 1714 1729 1746 1756 1761 1767 1777 1781 1781 1784 1790 1800 1802 1799 1792 1775 1758 1739 1724 1710 1693 1681 1671 1658 1648 1642 1637 1631 1624 1623 1631 1637 1640 1641 1641 1635 1632 1636 1641 1643 1638 1629 1622 1619 1614 1619 1620 1610 1600 1590 1575 1563 1550 1529 1518 1505 1492 1481 1470 1452 1438 1422 1403 1386 1378 1377 1372 1368 1360 1350 1340 1335 1331 1323 1311 1300 1294 1289 1284 1280 1276 1270 1263 1254 1244 1237 1228 1221 1216 1211 1211 1214 1213 1209 1202 1199 1204 1206 1205 1198 1190 1188 1193 1197 1205 1211 1216 1223 1236 1248 1258 1263 1274 1290 1300 1304 1310 1320 1328 1339 1348 1356 1367 1378 1388 1400 1412 1421 1433 1445 1458 1474 1491 1505 1519 1530 1542 1558 1572 1584 1593 1603 1623 1656 1701 1742 1766 1765 1754 1735 1722 1716 1718 1721 1721 1713 1701 1687 1666 1653 1647 1642 1636 1632 1628 1622 1613 1607 1603 1597 1588 1577 1572 1570 1569 1567 1561 1551 1544 1539 1528 1516 1507 1499 1493 1490 1493 1496 1498 1499 1497 1490 1481 1474 1467 1459 1445 1435 1428 1423 1422 1422 1409 1394 1395 1396 1396 1392 1389 1395 1398 1398 1401 1402 1400 1397 1394 1394 1392 1389 1385 1384 1386 1388 1386 1382 1377 1371 1367 1365 1361 1357 1354 1348 1341 1337 1334 1331 1330 1329 1326 1324 1323 1320 1319 1316 1313 1312 1312 1311 1305 1298 1295 1291 1286 1285 1284 1282 1281 1280 1280 1281 1279 1277 1273 1271 1281 1288 1286 1286 1286 1289 1291 1289 1289 1286 1279 1278 1277 1277 1279 1280 1285 1289 1287 1285 1283 1284 1289 1293 1294 1296 1297 1297 1293 1284 1273 1264 1259 1267 1278 1282 1287 1297 1307 1319 1331 1341 1354 1369 1380 1388 1396 1405 1417 1426 1436 1447 1459 1471 1484 1499 1507 1512 1516 1517 1516 1512 1510 1507 1506 1507 1512 1519 1526 1535 1547 1558 1569 1585 1597 1607 1615 1616 1615 1615 1612 1610 1607 1601 1590 1577 1562 1548 1539 1531 1521 1516 1518 1518 1511 1506 1502 1497 1492 1487 1483 1480 1478 1476 1473 1472 1471 1467 1464 1460 1455 1448 1441 1437 1430 1417 1413 1409 1408 1412 1414 1412 1411 1408 1406 1405 1410 1415 1419 1425 1430 1437 1445 1453 1468 1470 1464 1462 1462 1472 1478 1481 1490 1495 1501 1514 1525 1537 1545 1553 1564 1575 1582 1590 1598 1604 1610 1615 1619 1621 1619 1610 1597 1583 1571 1560 1554 1548 1537 1527 1515 1506 1502 1499 1494 1492 1490 1489 1486 1483 1481 1480 1480 1477 1477 1475 1469 1461 1454 1446 1443 1438 1435 1433 1426 1424 1428 1427 1419 1405 1398 1397 1392 1387 1377 1363 1353 1341 1339 1334 1325 1318 1309 1301 1287 1271 1262 1264 1269 1263 1263 1253 1233 1221 1209 1201 1201 1210 1224 1235 1234 1228 1220 1215 1211 1207 1207 1210 1215 1217 1217 1216 1220 1224 1228 1236 1250 1269 1280 1286 1296 1302 1311 1322 1337 1361 1372 1377 1386 1411 1432 1443 1453 1462 1473 1490 1507 1521 1533 1541 1553 1566 1574 1584 1596 1609 1617 1625 1624 1620 1620 1618 1609 1608 1610 1611 1617 1627 1632 1635 1639 1641 1643 1649 1656 1659 1664 1671 1674 1675 1672 1669 1670 1669 1664 1658 1649 1640 1637 1636 1633 1629 1625 1619 1616 1614 1614 1618 1618 1617 1620 1626 1629 1627 1627 1632 1635 1640 1646 1652 1657 1667 1675 1684 1692 1699 1704 1705 1708 1710 1708 1708 1711 1711 1703 1687 1672 1661 1655 1656 1659 1659 1658 1656 1652 1650 1653 1660 1663 1664 1666 1670 1671 1671 1673 1675 1680 1680 1680 1675 1670 1665 1663 1662 1665 1668 1670 1673 1676 1678 1679 1681 1681 1681 1679 1673 1666 1662 1658 1653 1647 1641 1632 1624 1618 1613 1615 1617 1619 1623 1626 1628 1628 1625 1626 1630 1634 1637 1641 1639 1634 1626 1625 1631 1636 1637 1638 1640 1640 1638 1634 1631 1628 1627 1624 1622 1623 1622 1622 1628 1632 1633 1635 1637 1639 1637 1632 1628 1628 1629 1630 1632 1635 1642 1650 1658 1661 1663 1667 1669 1669 1670 1671 1665 1658 1655 1656 1658 1657 1659 1661 1664 1667 1665 1664 1665 1666 1668 1669 1672 1672 1671 1673 1674 1672 1670 1671 1671 1671 1672 1673 1674 1677 1680 1679 1679 1679 1684 1690 1697 1702 1706 1712 1715 1716 1717 1719 1721 1725 1725 1726 1724 1724 1726 1731 1742 1759 1783 1804 1822 1848 1876 1892 1893 1876 1856 1829 1817 1803 1780 1761 1756 1753 1749 1746 1741 1740 1740 1738 1738 1745 1753 1759 1761 1765 1767 1771 1777 1782 1784 1786 1788 1789 1785 1778 1775 1774 1775 1780 1791 1803 1816 1842 1865 1875 1892 1918 1940 1962 1975 1990 2009 2022 2038 2050 2052 2050 2050 2051 2054 2055 2056 2057 2057 2056 2053 2048 2036 2024 2017 2012 2010 2020 2026 2028 2027 2009 1974 1919 1887 1869 1857 1841 1830 1817 1809 1809 1813 1809
 415 415 415 415 415 415 415 415 415 416 416 416 416 417 418 420 425 422 419 417 417 418 418 418 418 418 417 419 421 423 422 421 419 418 420 423 428 432 440 445 452 456 458 463 475 480 481 480 479 477 477 478 477 475 476 476 476 479 484 486 489 497 507 513 520 527 536 555 559 563 575 601 613 621 628 633 638 645 650 658 674 684 694 701 710 719 732 744 755 767 776 789 804 820 841 865 881 897 914 925 941 959 977 994 1016 1030 1041 1053 1066 1080 1089 1101 1124 1140 1153 1178 1193 1210 1229 1241 1253 1271 1288 1302 1320 1348 1376 1399 1417 1423 1433 1444 1456 1465 1473 1480 1480 1473 1482 1496 1506 1515 1535 1557 1569 1578 1588 1602 1616 1627 1636 1646 1663 1674 1684 1694 1704 1719 1735 1741 1746 1743 1740 1748 1759 1761 1761 1766 1772 1781 1789 1786 1777 1765 1754 1741 1722 1705 1688 1676 1666 1654 1644 1638 1633 1627 1622 1616 1616 1616 1613 1611 1608 1606 1610 1618 1622 1617 1608 1602 1597 1592 1589 1589 1596 1592 1587 1579 1568 1553 1541 1524 1506 1494 1485 1476 1463 1445 1429 1408 1391 1380 1375 1370 1365 1365 1360 1345 1332 1328 1324 1316 1308 1301 1294 1286 1280 1276 1267 1258 1250 1245 1237 1226 1216 1207 1203 1199 1199 1203 1205 1196 1186 1185 1188 1184 1179 1174 1175 1184 1193 1198 1204 1209 1215 1227 1241 1254 1264 1269 1280 1292 1300 1307 1317 1325 1331 1340 1350 1358 1371 1382 1392 1407 1417 1428 1443 1455 1467 1484 1501 1518 1535 1550 1559 1572 1588 1600 1612 1628 1647 1676 1706 1742 1760 1760 1743 1723 1706 1691 1695 1702 1693 1673 1662 1649 1637 1632 1629 1625 1618 1615 1612 1603 1597 1591 1585 1577 1570 1565 1563 1562 1558 1549 1531 1513 1504 1499 1495 1492 1489 1485 1479 1474 1474 1475 1477 1479 1477 1470 1463 1459 1455 1446 1432 1417 1407 1403 1404 1398 1388 1381 1376 1376 1381 1384 1383 1385 1389 1392 1393 1392 1390 1389 1388 1387 1383 1379 1377 1378 1377 1377 1376 1370 1364 1359 1353 1350 1347 1345 1343 1339 1336 1334 1332 1329 1327 1325 1322 1320 1319 1316 1315 1313 1312 1312 1310 1304 1298 1291 1286 1282 1280 1278 1278 1278 1278 1278 1277 1277 1277 1276 1269 1265 1267 1273 1273 1275 1279 1281 1286 1283 1277 1274 1272 1271 1269 1269 1271 1272 1275 1279 1278 1275 1277 1279 1280 1275 1270 1272 1269 1265 1258 1254 1250 1250 1257 1274 1282 1285 1292 1304 1316 1328 1339 1351 1366 1378 1386 1393 1401 1411 1424 1439 1451 1463 1475 1487 1502 1509 1512 1513 1515 1514 1512 1507 1501 1499 1499 1496 1498 1505 1514 1521 1532 1546 1560 1576 1586 1592 1595 1597 1597 1599 1598 1594 1581 1571 1561 1547 1538 1530 1522 1514 1507 1505 1505 1504 1499 1496 1492 1486 1480 1475 1472 1470 1470 1469 1468 1467 1460 1456 1455 1453 1447 1443 1435 1429 1421 1409 1404 1401 1402 1403 1405 1406 1406 1404 1403 1409 1415 1419 1425 1429 1437 1444 1450 1463 1478 1481 1481 1483 1487 1495 1497 1502 1505 1510 1512 1514 1522 1533 1545 1551 1562 1571 1578 1583 1590 1595 1602 1609 1611 1615 1617 1614 1598 1584 1574 1564 1554 1547 1541 1533 1525 1516 1509 1506 1503 1503 1500 1496 1490 1487 1487 1486 1482 1477 1476 1473 1464 1453 1443 1431 1426 1424 1420 1418 1416 1417 1419 1415 1411 1400 1392 1383 1380 1381 1375 1364 1353 1343 1340 1328 1314 1305 1299 1293 1280 1272 1262 1262 1268 1267 1259 1247 1222 1206 1203 1209 1224 1235 1239 1236 1233 1230 1227 1222 1220 1220 1219 1219 1220 1224 1227 1230 1235 1241 1256 1268 1282 1289 1296 1304 1310 1318 1323 1334 1349 1373 1383 1391 1403 1427 1438 1455 1479 1488 1501 1518 1528 1539 1550 1560 1569 1579 1588 1601 1616 1623 1628 1636 1635 1630 1631 1631 1625 1625 1626 1627 1626 1633 1641 1649 1653 1654 1654 1658 1662 1664 1668 1672 1674 1674 1673 1671 1668 1666 1661 1653 1647 1642 1640 1639 1635 1632 1631 1625 1621 1620 1620 1621 1622 1625 1628 1633 1632 1629 1630 1633 1637 1645 1653 1660 1668 1676 1682 1689 1696 1703 1708 1710 1714 1713 1712 1714 1717 1716 1709 1694 1679 1668 1661 1663 1666 1664 1660 1657 1654 1654 1657 1661 1664 1666 1669 1672 1675 1676 1678 1682 1686 1687 1685 1680 1673 1671 1671 1671 1674 1676 1677 1681 1684 1685 1686 1688 1690 1689 1685 1681 1675 1667 1661 1658 1653 1644 1637 1632 1627 1628 1632 1635 1637 1636 1637 1637 1638 1640 1640 1641 1644 1645 1646 1645 1639 1631 1633 1637 1640 1644 1646 1648 1646 1645 1641 1636 1631 1626 1622 1623 1624 1625 1625 1631 1638 1639 1641 1642 1644 1644 1638 1636 1637 1640 1642 1644 1647 1652 1659 1666 1667 1669 1671 1673 1679 1683 1681 1675 1666 1663 1666 1669 1669 1670 1672 1673 1673 1673 1673 1674 1675 1676 1679 1682 1684 1686 1688 1686 1684 1679 1679 1679 1678 1679 1682 1686 1691 1695 1693 1690 1690 1693 1698 1711 1713 1715 1718 1720 1720 1723 1727 1730 1733 1734 1732 1731 1733 1735 1737 1741 1756 1788 1807 1824 1854 1878 1894 1896 1881 1865 1840 1827 1813 1791 1775 1767 1760 1757 1753 1748 1744 1744 1744 1746 1748 1756 1766 1769 1773 1778 1783 1791 1794 1798 1801 1803 1801 1798 1791 1783 1778 1783 1792 1804 1813 1831 1861 1876 1888 1904 1931 1952 1969 1986 2005 2021 2037 2048 2057 2059 2059 2059 2058 2060 2062 2063 2063 2062 2060 2056 2049 2036 2027 2022 2020 2025 2036 2036 2033 2029 2003 1956 1920 1894 1871 1856 1842 1830 1826 1825 1827 1834 1832
 416 416 416 415 416 416 416 415 415 416 416 416 416 417 418 417 417 421 419 418 419 420 419 418 418 417 416 418 421 422 422 423 423 422 426 437 448 457 454 457 464 468 467 466 474 479 476 473 472 473 474 473 472 471 472 472 474 479 486 489 491 497 506 515 522 534 560 576 568 563 571 591 602 607 610 618 627 633 636 643 664 678 685 695 703 714 725 736 748 764 777 793 814 833 851 869 882 898 912 923 945 964 980 997 1012 1022 1033 1044 1053 1066 1078 1090 1113 1130 1146 1176 1189 1205 1224 1233 1248 1266 1284 1302 1334 1369 1389 1410 1428 1438 1452 1464 1474 1484 1493 1500 1504 1502 1507 1520 1534 1550 1569 1584 1597 1608 1614 1626 1639 1649 1662 1680 1691 1700 1710 1717 1721 1725 1726 1727 1725 1721 1724 1734 1740 1742 1746 1752 1757 1763 1774 1775 1772 1762 1749 1735 1715 1704 1688 1669 1656 1646 1639 1633 1628 1623 1615 1605 1597 1593 1593 1591 1589 1591 1589 1592 1589 1585 1576 1570 1573 1572 1572 1573 1575 1573 1570 1564 1558 1546 1536 1521 1501 1488 1475 1461 1447 1432 1413 1398 1384 1375 1366 1356 1351 1353 1349 1335 1326 1322 1321 1317 1305 1296 1287 1277 1267 1260 1252 1242 1240 1233 1221 1213 1201 1195 1194 1192 1192 1194 1195 1187 1175 1162 1162 1162 1159 1161 1167 1177 1185 1190 1197 1206 1212 1222 1237 1252 1264 1273 1282 1290 1299 1311 1321 1325 1331 1342 1353 1361 1374 1386 1398 1409 1421 1433 1448 1463 1476 1489 1507 1522 1538 1555 1567 1582 1600 1615 1633 1648 1665 1693 1728 1747 1751 1750 1739 1719 1691 1675 1674 1669 1655 1641 1631 1624 1618 1614 1610 1606 1600 1596 1590 1585 1581 1573 1567 1560 1552 1550 1551 1545 1524 1507 1490 1477 1473 1472 1473 1474 1474 1470 1465 1457 1453 1453 1457 1460 1457 1451 1445 1437 1427 1418 1407 1396 1388 1383 1379 1377 1376 1374 1371 1370 1368 1366 1365 1370 1375 1380 1384 1385 1385 1381 1379 1377 1372 1369 1365 1367 1368 1364 1360 1355 1352 1350 1346 1341 1338 1336 1334 1333 1328 1326 1326 1324 1322 1319 1317 1316 1314 1313 1313 1312 1311 1310 1305 1300 1293 1285 1278 1273 1268 1268 1271 1273 1273 1274 1274 1274 1275 1276 1270 1263 1260 1261 1269 1272 1271 1273 1277 1272 1267 1266 1263 1261 1265 1264 1262 1260 1265 1269 1266 1265 1266 1268 1262 1254 1250 1249 1248 1245 1241 1240 1242 1247 1261 1276 1282 1287 1299 1314 1324 1335 1349 1362 1376 1384 1391 1401 1410 1422 1443 1456 1463 1475 1488 1502 1511 1512 1512 1511 1508 1505 1500 1497 1496 1493 1490 1487 1488 1496 1503 1510 1519 1532 1550 1563 1575 1580 1582 1582 1584 1586 1583 1574 1560 1548 1540 1529 1521 1515 1506 1497 1495 1494 1491 1488 1489 1486 1477 1473 1469 1463 1460 1459 1459 1461 1461 1459 1455 1453 1453 1449 1443 1438 1429 1422 1407 1399 1398 1397 1397 1399 1401 1401 1402 1406 1412 1415 1420 1426 1431 1436 1444 1450 1460 1469 1476 1483 1491 1496 1507 1519 1522 1524 1525 1527 1532 1531 1531 1536 1545 1551 1559 1566 1574 1580 1588 1593 1598 1605 1611 1615 1618 1616 1603 1587 1578 1565 1554 1547 1542 1537 1534 1526 1518 1514 1512 1508 1505 1500 1491 1484 1482 1477 1473 1464 1459 1459 1453 1440 1434 1423 1418 1415 1414 1412 1407 1408 1411 1409 1397 1381 1374 1369 1369 1369 1368 1365 1355 1344 1339 1322 1305 1299 1294 1286 1274 1265 1261 1263 1265 1260 1246 1233 1213 1205 1208 1216 1232 1239 1239 1237 1235 1232 1231 1230 1231 1231 1232 1234 1232 1233 1237 1247 1262 1275 1280 1295 1311 1307 1305 1314 1328 1335 1339 1350 1368 1378 1388 1402 1421 1445 1460 1482 1506 1512 1521 1536 1546 1556 1568 1582 1588 1597 1605 1620 1629 1633 1638 1644 1646 1643 1639 1640 1638 1638 1640 1646 1649 1649 1652 1654 1656 1659 1664 1665 1665 1667 1669 1672 1674 1675 1674 1672 1669 1662 1654 1647 1646 1647 1647 1643 1638 1635 1633 1631 1626 1623 1624 1625 1630 1636 1638 1637 1636 1636 1635 1636 1642 1654 1662 1666 1674 1683 1691 1696 1701 1708 1711 1716 1719 1717 1716 1720 1726 1725 1716 1699 1682 1671 1667 1667 1667 1666 1660 1659 1662 1665 1666 1667 1670 1672 1672 1675 1680 1682 1685 1688 1689 1690 1689 1685 1682 1680 1681 1681 1683 1686 1689 1690 1690 1691 1693 1695 1695 1693 1690 1686 1681 1674 1669 1664 1660 1653 1643 1639 1636 1639 1645 1650 1653 1651 1652 1651 1650 1651 1652 1652 1652 1655 1657 1653 1647 1640 1641 1644 1646 1649 1651 1656 1656 1654 1649 1640 1633 1626 1625 1625 1628 1629 1629 1635 1642 1648 1652 1650 1651 1653 1651 1651 1655 1657 1658 1659 1665 1670 1672 1673 1675 1677 1682 1684 1689 1688 1685 1680 1676 1676 1677 1683 1686 1685 1683 1681 1679 1678 1679 1681 1685 1689 1694 1698 1699 1701 1701 1700 1695 1692 1689 1688 1687 1688 1690 1692 1696 1699 1699 1698 1697 1700 1708 1719 1726 1728 1727 1729 1732 1734 1738 1740 1740 1740 1741 1745 1746 1746 1747 1747 1753 1787 1811 1830 1859 1880 1896 1898 1888 1872 1849 1834 1825 1815 1804 1798 1784 1770 1763 1758 1754 1753 1753 1751 1752 1758 1772 1778 1783 1790 1797 1804 1806 1810 1811 1809 1809 1809 1803 1792 1784 1791 1799 1813 1832 1850 1873 1889 1901 1912 1927 1944 1964 1996 2016 2035 2049 2057 2063 2063 2064 2064 2067 2069 2069 2069 2070 2071 2068 2062 2048 2038 2033 2034 2039 2043 2046 2045 2042 2032 1990 1951 1927 1894 1871 1855 1844 1839 1840 1841 1844 1848 1845
 416 417 416 416 416 416 416 417 417 417 417 417 418 418 420 422 419 420 420 419 419 420 419 418 418 418 419 421 422 422 423 423 425 428 438 455 468 468 465 467 468 464 461 462 464 468 469 467 468 470 469 467 465 467 467 470 474 481 487 492 495 499 507 516 523 544 572 580 574 570 578 590 597 599 598 602 612 620 630 641 657 669 675 685 694 703 716 729 742 757 773 795 818 837 851 863 875 893 909 925 944 963 977 990 1001 1010 1026 1040 1046 1057 1069 1082 1105 1122 1145 1173 1185 1199 1216 1229 1247 1268 1288 1308 1341 1368 1385 1406 1423 1437 1455 1469 1483 1497 1506 1517 1528 1535 1538 1551 1568 1582 1596 1605 1614 1624 1634 1647 1660 1671 1683 1695 1705 1712 1717 1716 1714 1709 1707 1709 1709 1709 1712 1723 1730 1733 1737 1742 1745 1754 1764 1767 1763 1754 1745 1732 1714 1703 1680 1664 1652 1642 1632 1624 1621 1613 1603 1591 1580 1574 1570 1572 1576 1575 1565 1563 1558 1554 1549 1550 1551 1550 1550 1552 1556 1557 1554 1548 1540 1531 1523 1511 1496 1485 1475 1459 1444 1425 1406 1393 1379 1371 1362 1351 1345 1342 1334 1326 1323 1321 1319 1311 1296 1282 1273 1263 1255 1247 1237 1230 1225 1216 1203 1200 1192 1189 1187 1185 1182 1181 1180 1172 1157 1147 1147 1151 1153 1158 1161 1165 1170 1176 1187 1196 1205 1217 1233 1248 1260 1274 1282 1290 1299 1309 1320 1326 1336 1347 1359 1367 1379 1392 1403 1414 1426 1438 1452 1467 1480 1495 1514 1527 1539 1556 1570 1588 1606 1620 1639 1658 1675 1708 1741 1745 1734 1729 1722 1700 1673 1658 1651 1642 1631 1620 1613 1609 1604 1599 1595 1590 1584 1579 1574 1570 1565 1561 1556 1548 1534 1526 1518 1499 1483 1470 1458 1452 1453 1454 1455 1457 1457 1454 1450 1441 1434 1435 1441 1444 1442 1435 1426 1418 1413 1401 1390 1381 1373 1370 1368 1364 1360 1360 1360 1359 1360 1361 1362 1365 1368 1372 1375 1376 1377 1374 1372 1371 1363 1359 1357 1357 1358 1356 1355 1351 1347 1346 1341 1336 1332 1331 1330 1326 1322 1319 1317 1317 1314 1310 1310 1310 1309 1309 1309 1308 1305 1302 1298 1294 1283 1277 1272 1268 1264 1263 1265 1269 1269 1269 1269 1268 1269 1269 1265 1260 1255 1252 1255 1268 1271 1270 1269 1263 1261 1258 1253 1253 1257 1255 1252 1253 1259 1261 1259 1256 1256 1258 1252 1248 1245 1242 1241 1238 1239 1242 1247 1255 1264 1274 1284 1294 1307 1321 1330 1340 1354 1367 1380 1389 1399 1411 1424 1439 1454 1461 1469 1483 1496 1505 1510 1510 1509 1504 1499 1493 1491 1491 1489 1483 1482 1478 1479 1488 1492 1501 1512 1524 1542 1553 1562 1569 1571 1573 1574 1573 1567 1553 1535 1527 1523 1514 1506 1500 1493 1487 1484 1481 1476 1475 1474 1471 1465 1461 1458 1454 1456 1456 1457 1461 1462 1459 1455 1452 1450 1443 1436 1427 1422 1411 1400 1397 1396 1394 1393 1395 1398 1402 1406 1412 1416 1418 1423 1428 1434 1442 1448 1456 1466 1473 1481 1491 1501 1509 1517 1528 1531 1533 1537 1538 1540 1543 1545 1549 1553 1556 1561 1569 1575 1584 1590 1596 1601 1608 1614 1617 1619 1616 1603 1590 1581 1570 1556 1549 1545 1542 1538 1532 1525 1520 1518 1514 1507 1495 1482 1476 1471 1464 1459 1451 1449 1449 1443 1436 1430 1418 1412 1408 1406 1405 1401 1399 1401 1393 1382 1372 1362 1357 1357 1354 1350 1350 1344 1339 1334 1321 1303 1296 1289 1281 1276 1269 1268 1272 1268 1255 1238 1220 1210 1209 1210 1215 1233 1239 1238 1237 1236 1236 1238 1240 1245 1244 1240 1240 1241 1244 1253 1265 1275 1289 1298 1309 1322 1327 1329 1331 1343 1354 1353 1365 1385 1389 1402 1419 1443 1469 1484 1501 1515 1519 1532 1547 1559 1574 1584 1596 1607 1615 1622 1631 1636 1641 1647 1651 1653 1652 1648 1645 1645 1644 1647 1652 1657 1657 1655 1654 1657 1665 1670 1671 1669 1667 1668 1670 1671 1670 1670 1670 1666 1657 1650 1646 1646 1647 1647 1646 1640 1637 1635 1632 1630 1630 1632 1634 1638 1641 1643 1642 1639 1639 1640 1641 1647 1659 1667 1672 1680 1688 1695 1702 1708 1711 1714 1719 1722 1721 1722 1727 1734 1734 1725 1705 1687 1677 1674 1675 1673 1670 1666 1666 1669 1673 1674 1674 1676 1676 1678 1682 1689 1692 1691 1693 1694 1695 1693 1690 1688 1688 1690 1693 1693 1695 1696 1697 1698 1699 1702 1701 1700 1698 1692 1688 1682 1680 1678 1673 1665 1661 1651 1642 1642 1647 1654 1658 1662 1665 1665 1663 1660 1659 1663 1660 1660 1663 1664 1658 1652 1648 1647 1651 1653 1654 1658 1661 1661 1660 1659 1648 1638 1634 1634 1635 1638 1638 1638 1642 1646 1654 1656 1656 1656 1658 1662 1664 1664 1665 1667 1671 1676 1681 1682 1684 1683 1685 1692 1696 1696 1693 1690 1683 1681 1684 1688 1693 1697 1695 1692 1691 1689 1690 1692 1694 1696 1700 1707 1709 1712 1712 1710 1708 1704 1700 1696 1694 1694 1696 1697 1698 1700 1703 1705 1705 1706 1709 1716 1725 1730 1733 1735 1738 1739 1743 1745 1746 1746 1747 1750 1754 1756 1757 1759 1755 1756 1776 1813 1834 1856 1882 1899 1901 1890 1875 1859 1847 1842 1845 1842 1835 1825 1796 1780 1771 1765 1764 1761 1759 1759 1763 1772 1780 1789 1802 1807 1808 1809 1812 1814 1815 1815 1813 1808 1798 1791 1800 1806 1827 1844 1855 1880 1900 1914 1924 1934 1948 1971 2009 2032 2048 2060 2068 2072 2069 2070 2071 2075 2076 2077 2077 2077 2076 2071 2064 2049 2042 2040 2047 2052 2054 2056 2052 2045 2025 1975 1945 1924 1890 1871 1859 1852 1850 1852 1853 1856 1855 1851
 415 415 415 416 416 416 417 418 419 419 418 419 419 419 421 427 433 425 422 421 420 419 419 419 421 421 423 424 424 424 424 425 428 434 450 469 475 472 464 460 455 453 454 458 460 460 460 459 460 461 461 460 459 460 462 469 477 484 490 495 496 501 509 517 526 544 568 580 580 575 577 581 585 588 590 592 603 615 626 639 649 656 658 664 675 689 700 710 728 749 770 790 815 830 846 860 873 889 907 921 938 954 968 980 991 1004 1019 1029 1039 1054 1067 1083 1104 1126 1150 1170 1181 1194 1212 1224 1242 1264 1290 1306 1330 1356 1376 1397 1415 1430 1452 1467 1479 1496 1523 1550 1567 1577 1581 1585 1592 1604 1618 1628 1636 1648 1664 1675 1680 1687 1694 1701 1706 1705 1697 1692 1691 1689 1688 1686 1689 1694 1699 1707 1715 1724 1731 1733 1733 1742 1754 1754 1745 1736 1727 1716 1707 1696 1672 1658 1646 1632 1619 1611 1603 1596 1587 1577 1568 1559 1550 1554 1558 1551 1543 1538 1533 1528 1526 1525 1527 1530 1534 1541 1543 1540 1531 1526 1518 1511 1503 1493 1480 1471 1461 1450 1436 1421 1405 1393 1371 1361 1353 1343 1334 1328 1324 1324 1325 1323 1316 1309 1295 1275 1258 1251 1242 1232 1224 1216 1209 1197 1185 1181 1181 1179 1176 1171 1160 1151 1151 1144 1140 1137 1140 1145 1150 1156 1159 1163 1167 1179 1191 1201 1215 1229 1241 1249 1258 1273 1279 1289 1298 1308 1318 1330 1341 1354 1365 1374 1386 1399 1409 1420 1436 1446 1459 1474 1488 1505 1524 1538 1553 1567 1580 1598 1617 1634 1656 1672 1698 1732 1743 1736 1715 1695 1679 1660 1642 1632 1625 1616 1606 1601 1596 1591 1584 1579 1575 1572 1567 1562 1557 1553 1550 1545 1540 1536 1522 1499 1470 1454 1451 1444 1435 1429 1434 1435 1435 1436 1436 1433 1430 1420 1412 1413 1419 1419 1415 1408 1400 1394 1387 1378 1374 1366 1355 1354 1351 1350 1345 1343 1349 1347 1347 1350 1352 1354 1354 1357 1361 1364 1366 1367 1364 1359 1351 1349 1348 1347 1347 1345 1344 1341 1340 1337 1330 1325 1322 1323 1320 1316 1313 1311 1308 1306 1305 1304 1305 1307 1306 1302 1299 1295 1295 1293 1287 1280 1270 1266 1265 1263 1260 1259 1261 1262 1261 1262 1262 1261 1263 1262 1258 1254 1251 1248 1248 1254 1260 1256 1252 1251 1251 1249 1245 1246 1246 1246 1246 1247 1250 1250 1245 1245 1246 1245 1244 1243 1238 1235 1234 1234 1247 1250 1256 1264 1270 1280 1290 1301 1315 1332 1340 1344 1354 1368 1385 1399 1411 1425 1438 1449 1458 1468 1479 1489 1495 1499 1500 1496 1493 1489 1483 1481 1481 1479 1476 1473 1469 1466 1469 1475 1478 1487 1500 1513 1527 1544 1552 1558 1559 1559 1557 1553 1544 1526 1513 1508 1500 1493 1489 1484 1478 1472 1468 1466 1465 1464 1460 1457 1453 1452 1451 1451 1453 1456 1459 1462 1461 1457 1450 1447 1441 1432 1426 1420 1411 1402 1397 1394 1392 1390 1393 1397 1402 1407 1411 1414 1416 1419 1424 1431 1438 1445 1453 1463 1471 1479 1486 1495 1506 1515 1524 1529 1535 1538 1544 1547 1550 1553 1558 1563 1570 1573 1578 1583 1588 1593 1599 1604 1608 1613 1617 1621 1622 1618 1607 1593 1582 1574 1566 1557 1555 1553 1546 1540 1533 1529 1523 1513 1503 1487 1475 1470 1465 1459 1452 1443 1438 1434 1431 1427 1422 1411 1406 1403 1400 1394 1389 1383 1381 1375 1374 1373 1363 1351 1346 1343 1339 1337 1333 1330 1326 1314 1297 1286 1283 1286 1284 1279 1277 1274 1267 1251 1230 1221 1220 1216 1213 1216 1230 1241 1240 1239 1240 1246 1255 1258 1260 1256 1251 1253 1264 1279 1292 1297 1301 1308 1313 1317 1327 1339 1347 1355 1363 1374 1378 1389 1403 1413 1420 1440 1465 1485 1498 1517 1527 1530 1545 1559 1580 1592 1603 1615 1621 1628 1634 1639 1646 1653 1659 1659 1660 1660 1660 1653 1651 1650 1652 1658 1661 1663 1663 1661 1661 1669 1672 1674 1673 1671 1669 1669 1668 1666 1662 1663 1657 1648 1643 1645 1647 1647 1647 1647 1641 1638 1634 1631 1631 1636 1639 1640 1643 1645 1646 1648 1646 1644 1645 1648 1654 1666 1674 1679 1688 1694 1699 1707 1713 1715 1717 1721 1723 1723 1728 1735 1745 1743 1736 1718 1696 1687 1686 1687 1684 1679 1674 1675 1676 1679 1680 1680 1681 1682 1686 1692 1697 1700 1700 1700 1700 1700 1700 1701 1701 1701 1701 1702 1702 1701 1701 1701 1704 1710 1712 1709 1708 1705 1700 1693 1688 1685 1682 1676 1670 1667 1661 1651 1653 1660 1665 1669 1672 1674 1674 1672 1668 1669 1672 1672 1669 1669 1669 1665 1659 1658 1659 1662 1664 1666 1669 1670 1669 1670 1668 1661 1652 1645 1645 1647 1650 1650 1650 1651 1654 1657 1659 1659 1659 1662 1668 1673 1678 1678 1680 1685 1690 1692 1696 1699 1697 1697 1700 1704 1705 1703 1696 1689 1688 1691 1695 1700 1703 1704 1702 1701 1702 1702 1702 1707 1714 1716 1720 1724 1724 1724 1721 1719 1713 1709 1705 1702 1705 1707 1709 1710 1709 1711 1716 1720 1722 1722 1727 1732 1735 1739 1742 1746 1748 1749 1751 1754 1757 1760 1764 1765 1767 1770 1771 1771 1767 1771 1797 1827 1853 1882 1898 1903 1897 1889 1878 1868 1868 1866 1864 1864 1860 1841 1812 1791 1778 1773 1771 1769 1769 1771 1776 1782 1789 1800 1807 1809 1810 1811 1814 1814 1813 1813 1809 1802 1803 1811 1820 1845 1855 1871 1895 1916 1932 1945 1961 1970 1994 2024 2045 2058 2070 2079 2081 2080 2081 2083 2085 2086 2087 2087 2087 2081 2074 2064 2053 2049 2051 2061 2064 2064 2063 2058 2042 2003 1960 1940 1914 1888 1876 1866 1863 1864 1864 1865 1864 1862 1858
 414 414 415 417 417 417 417 418 419 418 419 419 419 419 421 422 425 424 423 422 423 428 432 425 423 423 423 424 425 426 426 427 430 435 448 463 459 452 450 448 447 450 451 454 455 454 455 454 455 456 454 455 457 459 464 470 483 497 500 499 500 504 513 518 526 536 551 572 579 574 575 577 579 583 588 592 601 611 614 614 624 634 641 650 658 672 688 704 724 743 763 786 809 823 840 858 870 886 902 914 929 939 955 971 985 998 1011 1020 1031 1049 1067 1085 1105 1128 1148 1166 1179 1189 1205 1223 1240 1258 1283 1305 1319 1346 1372 1390 1413 1430 1447 1463 1475 1501 1543 1563 1578 1592 1599 1607 1616 1625 1638 1656 1667 1679 1689 1692 1689 1686 1684 1684 1684 1677 1672 1670 1670 1670 1670 1671 1679 1687 1690 1698 1709 1715 1716 1718 1725 1734 1745 1745 1736 1728 1720 1705 1688 1677 1661 1651 1636 1620 1610 1600 1590 1583 1576 1567 1558 1550 1538 1531 1529 1527 1523 1518 1513 1509 1507 1505 1506 1510 1518 1524 1523 1514 1508 1502 1495 1488 1481 1471 1459 1450 1437 1424 1416 1412 1403 1393 1373 1363 1355 1342 1333 1328 1325 1325 1322 1313 1305 1301 1289 1270 1251 1239 1225 1218 1212 1205 1201 1193 1185 1180 1177 1172 1165 1156 1146 1137 1131 1128 1129 1134 1135 1138 1148 1151 1154 1162 1177 1186 1201 1217 1227 1235 1244 1249 1261 1272 1280 1291 1300 1309 1320 1334 1345 1357 1369 1382 1392 1403 1413 1427 1442 1454 1468 1482 1496 1513 1531 1546 1563 1578 1593 1609 1637 1662 1675 1686 1721 1737 1730 1714 1689 1667 1649 1634 1621 1609 1600 1592 1587 1583 1578 1573 1567 1562 1558 1555 1550 1544 1537 1534 1532 1527 1520 1512 1499 1466 1445 1432 1428 1425 1421 1411 1413 1415 1416 1416 1415 1412 1410 1402 1394 1391 1391 1388 1385 1379 1375 1374 1370 1363 1358 1348 1343 1337 1332 1333 1329 1329 1335 1336 1337 1339 1341 1341 1341 1342 1351 1356 1358 1357 1352 1346 1341 1339 1335 1334 1333 1333 1331 1330 1327 1320 1313 1312 1312 1310 1306 1304 1303 1301 1300 1299 1300 1300 1300 1299 1297 1295 1291 1285 1282 1278 1274 1268 1262 1256 1255 1256 1255 1253 1252 1254 1255 1255 1256 1258 1258 1256 1253 1252 1249 1243 1242 1243 1241 1238 1236 1239 1241 1240 1239 1240 1242 1238 1240 1241 1241 1241 1242 1242 1242 1240 1231 1227 1226 1228 1234 1244 1252 1261 1274 1280 1284 1291 1299 1308 1323 1334 1341 1349 1358 1371 1397 1416 1429 1438 1450 1459 1468 1477 1483 1486 1487 1487 1484 1481 1478 1475 1470 1469 1469 1464 1460 1456 1451 1451 1456 1459 1467 1477 1490 1506 1519 1531 1539 1542 1542 1541 1538 1532 1522 1505 1493 1488 1481 1474 1471 1469 1460 1456 1453 1453 1452 1448 1449 1446 1444 1448 1452 1455 1456 1458 1459 1459 1454 1449 1444 1438 1430 1424 1419 1412 1402 1396 1392 1389 1387 1389 1396 1402 1406 1409 1410 1412 1415 1421 1428 1434 1440 1449 1459 1471 1480 1484 1490 1500 1510 1517 1524 1528 1533 1539 1547 1552 1555 1562 1570 1576 1582 1586 1590 1593 1595 1602 1608 1610 1615 1618 1622 1624 1622 1618 1608 1596 1589 1584 1578 1572 1566 1560 1554 1550 1541 1532 1525 1507 1496 1487 1476 1467 1459 1456 1451 1437 1430 1427 1424 1420 1415 1409 1404 1401 1395 1389 1382 1377 1369 1366 1370 1369 1360 1348 1343 1341 1336 1330 1326 1323 1317 1310 1298 1281 1277 1283 1280 1276 1269 1261 1250 1238 1233 1244 1245 1230 1221 1219 1228 1240 1245 1245 1248 1267 1276 1274 1275 1272 1272 1280 1296 1307 1316 1319 1323 1328 1331 1336 1347 1361 1369 1377 1381 1387 1396 1404 1411 1422 1440 1465 1490 1507 1518 1532 1538 1544 1556 1575 1595 1608 1620 1626 1634 1641 1646 1650 1657 1663 1667 1668 1667 1666 1667 1663 1656 1657 1662 1669 1672 1674 1674 1672 1672 1672 1672 1673 1674 1674 1674 1673 1668 1664 1659 1654 1646 1639 1637 1641 1647 1649 1649 1648 1647 1642 1636 1633 1633 1637 1642 1645 1647 1650 1653 1655 1655 1653 1655 1658 1662 1673 1680 1686 1693 1701 1706 1713 1718 1720 1721 1723 1724 1726 1734 1743 1753 1752 1747 1733 1709 1698 1691 1691 1690 1686 1683 1681 1685 1692 1690 1686 1688 1694 1697 1703 1705 1707 1709 1707 1704 1704 1708 1709 1709 1712 1712 1712 1710 1708 1709 1712 1718 1721 1721 1719 1717 1717 1713 1705 1694 1689 1686 1683 1675 1672 1669 1665 1664 1666 1670 1673 1675 1678 1679 1679 1676 1677 1679 1680 1681 1678 1675 1671 1669 1673 1675 1676 1675 1676 1679 1682 1680 1677 1675 1673 1669 1660 1659 1659 1659 1660 1661 1662 1663 1665 1666 1667 1668 1672 1674 1680 1687 1689 1694 1699 1705 1706 1707 1708 1706 1707 1709 1711 1714 1711 1702 1697 1701 1705 1705 1708 1708 1709 1711 1714 1717 1714 1713 1720 1728 1728 1728 1732 1733 1733 1728 1725 1725 1720 1715 1714 1720 1721 1722 1723 1722 1721 1725 1730 1733 1734 1739 1743 1746 1750 1753 1756 1757 1760 1763 1766 1768 1772 1775 1776 1778 1780 1781 1781 1782 1780 1787 1808 1838 1867 1888 1903 1907 1906 1903 1899 1903 1902 1898 1894 1889 1880 1860 1831 1810 1795 1784 1783 1783 1784 1787 1788 1791 1798 1804 1808 1809 1810 1810 1811 1812 1811 1809 1807 1811 1816 1833 1855 1868 1889 1917 1932 1946 1961 1976 1990 2007 2026 2046 2067 2081 2085 2087 2089 2091 2092 2093 2094 2095 2097 2095 2088 2079 2069 2061 2061 2067 2071 2071 2071 2069 2058 2031 1983 1955 1937 1908 1891 1882 1876 1876 1878 1877 1875 1873 1870 1866
 415 416 417 419 418 418 418 418 418 417 418 419 418 420 421 421 421 423 423 423 428 439 446 436 424 423 423 424 426 427 427 428 431 434 437 441 442 446 450 448 445 444 447 448 446 447 449 449 450 452 452 452 455 459 464 469 482 494 494 494 498 503 512 517 524 532 542 560 572 575 580 576 572 571 577 584 587 589 591 593 604 622 636 649 658 674 694 723 741 759 777 795 804 816 835 853 864 874 889 901 917 934 951 966 979 989 1003 1014 1025 1042 1062 1086 1111 1130 1146 1160 1173 1186 1202 1223 1240 1264 1291 1308 1328 1354 1374 1398 1420 1435 1449 1462 1478 1507 1546 1562 1577 1591 1600 1616 1627 1642 1661 1678 1686 1691 1692 1688 1677 1666 1660 1661 1661 1657 1651 1652 1655 1658 1662 1666 1672 1677 1682 1695 1704 1707 1706 1710 1717 1728 1738 1740 1732 1719 1707 1692 1677 1663 1650 1642 1632 1616 1606 1594 1580 1572 1565 1555 1545 1537 1527 1519 1512 1505 1509 1504 1496 1493 1495 1494 1491 1494 1503 1506 1502 1495 1486 1478 1476 1476 1475 1469 1456 1445 1428 1415 1411 1410 1399 1388 1376 1363 1352 1339 1334 1333 1328 1323 1311 1299 1294 1289 1278 1260 1245 1232 1217 1208 1200 1192 1188 1183 1177 1174 1169 1159 1150 1142 1133 1125 1117 1121 1129 1133 1134 1136 1145 1149 1151 1160 1177 1185 1202 1220 1229 1233 1241 1247 1260 1271 1283 1297 1309 1317 1329 1340 1348 1360 1373 1384 1394 1406 1418 1434 1448 1461 1475 1491 1505 1520 1534 1548 1563 1582 1599 1622 1664 1680 1689 1705 1723 1721 1704 1689 1665 1643 1629 1618 1605 1593 1584 1578 1572 1567 1563 1559 1553 1547 1545 1540 1534 1528 1523 1519 1516 1510 1497 1486 1470 1448 1435 1425 1414 1408 1403 1399 1399 1403 1402 1399 1397 1395 1393 1387 1377 1369 1365 1364 1364 1363 1362 1360 1355 1348 1340 1336 1334 1329 1326 1325 1325 1325 1325 1326 1325 1325 1328 1329 1329 1330 1340 1345 1345 1343 1341 1335 1333 1329 1322 1322 1324 1323 1319 1314 1311 1308 1306 1303 1301 1298 1297 1296 1295 1295 1293 1293 1294 1294 1291 1291 1291 1288 1282 1276 1271 1270 1269 1265 1260 1252 1249 1250 1251 1250 1251 1253 1254 1252 1253 1255 1256 1255 1253 1251 1248 1243 1236 1230 1233 1232 1230 1233 1236 1237 1234 1234 1235 1228 1232 1234 1236 1238 1240 1240 1239 1229 1221 1222 1226 1230 1240 1249 1264 1275 1284 1288 1293 1301 1309 1317 1328 1338 1344 1352 1366 1383 1410 1425 1436 1448 1457 1464 1472 1477 1480 1481 1480 1478 1476 1472 1469 1463 1458 1456 1453 1448 1442 1439 1439 1442 1448 1455 1462 1471 1489 1503 1513 1520 1522 1524 1523 1523 1521 1512 1497 1484 1476 1471 1463 1460 1457 1450 1445 1443 1441 1440 1437 1437 1441 1441 1444 1449 1453 1454 1455 1455 1454 1451 1447 1444 1437 1427 1420 1415 1410 1404 1397 1392 1387 1384 1386 1393 1400 1404 1405 1406 1408 1412 1418 1425 1431 1436 1444 1456 1465 1475 1483 1487 1495 1504 1512 1518 1523 1527 1530 1536 1544 1552 1559 1568 1573 1577 1581 1585 1590 1593 1597 1600 1606 1612 1618 1622 1622 1620 1615 1612 1608 1605 1602 1597 1590 1583 1576 1567 1560 1551 1540 1532 1524 1508 1498 1488 1478 1466 1457 1451 1447 1436 1429 1426 1423 1420 1417 1408 1399 1394 1390 1381 1376 1369 1361 1359 1360 1355 1347 1342 1341 1338 1327 1320 1320 1316 1312 1304 1291 1277 1270 1267 1266 1262 1257 1252 1240 1235 1246 1256 1252 1235 1226 1221 1225 1237 1247 1251 1260 1285 1293 1292 1290 1290 1297 1317 1329 1331 1334 1336 1339 1344 1352 1362 1372 1379 1379 1387 1392 1396 1411 1415 1417 1430 1457 1482 1507 1525 1532 1544 1550 1558 1571 1585 1597 1612 1623 1630 1639 1647 1654 1660 1665 1667 1669 1674 1675 1672 1671 1668 1665 1668 1674 1678 1680 1684 1685 1680 1677 1674 1671 1671 1672 1674 1674 1671 1669 1660 1655 1648 1642 1637 1637 1640 1646 1648 1647 1646 1646 1645 1640 1635 1635 1638 1644 1649 1653 1656 1658 1658 1657 1658 1659 1663 1668 1677 1685 1690 1698 1706 1710 1718 1725 1727 1726 1726 1728 1733 1742 1753 1761 1765 1760 1746 1725 1709 1697 1694 1694 1691 1691 1690 1695 1696 1695 1694 1696 1700 1708 1712 1713 1715 1716 1713 1709 1713 1716 1720 1721 1721 1720 1718 1718 1718 1720 1722 1725 1727 1728 1727 1725 1724 1722 1715 1704 1694 1691 1689 1685 1678 1674 1672 1672 1671 1672 1677 1679 1681 1683 1683 1684 1686 1686 1687 1689 1686 1681 1679 1679 1682 1685 1688 1687 1687 1687 1686 1684 1684 1683 1682 1682 1674 1670 1669 1670 1670 1672 1672 1672 1673 1672 1675 1679 1683 1683 1686 1690 1696 1703 1709 1714 1715 1716 1715 1713 1713 1714 1715 1715 1715 1709 1707 1713 1716 1713 1714 1717 1721 1725 1729 1728 1725 1724 1731 1735 1734 1736 1738 1741 1742 1738 1734 1733 1732 1728 1728 1729 1732 1732 1734 1732 1729 1731 1735 1741 1745 1749 1753 1755 1759 1764 1767 1768 1771 1775 1778 1780 1782 1784 1785 1788 1791 1793 1793 1793 1793 1792 1797 1813 1845 1876 1903 1912 1915 1919 1922 1924 1923 1920 1918 1912 1905 1897 1883 1861 1834 1812 1802 1799 1795 1795 1795 1798 1803 1807 1808 1809 1810 1811 1810 1810 1809 1808 1809 1813 1824 1847 1864 1880 1911 1931 1944 1958 1975 1989 2001 2014 2035 2054 2075 2087 2091 2095 2096 2098 2099 2100 2101 2102 2103 2101 2094 2083 2077 2072 2074 2078 2081 2083 2079 2065 2042 2012 1976 1953 1929 1906 1892 1885 1882 1883 1885 1886 1884 1881 1876 1871
 416 417 419 419 419 419 418 419 419 418 418 419 419 419 420 421 422 424 423 423 425 429 434 430 423 422 423 424 426 427 428 428 431 431 430 432 435 446 452 449 443 438 439 440 441 442 443 444 446 449 450 449 450 454 458 466 481 489 492 495 499 506 511 517 522 529 537 557 575 583 588 583 571 563 563 568 575 581 589 597 611 626 639 651 661 680 713 743 761 784 800 810 813 822 832 843 854 865 875 888 907 926 945 960 975 985 998 1011 1022 1041 1067 1094 1113 1131 1143 1158 1173 1190 1211 1229 1247 1278 1297 1314 1339 1360 1378 1400 1416 1431 1447 1468 1491 1517 1542 1555 1568 1584 1592 1609 1631 1653 1673 1686 1686 1678 1668 1663 1653 1643 1638 1639 1640 1634 1629 1634 1640 1650 1655 1658 1664 1669 1678 1688 1690 1690 1690 1698 1707 1720 1735 1742 1734 1717 1702 1688 1670 1658 1647 1642 1634 1614 1595 1583 1571 1561 1552 1543 1532 1523 1511 1499 1491 1483 1484 1485 1483 1484 1485 1482 1478 1482 1486 1486 1483 1473 1458 1451 1456 1460 1465 1459 1436 1422 1411 1406 1403 1397 1386 1373 1356 1343 1331 1323 1323 1325 1321 1314 1301 1289 1276 1260 1248 1241 1232 1222 1204 1191 1183 1177 1172 1165 1161 1160 1151 1141 1132 1121 1117 1113 1106 1110 1123 1132 1138 1141 1143 1146 1151 1158 1169 1179 1194 1214 1229 1234 1239 1246 1256 1269 1281 1301 1317 1327 1340 1349 1356 1369 1381 1391 1402 1414 1428 1442 1456 1470 1483 1500 1514 1528 1544 1556 1571 1592 1608 1639 1688 1706 1711 1709 1701 1689 1674 1656 1635 1620 1610 1599 1588 1578 1569 1561 1555 1550 1546 1541 1535 1529 1526 1522 1517 1510 1506 1499 1492 1484 1474 1464 1451 1435 1426 1419 1400 1393 1385 1380 1375 1372 1369 1374 1379 1375 1370 1364 1353 1343 1336 1338 1343 1346 1346 1344 1342 1335 1330 1329 1328 1325 1322 1320 1320 1318 1316 1314 1313 1314 1315 1314 1314 1317 1321 1323 1324 1323 1322 1324 1323 1318 1311 1307 1309 1309 1306 1301 1299 1298 1295 1294 1291 1290 1289 1289 1288 1289 1287 1285 1282 1283 1282 1281 1278 1273 1268 1264 1264 1267 1266 1262 1252 1242 1240 1242 1244 1246 1250 1252 1253 1252 1252 1252 1252 1250 1248 1248 1245 1239 1229 1223 1223 1226 1231 1234 1233 1232 1225 1228 1230 1223 1223 1224 1225 1229 1235 1236 1227 1216 1219 1224 1229 1236 1245 1256 1271 1281 1290 1295 1300 1310 1317 1322 1332 1343 1350 1365 1386 1404 1419 1429 1442 1453 1458 1463 1468 1470 1471 1470 1467 1466 1464 1457 1456 1452 1447 1445 1440 1433 1430 1426 1428 1433 1442 1451 1458 1468 1491 1501 1502 1500 1501 1501 1504 1503 1498 1483 1471 1460 1450 1444 1438 1436 1434 1433 1431 1430 1431 1426 1425 1427 1434 1441 1446 1450 1451 1450 1448 1446 1443 1441 1439 1434 1426 1419 1411 1405 1400 1395 1390 1385 1382 1382 1389 1398 1401 1403 1403 1404 1410 1417 1428 1431 1436 1442 1450 1460 1470 1476 1483 1493 1500 1505 1512 1516 1519 1523 1528 1535 1545 1552 1558 1564 1567 1572 1576 1579 1583 1588 1592 1596 1600 1606 1611 1613 1608 1605 1605 1605 1605 1605 1603 1599 1595 1591 1583 1569 1556 1546 1534 1526 1518 1507 1499 1489 1478 1470 1461 1454 1447 1439 1433 1430 1426 1419 1412 1401 1394 1388 1383 1377 1373 1370 1371 1369 1366 1361 1357 1354 1347 1339 1325 1313 1308 1304 1297 1290 1285 1275 1269 1263 1257 1256 1259 1257 1249 1247 1253 1254 1244 1233 1228 1226 1231 1243 1255 1263 1276 1302 1304 1304 1307 1320 1340 1352 1353 1351 1351 1355 1365 1366 1365 1373 1389 1397 1394 1397 1405 1417 1433 1434 1439 1455 1481 1501 1521 1535 1546 1558 1564 1572 1586 1595 1603 1614 1627 1633 1642 1651 1656 1663 1666 1666 1667 1673 1676 1676 1673 1669 1668 1675 1678 1682 1688 1690 1690 1688 1684 1682 1677 1672 1671 1671 1669 1667 1666 1658 1652 1644 1639 1637 1637 1638 1643 1647 1647 1645 1645 1645 1644 1642 1645 1651 1653 1655 1661 1662 1660 1659 1660 1663 1665 1670 1677 1684 1690 1696 1705 1712 1717 1725 1730 1733 1732 1731 1735 1742 1754 1763 1773 1778 1774 1753 1740 1719 1705 1699 1697 1696 1694 1695 1698 1698 1697 1700 1707 1711 1715 1717 1719 1719 1718 1718 1716 1719 1723 1728 1730 1731 1730 1728 1728 1726 1728 1730 1732 1734 1734 1735 1733 1732 1730 1724 1716 1706 1699 1695 1693 1685 1680 1678 1681 1682 1681 1687 1689 1689 1689 1691 1693 1693 1694 1695 1697 1697 1693 1691 1690 1691 1696 1697 1698 1697 1696 1695 1693 1693 1692 1693 1693 1688 1681 1679 1679 1682 1684 1683 1682 1679 1679 1683 1690 1695 1695 1695 1699 1706 1711 1716 1720 1721 1721 1720 1721 1728 1724 1721 1718 1718 1717 1718 1726 1728 1725 1726 1731 1736 1738 1742 1742 1742 1741 1743 1747 1749 1753 1751 1747 1746 1744 1746 1749 1749 1747 1744 1749 1750 1745 1742 1741 1741 1742 1747 1751 1754 1758 1762 1765 1769 1773 1777 1779 1782 1785 1790 1792 1793 1795 1797 1801 1802 1803 1806 1806 1801 1796 1793 1802 1833 1867 1897 1912 1918 1925 1933 1944 1947 1943 1938 1935 1933 1929 1921 1912 1899 1865 1833 1818 1810 1806 1804 1808 1813 1816 1817 1816 1816 1815 1812 1809 1808 1809 1812 1818 1836 1856 1871 1901 1931 1949 1957 1975 1996 2010 2021 2034 2058 2075 2089 2096 2101 2104 2107 2107 2108 2111 2112 2112 2113 2112 2104 2092 2086 2085 2090 2093 2093 2091 2083 2050 2022 1995 1969 1947 1923 1908 1896 1888 1886 1889 1892 1892 1890 1889 1885 1880
 416 418 418 418 419 418 419 419 419 420 419 419 418 418 419 420 421 422 423 423 423 422 423 422 421 422 425 426 427 427 428 428 429 430 432 433 433 433 435 437 436 436 437 438 439 441 442 444 445 446 448 448 448 449 454 465 490 503 504 509 513 514 518 523 525 531 536 545 565 573 578 575 566 559 560 567 583 600 610 622 632 639 648 657 672 704 738 757 775 798 812 822 829 837 843 851 861 873 884 896 911 927 940 953 971 981 997 1012 1027 1049 1072 1092 1110 1125 1140 1157 1174 1190 1211 1232 1254 1274 1293 1315 1340 1360 1374 1393 1410 1426 1442 1470 1492 1515 1533 1546 1560 1576 1591 1610 1629 1652 1670 1677 1674 1665 1654 1645 1632 1626 1622 1621 1618 1615 1613 1619 1630 1642 1646 1649 1657 1665 1670 1668 1670 1676 1683 1691 1702 1719 1734 1745 1746 1730 1712 1694 1676 1663 1645 1634 1621 1604 1586 1575 1562 1547 1535 1521 1507 1497 1487 1478 1471 1467 1470 1470 1466 1465 1464 1459 1459 1466 1472 1470 1466 1455 1448 1442 1439 1434 1434 1424 1409 1405 1400 1392 1386 1379 1371 1359 1336 1322 1314 1302 1301 1309 1307 1295 1287 1275 1259 1241 1227 1217 1210 1198 1189 1180 1169 1162 1159 1155 1154 1150 1136 1125 1117 1107 1107 1105 1099 1105 1120 1130 1139 1146 1147 1148 1151 1158 1169 1178 1196 1219 1232 1239 1244 1249 1256 1273 1285 1300 1311 1322 1340 1354 1364 1376 1388 1400 1413 1426 1438 1452 1467 1477 1490 1508 1523 1539 1556 1570 1587 1607 1627 1661 1695 1709 1707 1694 1677 1659 1642 1628 1615 1603 1594 1584 1573 1562 1553 1543 1534 1529 1528 1524 1517 1513 1507 1497 1491 1489 1485 1480 1474 1463 1451 1440 1429 1423 1415 1400 1390 1383 1373 1361 1354 1348 1349 1355 1357 1348 1343 1338 1327 1315 1314 1323 1326 1327 1327 1324 1323 1322 1321 1322 1319 1318 1313 1311 1309 1306 1304 1304 1305 1307 1307 1306 1305 1307 1308 1306 1307 1308 1309 1309 1310 1307 1301 1296 1295 1296 1294 1291 1289 1288 1286 1284 1284 1281 1281 1281 1280 1278 1273 1271 1273 1273 1269 1267 1265 1263 1261 1259 1260 1260 1257 1252 1242 1236 1232 1231 1234 1238 1244 1249 1250 1249 1245 1244 1244 1242 1242 1242 1236 1231 1225 1216 1215 1219 1227 1229 1230 1227 1220 1220 1218 1216 1215 1216 1219 1220 1226 1223 1212 1215 1222 1227 1234 1244 1250 1263 1272 1284 1293 1298 1306 1320 1328 1334 1345 1356 1369 1388 1400 1413 1429 1437 1443 1448 1452 1454 1456 1457 1458 1459 1458 1456 1451 1448 1444 1439 1432 1428 1422 1419 1415 1416 1421 1426 1435 1447 1456 1472 1487 1493 1488 1487 1485 1485 1479 1474 1471 1461 1451 1442 1435 1429 1423 1421 1421 1420 1417 1415 1412 1414 1419 1427 1437 1445 1448 1446 1444 1443 1439 1436 1435 1431 1425 1420 1414 1407 1401 1397 1392 1388 1381 1378 1378 1384 1394 1398 1400 1401 1403 1408 1411 1416 1426 1435 1441 1448 1453 1462 1471 1478 1486 1493 1497 1501 1505 1510 1513 1519 1527 1536 1544 1550 1554 1556 1558 1562 1569 1573 1577 1576 1578 1584 1589 1593 1596 1593 1591 1590 1592 1593 1594 1594 1593 1591 1590 1587 1578 1568 1556 1542 1527 1519 1512 1503 1500 1493 1483 1476 1466 1457 1448 1444 1440 1433 1429 1424 1415 1403 1402 1405 1408 1401 1388 1388 1391 1396 1403 1389 1378 1371 1358 1349 1333 1313 1303 1298 1293 1287 1280 1274 1269 1266 1263 1261 1259 1257 1252 1250 1248 1244 1237 1232 1234 1243 1250 1261 1267 1278 1299 1315 1315 1320 1336 1354 1363 1367 1368 1367 1369 1382 1388 1385 1387 1398 1417 1426 1422 1418 1430 1441 1448 1456 1479 1502 1512 1520 1529 1540 1555 1571 1576 1580 1588 1597 1607 1618 1629 1640 1646 1653 1657 1662 1664 1666 1670 1672 1673 1674 1673 1672 1675 1678 1678 1682 1691 1693 1693 1695 1695 1688 1682 1672 1670 1672 1669 1665 1661 1655 1653 1646 1640 1637 1637 1638 1640 1645 1649 1652 1649 1649 1648 1649 1651 1656 1659 1662 1666 1664 1663 1664 1668 1670 1672 1678 1683 1690 1697 1705 1712 1718 1721 1728 1733 1736 1735 1736 1740 1750 1761 1775 1783 1788 1779 1757 1741 1724 1707 1700 1699 1699 1697 1698 1700 1702 1705 1709 1714 1719 1722 1724 1725 1722 1720 1720 1723 1729 1733 1735 1735 1736 1736 1735 1735 1734 1734 1736 1739 1743 1742 1742 1740 1740 1739 1732 1724 1713 1707 1704 1700 1692 1690 1694 1697 1697 1694 1695 1696 1697 1698 1698 1698 1700 1702 1705 1708 1707 1704 1704 1701 1702 1708 1708 1706 1707 1707 1706 1706 1706 1703 1702 1702 1698 1693 1692 1691 1694 1695 1696 1696 1693 1691 1695 1703 1706 1706 1708 1714 1713 1716 1719 1722 1723 1724 1725 1734 1745 1741 1735 1726 1722 1723 1728 1738 1741 1744 1743 1743 1747 1751 1755 1760 1761 1758 1758 1762 1764 1763 1758 1754 1754 1753 1754 1757 1762 1766 1769 1770 1770 1764 1755 1753 1753 1755 1759 1762 1767 1768 1769 1773 1776 1780 1785 1790 1794 1797 1799 1802 1805 1807 1809 1811 1813 1815 1814 1813 1811 1804 1795 1797 1819 1846 1882 1904 1918 1933 1944 1953 1963 1972 1974 1965 1959 1954 1949 1939 1936 1920 1875 1846 1827 1823 1822 1821 1824 1826 1827 1827 1826 1821 1815 1812 1809 1810 1814 1820 1831 1852 1877 1919 1945 1960 1969 1990 2008 2024 2036 2060 2087 2095 2101 2108 2112 2115 2116 2117 2118 2119 2121 2121 2120 2119 2114 2106 2102 2100 2100 2101 2102 2098 2084 2041 2007 1987 1968 1944 1926 1912 1900 1894 1893 1897 1901 1899 1894 1893 1891 1887
 418 418 418 416 416 418 419 419 419 420 420 418 418 419 420 420 421 422 423 425 424 422 422 422 423 424 426 429 429 428 429 430 430 431 433 434 433 433 434 434 435 437 438 439 440 442 442 442 443 446 448 449 448 451 459 476 505 514 512 516 518 518 520 523 524 529 532 536 548 557 561 561 557 556 561 572 591 606 617 630 637 643 654 665 679 719 748 764 781 800 813 823 837 846 858 870 883 897 911 921 935 948 954 957 967 977 996 1014 1031 1053 1074 1090 1105 1119 1133 1152 1173 1187 1209 1236 1252 1268 1294 1314 1334 1356 1370 1391 1409 1423 1441 1472 1487 1505 1522 1538 1553 1573 1594 1610 1627 1649 1665 1665 1657 1644 1635 1627 1619 1615 1612 1606 1600 1600 1602 1612 1622 1632 1638 1644 1651 1654 1654 1657 1666 1671 1679 1690 1703 1722 1736 1748 1752 1741 1725 1708 1690 1675 1649 1630 1615 1600 1585 1575 1560 1542 1531 1517 1504 1492 1482 1472 1462 1458 1459 1456 1455 1453 1449 1443 1444 1448 1450 1444 1441 1440 1438 1433 1426 1415 1408 1402 1396 1396 1390 1373 1363 1357 1353 1349 1328 1315 1304 1293 1291 1297 1294 1280 1272 1263 1250 1236 1215 1199 1191 1184 1181 1177 1166 1154 1150 1146 1143 1137 1123 1115 1108 1100 1100 1098 1094 1097 1113 1125 1133 1141 1148 1150 1154 1164 1175 1183 1194 1213 1231 1239 1243 1245 1252 1265 1277 1291 1302 1313 1329 1348 1362 1379 1400 1419 1430 1439 1450 1462 1475 1487 1500 1515 1531 1548 1564 1577 1598 1628 1656 1684 1695 1699 1690 1671 1654 1640 1626 1614 1602 1591 1582 1573 1558 1549 1538 1529 1518 1511 1510 1504 1498 1491 1481 1474 1471 1468 1462 1457 1450 1439 1428 1421 1415 1409 1402 1393 1382 1369 1355 1341 1333 1328 1334 1339 1332 1321 1322 1322 1311 1301 1300 1310 1314 1313 1315 1314 1314 1313 1310 1309 1308 1306 1300 1299 1300 1298 1297 1297 1296 1301 1301 1297 1298 1302 1301 1293 1292 1293 1295 1295 1297 1298 1295 1292 1288 1287 1284 1282 1282 1281 1279 1276 1273 1271 1271 1274 1273 1270 1268 1266 1265 1266 1263 1260 1258 1258 1256 1253 1250 1249 1248 1244 1236 1231 1228 1226 1227 1232 1239 1242 1243 1239 1237 1238 1239 1238 1236 1232 1230 1225 1220 1213 1211 1214 1220 1225 1227 1221 1216 1213 1212 1209 1208 1212 1216 1217 1215 1211 1213 1222 1228 1230 1238 1246 1254 1266 1276 1286 1295 1303 1315 1335 1341 1349 1364 1377 1387 1396 1409 1427 1438 1444 1445 1445 1446 1447 1448 1449 1450 1452 1449 1447 1444 1441 1436 1430 1424 1419 1412 1406 1403 1409 1416 1423 1434 1447 1455 1472 1477 1478 1479 1473 1465 1461 1458 1456 1452 1441 1434 1428 1422 1415 1410 1407 1403 1398 1398 1401 1406 1414 1423 1431 1438 1444 1445 1439 1436 1434 1432 1430 1426 1420 1414 1410 1404 1399 1394 1390 1386 1379 1373 1372 1375 1387 1393 1396 1397 1400 1407 1409 1411 1416 1428 1435 1443 1450 1454 1462 1469 1477 1482 1487 1488 1489 1496 1504 1517 1524 1528 1534 1540 1544 1547 1548 1549 1550 1554 1559 1566 1567 1570 1574 1577 1578 1580 1580 1582 1583 1584 1584 1585 1586 1585 1582 1580 1577 1571 1566 1559 1543 1525 1514 1506 1500 1498 1491 1482 1475 1467 1458 1451 1447 1442 1434 1429 1426 1418 1410 1416 1421 1424 1418 1408 1402 1403 1406 1413 1409 1390 1381 1368 1359 1343 1325 1314 1314 1312 1300 1282 1274 1270 1267 1265 1263 1260 1259 1257 1253 1246 1241 1236 1238 1247 1261 1268 1272 1279 1302 1318 1324 1327 1342 1363 1374 1376 1378 1381 1386 1392 1396 1399 1404 1413 1424 1442 1446 1438 1433 1442 1448 1457 1476 1509 1528 1539 1544 1540 1545 1556 1571 1580 1589 1596 1605 1614 1625 1634 1642 1650 1656 1660 1663 1666 1672 1674 1675 1675 1675 1677 1677 1679 1681 1683 1687 1695 1695 1694 1698 1699 1694 1689 1680 1670 1671 1671 1668 1663 1657 1654 1651 1644 1638 1637 1637 1639 1644 1649 1655 1655 1654 1653 1652 1651 1654 1662 1666 1669 1667 1666 1669 1673 1676 1679 1685 1689 1697 1704 1711 1719 1723 1726 1731 1736 1739 1740 1739 1743 1755 1771 1784 1789 1801 1801 1769 1743 1725 1709 1702 1702 1704 1705 1704 1704 1707 1710 1713 1718 1723 1724 1728 1729 1723 1722 1724 1731 1737 1740 1743 1743 1744 1744 1742 1741 1742 1742 1742 1745 1747 1749 1751 1750 1749 1746 1740 1730 1719 1714 1711 1708 1703 1702 1709 1709 1707 1705 1704 1704 1704 1706 1706 1709 1713 1713 1717 1716 1713 1712 1711 1710 1711 1715 1716 1715 1715 1715 1714 1714 1714 1711 1709 1707 1705 1701 1701 1701 1705 1703 1704 1704 1701 1701 1705 1710 1713 1714 1720 1725 1725 1725 1726 1728 1730 1732 1736 1752 1761 1756 1746 1736 1728 1731 1741 1746 1751 1756 1753 1752 1756 1761 1764 1766 1766 1763 1762 1764 1767 1766 1766 1764 1762 1760 1761 1766 1776 1780 1784 1784 1783 1777 1765 1761 1758 1760 1761 1766 1775 1778 1778 1780 1784 1789 1794 1798 1802 1804 1806 1810 1813 1816 1816 1817 1820 1821 1821 1822 1819 1812 1801 1799 1813 1837 1868 1890 1911 1931 1946 1956 1972 1989 1996 1998 1993 1983 1975 1969 1965 1953 1920 1880 1845 1836 1835 1832 1834 1835 1835 1834 1832 1827 1818 1812 1810 1811 1812 1819 1828 1845 1887 1928 1951 1965 1983 2002 2021 2036 2049 2081 2102 2106 2112 2115 2118 2122 2124 2125 2127 2128 2129 2129 2127 2124 2121 2119 2115 2112 2109 2107 2106 2101 2083 2038 2006 1986 1968 1946 1929 1915 1903 1898 1897 1904 1910 1905 1900 1896 1894 1890
 421 419 419 418 416 416 417 418 419 419 420 419 419 420 421 421 421 422 422 424 425 425 423 424 426 427 431 431 427 429 430 431 431 431 432 433 433 433 434 434 434 435 437 440 445 447 443 441 442 443 445 448 450 458 473 501 515 516 512 512 513 511 512 512 515 518 521 529 538 542 545 550 554 559 562 573 588 598 606 618 629 637 650 665 684 722 751 763 780 799 810 823 840 852 871 889 905 919 934 945 954 963 972 980 987 992 1001 1015 1028 1050 1071 1086 1101 1119 1134 1155 1179 1198 1218 1237 1253 1275 1299 1315 1333 1352 1371 1391 1406 1422 1442 1470 1481 1495 1511 1529 1549 1572 1591 1606 1624 1643 1661 1660 1646 1631 1621 1615 1606 1599 1593 1587 1583 1585 1593 1607 1615 1622 1629 1633 1636 1635 1639 1649 1659 1668 1681 1695 1708 1725 1735 1742 1741 1734 1726 1717 1705 1693 1670 1645 1627 1607 1590 1577 1561 1544 1533 1518 1502 1491 1479 1463 1455 1447 1444 1444 1445 1440 1433 1427 1433 1433 1432 1425 1424 1425 1427 1422 1411 1401 1392 1384 1379 1380 1379 1362 1350 1343 1337 1334 1321 1312 1304 1297 1290 1287 1280 1265 1252 1238 1230 1213 1195 1187 1181 1176 1177 1176 1168 1151 1142 1136 1133 1126 1117 1110 1101 1095 1095 1094 1088 1090 1103 1119 1128 1132 1141 1148 1154 1164 1176 1183 1194 1205 1220 1235 1236 1236 1243 1254 1267 1282 1293 1308 1336 1358 1373 1394 1415 1434 1450 1460 1471 1485 1499 1507 1515 1528 1542 1556 1573 1589 1620 1647 1675 1689 1689 1679 1663 1647 1636 1625 1610 1598 1584 1573 1565 1552 1540 1529 1520 1512 1503 1493 1485 1481 1480 1474 1466 1452 1438 1432 1428 1429 1429 1423 1414 1409 1403 1396 1391 1381 1364 1350 1334 1323 1314 1305 1307 1305 1293 1297 1302 1306 1299 1292 1287 1293 1298 1300 1304 1307 1305 1304 1299 1300 1297 1293 1291 1291 1290 1291 1292 1292 1289 1288 1288 1287 1291 1296 1292 1283 1280 1283 1285 1285 1288 1290 1289 1280 1272 1273 1273 1273 1273 1275 1273 1269 1265 1263 1262 1266 1266 1261 1258 1254 1252 1254 1254 1253 1251 1249 1247 1243 1241 1240 1238 1237 1234 1229 1224 1222 1223 1227 1232 1231 1231 1230 1228 1230 1230 1228 1225 1224 1222 1218 1214 1206 1205 1208 1214 1220 1223 1219 1212 1211 1207 1201 1201 1206 1210 1205 1202 1213 1224 1232 1233 1235 1242 1251 1260 1274 1286 1298 1315 1320 1333 1352 1357 1368 1379 1385 1394 1406 1422 1433 1442 1448 1445 1441 1441 1441 1441 1441 1439 1438 1440 1435 1434 1433 1425 1419 1413 1408 1397 1393 1393 1400 1409 1418 1435 1443 1443 1454 1459 1457 1453 1450 1445 1439 1434 1428 1425 1418 1414 1407 1403 1396 1391 1384 1381 1382 1386 1394 1407 1418 1427 1433 1437 1438 1440 1438 1434 1429 1422 1419 1413 1407 1405 1401 1396 1392 1389 1387 1381 1370 1368 1372 1380 1388 1390 1391 1392 1396 1403 1407 1410 1417 1427 1433 1441 1451 1456 1461 1467 1473 1473 1474 1476 1478 1490 1503 1521 1525 1525 1528 1532 1536 1538 1536 1538 1539 1540 1542 1544 1551 1557 1565 1566 1564 1566 1569 1571 1572 1573 1573 1572 1572 1574 1573 1572 1572 1570 1566 1559 1546 1532 1518 1507 1501 1497 1491 1482 1477 1470 1460 1454 1449 1444 1439 1433 1426 1422 1420 1425 1428 1430 1426 1419 1412 1410 1413 1415 1411 1398 1383 1372 1362 1354 1345 1336 1327 1319 1307 1285 1276 1274 1273 1271 1269 1274 1282 1279 1260 1248 1245 1255 1263 1269 1277 1280 1284 1293 1316 1331 1335 1343 1361 1379 1391 1392 1399 1404 1402 1406 1412 1421 1430 1438 1451 1461 1460 1461 1454 1456 1461 1472 1499 1534 1550 1561 1564 1564 1560 1563 1573 1584 1603 1611 1621 1627 1635 1640 1644 1650 1655 1659 1665 1672 1675 1674 1675 1678 1681 1682 1681 1681 1685 1691 1695 1698 1697 1694 1696 1697 1695 1694 1689 1678 1672 1671 1672 1668 1664 1659 1654 1647 1640 1637 1637 1638 1643 1649 1655 1658 1658 1657 1656 1654 1654 1662 1667 1672 1676 1677 1677 1680 1683 1687 1690 1693 1702 1709 1717 1726 1733 1738 1739 1741 1742 1743 1744 1748 1760 1782 1791 1799 1817 1821 1799 1761 1737 1719 1710 1708 1713 1713 1713 1714 1715 1716 1719 1724 1726 1728 1733 1734 1730 1731 1735 1745 1750 1752 1752 1752 1752 1751 1750 1751 1752 1754 1753 1753 1755 1758 1758 1757 1757 1756 1747 1737 1731 1725 1719 1714 1710 1712 1720 1721 1720 1717 1715 1712 1712 1716 1719 1722 1724 1725 1725 1725 1724 1723 1721 1719 1722 1723 1723 1724 1726 1728 1727 1722 1721 1718 1715 1712 1710 1710 1710 1711 1714 1716 1713 1710 1711 1714 1718 1723 1723 1725 1732 1735 1737 1739 1741 1742 1743 1744 1751 1767 1783 1778 1760 1745 1735 1737 1748 1753 1757 1761 1761 1759 1762 1764 1767 1767 1767 1765 1764 1766 1768 1768 1769 1770 1770 1771 1774 1779 1789 1802 1809 1807 1806 1804 1787 1774 1768 1764 1763 1765 1772 1779 1784 1788 1791 1797 1802 1805 1809 1811 1815 1819 1822 1824 1826 1828 1829 1830 1830 1829 1825 1819 1810 1807 1815 1835 1856 1878 1899 1929 1953 1965 1980 1999 2008 2018 2021 2020 2015 2001 1989 1973 1948 1916 1872 1854 1848 1845 1842 1841 1839 1835 1831 1828 1822 1817 1812 1810 1811 1816 1828 1852 1902 1926 1943 1970 1992 2006 2021 2036 2053 2091 2108 2117 2125 2126 2129 2136 2138 2136 2137 2136 2136 2138 2138 2135 2130 2128 2127 2122 2117 2115 2113 2104 2077 2042 2010 1982 1963 1944 1931 1918 1909 1903 1904 1912 1914 1910 1905 1901 1897 1893
 419 418 417 417 415 416 417 417 418 420 420 420 421 421 421 420 421 423 423 425 426 426 426 427 428 430 433 430 423 426 432 434 433 432 432 431 430 431 433 434 435 435 436 437 441 443 441 440 441 442 446 449 454 464 477 498 503 501 501 502 501 500 503 507 509 512 514 522 531 532 532 539 550 558 559 567 580 595 605 614 624 634 651 678 699 728 749 758 769 781 793 811 840 858 883 908 925 938 951 960 970 980 989 999 1011 1023 1036 1041 1039 1043 1058 1078 1101 1127 1141 1163 1192 1211 1228 1249 1265 1283 1302 1315 1337 1355 1368 1386 1406 1426 1440 1463 1476 1486 1506 1522 1541 1564 1582 1603 1623 1644 1653 1652 1635 1615 1606 1599 1591 1583 1577 1573 1571 1579 1590 1602 1607 1616 1621 1622 1622 1623 1630 1645 1660 1670 1688 1700 1712 1722 1724 1720 1716 1710 1705 1699 1692 1686 1677 1663 1649 1633 1615 1598 1578 1558 1544 1526 1508 1494 1476 1459 1448 1438 1432 1430 1428 1421 1414 1412 1414 1418 1417 1411 1410 1410 1402 1394 1386 1379 1374 1364 1362 1366 1354 1337 1328 1318 1315 1313 1307 1298 1294 1288 1276 1271 1259 1244 1232 1221 1203 1187 1177 1176 1173 1170 1168 1165 1158 1150 1144 1135 1127 1119 1109 1097 1091 1085 1083 1080 1079 1086 1096 1111 1120 1124 1132 1142 1151 1163 1175 1185 1195 1207 1212 1222 1232 1239 1246 1258 1270 1281 1300 1330 1362 1380 1397 1415 1429 1442 1459 1481 1500 1528 1552 1551 1551 1559 1565 1578 1597 1615 1639 1664 1682 1684 1674 1663 1647 1631 1618 1606 1590 1574 1563 1554 1546 1534 1524 1512 1501 1495 1491 1481 1466 1459 1459 1459 1450 1431 1422 1418 1415 1416 1417 1409 1396 1389 1380 1380 1378 1366 1346 1328 1308 1293 1281 1270 1264 1263 1266 1273 1277 1285 1289 1283 1274 1280 1284 1286 1294 1300 1297 1285 1282 1288 1290 1290 1288 1284 1280 1279 1279 1281 1279 1278 1280 1280 1282 1282 1276 1273 1272 1269 1270 1272 1275 1276 1277 1272 1261 1258 1258 1260 1261 1262 1263 1262 1258 1256 1255 1255 1253 1251 1251 1245 1243 1244 1245 1245 1243 1239 1237 1236 1232 1230 1228 1227 1224 1221 1218 1217 1219 1219 1221 1222 1220 1220 1221 1220 1220 1218 1217 1218 1218 1213 1206 1199 1202 1205 1213 1222 1224 1219 1207 1205 1199 1196 1197 1198 1198 1200 1207 1221 1230 1234 1240 1248 1261 1274 1279 1286 1302 1322 1338 1346 1356 1366 1372 1377 1387 1397 1404 1413 1426 1434 1440 1444 1437 1430 1429 1430 1430 1428 1428 1430 1428 1423 1422 1417 1413 1408 1402 1396 1385 1380 1381 1391 1400 1410 1420 1429 1431 1432 1434 1434 1430 1425 1424 1419 1413 1405 1400 1397 1394 1391 1386 1379 1369 1364 1370 1379 1391 1404 1415 1425 1429 1432 1432 1430 1428 1429 1428 1421 1415 1412 1405 1400 1399 1396 1391 1388 1386 1384 1376 1366 1361 1369 1380 1384 1384 1382 1387 1392 1397 1405 1412 1418 1424 1430 1439 1446 1451 1454 1461 1468 1468 1467 1469 1477 1488 1500 1511 1513 1516 1521 1525 1525 1524 1521 1521 1522 1524 1525 1526 1533 1539 1546 1551 1553 1556 1558 1560 1563 1563 1563 1564 1565 1567 1568 1569 1570 1570 1570 1565 1554 1541 1529 1519 1511 1508 1503 1491 1483 1478 1470 1461 1457 1456 1450 1442 1438 1439 1435 1437 1437 1434 1435 1432 1426 1424 1425 1424 1415 1398 1381 1369 1360 1354 1350 1342 1329 1319 1310 1292 1282 1281 1284 1290 1294 1296 1292 1286 1258 1250 1250 1263 1274 1276 1282 1286 1292 1303 1330 1347 1357 1366 1375 1395 1402 1405 1417 1421 1422 1428 1440 1448 1455 1467 1478 1485 1492 1491 1475 1473 1479 1491 1521 1548 1566 1576 1582 1584 1579 1578 1583 1592 1611 1625 1635 1639 1643 1650 1653 1654 1659 1662 1665 1671 1675 1675 1676 1678 1681 1682 1681 1680 1684 1690 1696 1699 1698 1695 1694 1692 1693 1692 1688 1681 1675 1672 1672 1670 1662 1659 1656 1649 1642 1637 1637 1640 1648 1655 1657 1662 1665 1663 1662 1661 1663 1670 1676 1682 1685 1685 1687 1689 1690 1692 1693 1696 1702 1711 1722 1732 1741 1744 1744 1744 1744 1745 1748 1756 1772 1790 1802 1819 1824 1826 1814 1781 1756 1735 1721 1718 1720 1721 1721 1721 1721 1720 1722 1728 1732 1738 1744 1745 1742 1744 1751 1757 1762 1764 1764 1762 1759 1759 1758 1761 1760 1762 1764 1764 1765 1766 1765 1766 1766 1764 1758 1746 1741 1736 1728 1721 1719 1726 1730 1730 1730 1730 1728 1725 1721 1722 1726 1730 1733 1733 1733 1735 1737 1734 1730 1730 1731 1731 1732 1737 1739 1739 1735 1730 1726 1722 1719 1719 1717 1715 1717 1720 1724 1727 1728 1727 1730 1730 1733 1734 1734 1736 1740 1745 1748 1750 1754 1757 1754 1755 1764 1782 1799 1798 1780 1759 1746 1743 1747 1755 1758 1762 1765 1767 1767 1766 1767 1768 1770 1770 1770 1769 1770 1775 1780 1785 1786 1785 1788 1792 1807 1828 1837 1834 1830 1823 1811 1792 1780 1776 1773 1771 1775 1780 1785 1789 1795 1801 1805 1811 1818 1820 1823 1827 1831 1833 1836 1836 1837 1837 1836 1833 1829 1822 1816 1817 1823 1837 1849 1871 1891 1931 1955 1969 1984 1998 2014 2033 2041 2044 2042 2032 2017 1994 1971 1950 1910 1876 1864 1857 1851 1845 1839 1833 1830 1827 1825 1822 1815 1809 1809 1812 1822 1842 1888 1916 1933 1977 2006 2018 2016 2031 2056 2090 2116 2130 2135 2138 2142 2149 2152 2150 2147 2146 2145 2146 2145 2144 2143 2139 2135 2131 2128 2125 2120 2104 2072 2037 1998 1975 1956 1941 1933 1923 1915 1911 1914 1917 1916 1912 1908 1903 1898 1892
 417 419 418 416 416 416 417 416 416 417 420 421 421 421 422 421 421 422 423 425 425 425 425 428 431 432 430 429 427 429 434 435 434 433 432 432 430 431 432 434 436 435 436 438 440 441 441 442 442 444 448 450 458 466 472 482 491 497 498 495 489 490 496 501 504 505 507 510 514 516 519 525 537 558 568 578 589 601 610 620 630 644 662 682 706 728 740 749 756 768 781 806 840 866 897 921 934 947 960 972 987 998 1006 1015 1031 1046 1060 1067 1068 1067 1069 1073 1091 1123 1144 1174 1193 1209 1231 1253 1266 1280 1299 1311 1336 1354 1369 1384 1410 1425 1439 1456 1470 1484 1505 1522 1543 1560 1580 1603 1624 1638 1645 1641 1627 1605 1595 1588 1580 1572 1566 1561 1565 1574 1586 1597 1604 1608 1610 1607 1608 1619 1630 1641 1661 1673 1692 1704 1711 1711 1705 1700 1695 1689 1684 1678 1672 1666 1661 1652 1642 1629 1618 1602 1581 1561 1547 1529 1514 1503 1477 1455 1438 1430 1423 1417 1409 1405 1403 1401 1399 1400 1407 1400 1396 1388 1383 1384 1375 1363 1355 1348 1343 1341 1332 1326 1320 1314 1303 1289 1287 1282 1279 1272 1262 1253 1236 1224 1215 1204 1184 1167 1152 1147 1153 1159 1161 1160 1158 1154 1147 1136 1122 1111 1099 1089 1084 1080 1073 1072 1077 1087 1095 1106 1114 1120 1130 1145 1156 1168 1180 1190 1198 1213 1217 1223 1233 1243 1251 1265 1278 1290 1314 1346 1377 1397 1409 1427 1443 1457 1480 1503 1524 1549 1573 1583 1587 1588 1593 1607 1627 1643 1658 1674 1680 1675 1663 1650 1631 1610 1591 1575 1565 1558 1550 1541 1529 1518 1509 1495 1484 1478 1471 1457 1444 1437 1437 1435 1424 1414 1407 1403 1396 1391 1393 1388 1375 1369 1364 1363 1362 1349 1326 1306 1287 1269 1256 1238 1229 1233 1243 1253 1260 1272 1278 1272 1261 1264 1270 1276 1280 1282 1275 1270 1274 1280 1282 1283 1280 1274 1271 1269 1270 1271 1272 1272 1274 1271 1267 1266 1262 1263 1263 1261 1262 1264 1266 1271 1270 1262 1252 1249 1248 1249 1251 1252 1251 1251 1248 1245 1244 1242 1242 1245 1245 1238 1235 1237 1240 1239 1235 1231 1231 1232 1227 1225 1222 1217 1215 1214 1213 1214 1217 1218 1215 1214 1212 1213 1216 1216 1214 1212 1211 1211 1211 1207 1199 1194 1199 1202 1213 1221 1223 1214 1206 1204 1193 1189 1192 1197 1204 1213 1227 1237 1238 1242 1258 1271 1283 1293 1299 1307 1322 1334 1346 1357 1365 1374 1379 1387 1395 1401 1407 1417 1426 1432 1437 1436 1427 1423 1422 1420 1417 1417 1416 1415 1415 1414 1412 1407 1404 1401 1391 1381 1372 1369 1373 1383 1389 1395 1404 1411 1418 1422 1423 1422 1418 1415 1410 1402 1393 1385 1379 1376 1375 1371 1368 1364 1358 1359 1370 1385 1404 1413 1420 1426 1429 1429 1425 1422 1420 1418 1414 1409 1406 1405 1402 1397 1396 1393 1389 1386 1382 1376 1370 1361 1355 1357 1367 1371 1370 1371 1374 1382 1392 1402 1406 1408 1410 1414 1425 1431 1435 1439 1448 1460 1466 1466 1469 1478 1486 1493 1500 1506 1510 1514 1516 1515 1511 1506 1501 1501 1507 1512 1513 1523 1534 1537 1543 1546 1549 1551 1554 1556 1557 1556 1557 1560 1562 1565 1570 1571 1573 1575 1574 1566 1555 1540 1526 1520 1517 1510 1499 1487 1480 1476 1467 1465 1463 1455 1453 1454 1451 1448 1450 1448 1446 1450 1447 1445 1439 1434 1428 1415 1401 1390 1380 1373 1366 1357 1346 1331 1320 1312 1299 1288 1288 1291 1297 1304 1299 1286 1274 1255 1250 1253 1263 1275 1279 1284 1291 1299 1316 1340 1355 1367 1378 1388 1408 1419 1425 1433 1439 1445 1452 1462 1469 1480 1498 1511 1513 1513 1511 1501 1495 1500 1507 1531 1556 1575 1586 1592 1594 1593 1592 1593 1603 1621 1634 1641 1643 1649 1654 1656 1660 1665 1666 1668 1671 1676 1678 1678 1679 1682 1682 1681 1680 1684 1691 1697 1698 1697 1694 1691 1691 1691 1691 1691 1685 1678 1673 1671 1670 1664 1659 1655 1651 1647 1642 1641 1645 1652 1657 1660 1666 1668 1666 1664 1666 1670 1677 1687 1692 1689 1688 1690 1693 1695 1697 1697 1698 1703 1714 1722 1732 1741 1744 1743 1743 1744 1746 1753 1765 1783 1799 1816 1825 1825 1828 1828 1811 1783 1747 1732 1727 1729 1731 1729 1730 1728 1727 1728 1731 1734 1741 1748 1751 1751 1755 1760 1764 1769 1771 1772 1772 1769 1768 1768 1768 1769 1772 1772 1773 1773 1775 1775 1775 1776 1772 1766 1757 1750 1744 1735 1727 1732 1737 1736 1739 1738 1738 1737 1736 1733 1729 1731 1736 1740 1741 1739 1739 1741 1742 1739 1739 1740 1741 1742 1747 1746 1744 1742 1738 1736 1734 1731 1731 1728 1723 1723 1724 1728 1732 1737 1740 1742 1743 1746 1743 1741 1743 1747 1756 1764 1765 1768 1768 1765 1766 1775 1796 1811 1808 1794 1772 1757 1752 1751 1754 1758 1761 1765 1768 1768 1768 1770 1774 1775 1775 1774 1775 1777 1786 1793 1796 1797 1798 1801 1805 1823 1840 1854 1860 1858 1846 1825 1805 1789 1783 1780 1779 1783 1786 1789 1793 1798 1804 1809 1817 1827 1830 1833 1837 1838 1839 1841 1843 1843 1842 1841 1840 1837 1828 1824 1824 1830 1840 1854 1871 1892 1934 1964 1979 1989 2005 2029 2046 2058 2063 2061 2055 2038 2011 1989 1973 1946 1904 1884 1871 1861 1852 1841 1834 1831 1829 1827 1825 1818 1810 1809 1810 1817 1828 1857 1902 1930 1990 2025 2029 2023 2039 2060 2098 2124 2136 2141 2149 2154 2156 2157 2158 2156 2155 2154 2152 2151 2151 2149 2146 2142 2137 2133 2129 2121 2100 2064 2021 1987 1972 1957 1944 1936 1928 1921 1917 1918 1919 1916 1912 1908 1903 1897 1890
 418 422 422 420 420 418 416 414 417 419 420 420 421 422 423 421 423 424 424 424 425 425 425 425 428 430 430 431 440 446 444 440 434 432 431 430 429 431 435 439 440 438 438 439 438 439 440 443 445 446 449 452 460 466 470 476 480 482 484 482 481 486 498 501 502 502 500 499 501 509 515 519 529 559 578 588 598 610 618 630 646 659 669 680 696 715 727 741 756 770 790 820 857 886 908 927 941 957 972 984 997 1014 1024 1035 1046 1059 1079 1092 1098 1103 1109 1109 1114 1129 1146 1173 1193 1213 1227 1243 1259 1275 1293 1310 1333 1352 1368 1386 1409 1424 1445 1461 1472 1491 1510 1523 1540 1558 1578 1602 1625 1636 1638 1630 1616 1598 1586 1578 1567 1560 1557 1557 1563 1572 1581 1590 1595 1594 1593 1594 1606 1622 1631 1647 1669 1683 1695 1697 1693 1687 1681 1676 1670 1666 1661 1654 1648 1644 1637 1628 1618 1607 1595 1586 1571 1555 1537 1519 1507 1497 1474 1450 1434 1421 1410 1401 1391 1388 1390 1388 1385 1384 1385 1380 1377 1377 1378 1375 1361 1351 1347 1344 1333 1323 1313 1311 1310 1300 1284 1268 1256 1253 1252 1245 1237 1225 1210 1200 1191 1178 1163 1148 1136 1128 1127 1136 1142 1143 1143 1139 1134 1122 1104 1089 1078 1074 1074 1073 1070 1071 1078 1085 1094 1104 1111 1118 1136 1156 1166 1181 1191 1198 1212 1222 1225 1231 1242 1249 1261 1277 1289 1305 1333 1358 1382 1406 1422 1438 1456 1478 1504 1526 1543 1561 1581 1586 1595 1613 1624 1630 1635 1643 1653 1658 1651 1633 1611 1593 1576 1567 1560 1551 1546 1541 1532 1519 1507 1497 1485 1476 1467 1459 1450 1439 1428 1419 1411 1402 1398 1397 1389 1380 1371 1364 1364 1361 1356 1349 1340 1334 1329 1315 1295 1284 1272 1263 1252 1233 1214 1215 1224 1234 1243 1258 1258 1254 1246 1248 1250 1254 1259 1260 1263 1267 1275 1279 1275 1271 1269 1266 1264 1263 1264 1267 1268 1267 1261 1254 1253 1253 1249 1246 1244 1249 1251 1253 1256 1260 1258 1251 1243 1239 1235 1235 1236 1239 1239 1237 1235 1235 1232 1232 1231 1233 1236 1231 1226 1224 1226 1227 1224 1222 1222 1221 1217 1213 1208 1207 1208 1210 1212 1213 1214 1214 1212 1208 1207 1208 1210 1211 1209 1208 1205 1204 1203 1197 1191 1188 1192 1196 1201 1206 1207 1203 1200 1200 1193 1190 1202 1215 1227 1236 1244 1246 1246 1259 1275 1283 1293 1304 1313 1325 1335 1342 1361 1375 1380 1384 1387 1390 1394 1400 1408 1418 1425 1428 1430 1424 1419 1417 1414 1414 1410 1406 1404 1406 1408 1408 1405 1401 1397 1391 1375 1365 1356 1356 1363 1369 1372 1377 1385 1388 1393 1399 1399 1400 1401 1399 1391 1383 1375 1370 1365 1357 1353 1349 1347 1347 1354 1363 1372 1389 1409 1414 1418 1421 1422 1419 1413 1408 1406 1405 1402 1401 1400 1400 1398 1393 1392 1390 1387 1382 1373 1365 1359 1351 1347 1348 1352 1355 1359 1362 1363 1367 1377 1386 1388 1391 1393 1395 1402 1412 1418 1427 1438 1452 1461 1463 1466 1471 1479 1483 1489 1496 1501 1505 1502 1499 1496 1491 1487 1488 1492 1502 1511 1517 1521 1524 1534 1538 1537 1539 1540 1546 1552 1552 1553 1557 1561 1567 1571 1576 1581 1583 1583 1577 1567 1554 1535 1525 1520 1513 1505 1497 1487 1483 1480 1478 1473 1469 1474 1470 1462 1464 1468 1466 1468 1467 1459 1452 1445 1436 1426 1408 1397 1393 1389 1382 1371 1357 1342 1322 1310 1305 1302 1299 1299 1296 1294 1297 1290 1276 1264 1255 1254 1260 1270 1276 1281 1289 1299 1307 1328 1349 1362 1377 1391 1407 1425 1443 1452 1455 1461 1469 1478 1491 1499 1508 1527 1532 1532 1532 1528 1525 1526 1523 1527 1550 1569 1584 1595 1599 1602 1608 1613 1616 1624 1632 1640 1649 1655 1658 1655 1658 1663 1667 1668 1670 1674 1680 1681 1681 1683 1686 1684 1683 1683 1686 1692 1696 1696 1696 1693 1692 1691 1690 1691 1694 1693 1683 1672 1670 1668 1661 1654 1652 1651 1651 1649 1648 1650 1655 1661 1667 1670 1671 1668 1666 1670 1676 1686 1695 1699 1699 1697 1697 1699 1703 1705 1705 1706 1709 1717 1723 1732 1736 1737 1733 1733 1738 1747 1759 1771 1792 1813 1829 1830 1833 1837 1841 1833 1807 1761 1745 1742 1743 1743 1742 1740 1740 1737 1734 1734 1737 1745 1751 1758 1760 1764 1771 1776 1781 1784 1784 1783 1780 1779 1778 1777 1778 1780 1782 1783 1782 1783 1785 1788 1789 1786 1777 1766 1757 1749 1742 1738 1743 1745 1745 1746 1749 1748 1744 1745 1747 1745 1741 1743 1746 1748 1748 1748 1748 1749 1750 1752 1753 1756 1757 1756 1756 1752 1751 1752 1754 1753 1750 1746 1744 1740 1736 1735 1736 1739 1744 1746 1750 1754 1757 1756 1755 1757 1760 1766 1775 1777 1779 1778 1777 1780 1790 1808 1826 1822 1810 1792 1776 1769 1764 1763 1764 1766 1769 1771 1772 1773 1775 1780 1781 1778 1776 1779 1789 1798 1804 1807 1810 1812 1816 1820 1833 1850 1869 1882 1884 1874 1851 1829 1810 1801 1796 1791 1790 1792 1799 1804 1808 1813 1816 1822 1833 1839 1843 1844 1846 1849 1849 1850 1849 1850 1852 1851 1847 1839 1832 1829 1836 1848 1865 1878 1902 1934 1980 1992 2005 2039 2062 2073 2078 2084 2082 2071 2055 2030 2009 1992 1973 1938 1908 1887 1869 1858 1845 1837 1836 1835 1831 1826 1819 1814 1812 1814 1820 1828 1845 1877 1927 2000 2034 2041 2048 2060 2084 2113 2134 2146 2153 2160 2162 2164 2165 2165 2164 2163 2161 2160 2158 2157 2155 2151 2146 2141 2136 2131 2118 2083 2040 2004 1987 1973 1959 1949 1941 1933 1928 1925 1922 1920 1917 1912 1907 1902 1897 1892
 419 420 422 423 421 419 419 419 420 422 421 422 423 423 423 423 424 425 425 426 425 424 425 425 427 430 429 429 437 444 445 439 432 430 429 427 429 433 440 447 444 437 437 439 438 439 439 442 445 448 451 454 458 464 467 471 469 470 473 476 478 480 486 493 495 493 494 495 497 503 512 518 526 544 571 586 598 611 623 638 650 658 666 675 688 707 727 739 755 776 803 843 878 896 912 933 952 966 984 997 1014 1028 1033 1043 1055 1076 1099 1111 1120 1131 1139 1149 1159 1159 1163 1184 1200 1214 1230 1248 1265 1282 1299 1316 1337 1356 1372 1386 1409 1423 1441 1457 1475 1492 1508 1522 1542 1570 1588 1614 1636 1640 1632 1613 1598 1586 1575 1566 1559 1555 1553 1556 1563 1570 1576 1577 1576 1573 1580 1592 1608 1622 1638 1657 1672 1678 1674 1670 1667 1663 1657 1652 1648 1644 1637 1631 1625 1620 1612 1607 1599 1586 1577 1569 1557 1543 1529 1514 1499 1487 1468 1452 1437 1416 1404 1393 1382 1373 1367 1366 1365 1361 1363 1369 1371 1369 1365 1359 1350 1343 1336 1327 1320 1312 1295 1285 1281 1279 1272 1258 1240 1229 1231 1229 1214 1200 1190 1181 1166 1151 1141 1133 1126 1117 1113 1118 1116 1115 1116 1111 1107 1098 1083 1073 1067 1060 1062 1068 1071 1072 1076 1082 1088 1098 1110 1121 1144 1158 1167 1182 1196 1207 1222 1229 1236 1242 1249 1257 1273 1295 1313 1332 1350 1373 1391 1411 1426 1448 1473 1495 1523 1543 1554 1564 1572 1578 1584 1598 1606 1600 1594 1595 1598 1593 1578 1556 1547 1544 1542 1543 1542 1536 1530 1526 1519 1508 1497 1486 1473 1466 1457 1444 1437 1428 1420 1411 1397 1385 1376 1366 1358 1351 1342 1335 1333 1332 1330 1327 1311 1302 1293 1281 1276 1272 1261 1256 1248 1231 1209 1196 1197 1218 1232 1239 1244 1241 1234 1236 1239 1241 1241 1242 1247 1259 1263 1266 1265 1264 1263 1258 1256 1260 1265 1267 1266 1259 1249 1242 1238 1233 1231 1230 1234 1237 1239 1240 1242 1240 1237 1237 1234 1230 1225 1223 1227 1230 1229 1226 1224 1224 1223 1222 1222 1224 1223 1221 1222 1219 1213 1212 1214 1216 1212 1207 1206 1203 1202 1204 1208 1209 1211 1210 1208 1208 1206 1205 1205 1205 1204 1205 1207 1204 1202 1201 1196 1189 1186 1186 1187 1188 1192 1197 1197 1191 1187 1187 1189 1197 1212 1222 1235 1242 1246 1247 1251 1267 1280 1288 1296 1309 1320 1333 1345 1358 1376 1382 1383 1387 1388 1389 1393 1401 1408 1416 1420 1421 1421 1416 1413 1411 1408 1406 1403 1399 1398 1401 1399 1396 1394 1390 1387 1378 1361 1351 1342 1345 1353 1355 1354 1356 1362 1367 1367 1364 1365 1368 1371 1371 1369 1363 1357 1349 1340 1335 1336 1337 1339 1342 1352 1365 1373 1387 1404 1408 1409 1410 1409 1407 1401 1397 1395 1394 1394 1395 1395 1394 1393 1391 1390 1387 1382 1374 1365 1357 1348 1340 1340 1347 1362 1368 1373 1375 1373 1373 1380 1383 1386 1391 1395 1398 1397 1400 1408 1425 1437 1447 1454 1456 1458 1462 1466 1470 1474 1485 1490 1495 1492 1488 1482 1480 1480 1481 1484 1490 1497 1507 1515 1520 1522 1522 1523 1528 1532 1540 1549 1554 1556 1560 1565 1571 1579 1585 1587 1587 1589 1587 1578 1565 1548 1536 1527 1521 1514 1509 1507 1501 1494 1488 1484 1488 1496 1490 1484 1482 1479 1479 1482 1477 1472 1459 1449 1435 1420 1406 1395 1383 1375 1369 1357 1343 1330 1317 1310 1307 1310 1313 1309 1300 1293 1290 1282 1272 1263 1258 1264 1272 1275 1280 1287 1298 1311 1319 1335 1355 1375 1392 1404 1420 1437 1455 1464 1472 1482 1492 1507 1513 1520 1533 1547 1550 1548 1545 1541 1545 1548 1546 1549 1569 1582 1592 1600 1605 1610 1618 1624 1637 1646 1650 1651 1659 1667 1670 1666 1663 1664 1665 1667 1669 1675 1680 1686 1689 1689 1689 1687 1685 1685 1687 1690 1694 1697 1699 1697 1695 1694 1693 1694 1697 1697 1686 1672 1669 1666 1661 1653 1651 1652 1652 1652 1654 1659 1666 1670 1672 1674 1674 1672 1671 1677 1687 1694 1700 1703 1705 1706 1705 1707 1709 1711 1713 1714 1716 1719 1725 1732 1736 1735 1730 1732 1739 1752 1765 1779 1806 1832 1839 1841 1846 1851 1852 1846 1822 1781 1762 1755 1753 1754 1754 1752 1750 1749 1741 1739 1740 1746 1756 1764 1768 1773 1778 1782 1787 1789 1790 1788 1786 1784 1787 1787 1787 1788 1791 1793 1791 1793 1795 1794 1792 1790 1783 1775 1764 1756 1749 1747 1750 1751 1750 1754 1758 1759 1757 1754 1754 1755 1754 1749 1747 1751 1756 1757 1756 1756 1758 1761 1765 1767 1767 1765 1763 1761 1762 1765 1768 1769 1767 1764 1762 1761 1755 1746 1744 1745 1745 1748 1752 1755 1760 1764 1766 1767 1770 1775 1779 1783 1784 1783 1783 1793 1803 1817 1836 1831 1824 1816 1805 1797 1790 1782 1779 1776 1778 1778 1778 1779 1779 1782 1783 1783 1782 1787 1798 1806 1810 1811 1812 1817 1821 1831 1845 1862 1883 1898 1903 1898 1881 1860 1839 1826 1817 1808 1802 1800 1802 1807 1814 1824 1826 1830 1837 1842 1846 1850 1853 1856 1858 1860 1861 1861 1859 1855 1852 1849 1843 1837 1844 1857 1871 1888 1916 1950 1985 2001 2032 2060 2075 2084 2087 2097 2097 2084 2071 2046 2025 2006 1988 1969 1938 1897 1874 1862 1852 1845 1842 1838 1835 1831 1822 1817 1816 1821 1828 1839 1851 1876 1940 2014 2049 2063 2071 2087 2112 2134 2152 2160 2165 2169 2170 2170 2170 2171 2171 2169 2168 2166 2164 2161 2157 2153 2149 2143 2137 2132 2114 2068 2027 2001 1990 1978 1963 1953 1946 1937 1932 1930 1925 1921 1917 1912 1906 1902 1898 1896
 421 422 422 422 421 420 422 423 424 424 423 425 425 425 424 424 423 425 425 425 425 425 425 426 427 431 431 429 431 436 437 433 430 430 430 429 430 434 440 446 444 430 431 439 439 439 440 442 446 451 453 455 457 459 460 463 464 466 469 472 474 476 481 484 485 487 490 493 498 504 513 525 532 539 555 572 594 611 624 636 643 647 660 678 694 713 728 739 759 791 830 865 888 902 918 943 957 973 990 1000 1016 1033 1043 1053 1072 1093 1113 1132 1145 1156 1159 1170 1185 1198 1205 1204 1206 1222 1251 1269 1281 1297 1311 1325 1344 1364 1377 1396 1414 1430 1445 1462 1481 1498 1511 1527 1552 1580 1602 1628 1637 1633 1621 1602 1588 1578 1568 1560 1555 1554 1554 1556 1561 1566 1568 1563 1562 1568 1582 1595 1609 1629 1644 1658 1663 1658 1653 1650 1647 1643 1637 1634 1628 1622 1616 1612 1605 1600 1596 1587 1577 1567 1558 1550 1540 1530 1520 1508 1497 1486 1471 1453 1438 1417 1398 1386 1376 1363 1353 1350 1351 1347 1350 1351 1351 1347 1344 1339 1329 1320 1315 1310 1303 1292 1279 1269 1267 1269 1262 1248 1232 1220 1216 1210 1198 1187 1179 1168 1156 1143 1132 1123 1113 1105 1103 1101 1102 1104 1099 1095 1091 1080 1069 1061 1054 1051 1054 1062 1068 1070 1072 1080 1089 1098 1109 1123 1145 1162 1171 1187 1202 1212 1227 1236 1241 1247 1258 1273 1296 1321 1335 1352 1370 1392 1408 1421 1432 1454 1481 1501 1532 1545 1548 1544 1550 1561 1566 1556 1545 1540 1537 1541 1552 1551 1539 1525 1522 1521 1518 1519 1519 1519 1517 1512 1506 1501 1493 1482 1468 1460 1448 1439 1432 1426 1419 1409 1394 1381 1371 1358 1345 1336 1326 1319 1311 1306 1303 1302 1286 1276 1269 1264 1261 1254 1245 1243 1235 1222 1205 1190 1179 1196 1219 1228 1228 1225 1220 1224 1225 1223 1224 1229 1237 1246 1249 1256 1256 1258 1258 1255 1253 1256 1262 1261 1257 1249 1240 1229 1224 1220 1218 1218 1223 1227 1227 1230 1233 1231 1227 1226 1224 1220 1215 1215 1216 1219 1221 1220 1217 1219 1218 1215 1213 1212 1212 1214 1218 1218 1210 1205 1205 1208 1204 1196 1195 1195 1198 1201 1204 1206 1207 1205 1204 1202 1201 1200 1200 1199 1197 1197 1199 1199 1198 1194 1187 1184 1184 1188 1188 1186 1188 1193 1192 1188 1184 1180 1188 1206 1219 1229 1244 1251 1253 1254 1257 1270 1285 1293 1303 1317 1331 1345 1355 1370 1380 1381 1380 1383 1387 1390 1395 1401 1404 1412 1417 1418 1417 1412 1409 1406 1402 1400 1396 1391 1392 1394 1391 1387 1384 1382 1377 1364 1345 1333 1326 1327 1335 1339 1340 1341 1345 1347 1346 1344 1349 1351 1353 1352 1350 1347 1339 1333 1328 1327 1329 1334 1339 1344 1352 1364 1373 1383 1392 1396 1395 1397 1397 1392 1392 1393 1392 1390 1391 1391 1391 1391 1390 1389 1388 1383 1375 1368 1360 1350 1339 1333 1341 1358 1376 1388 1400 1404 1402 1399 1398 1401 1402 1410 1416 1417 1412 1405 1405 1412 1423 1433 1440 1446 1449 1454 1456 1458 1462 1469 1474 1477 1478 1475 1473 1475 1478 1484 1486 1489 1494 1500 1506 1513 1515 1519 1522 1529 1534 1539 1545 1553 1559 1564 1569 1575 1582 1588 1589 1591 1591 1587 1576 1564 1551 1543 1538 1535 1531 1528 1524 1516 1512 1509 1507 1512 1514 1501 1495 1494 1494 1493 1487 1482 1477 1462 1447 1436 1421 1406 1399 1383 1371 1364 1350 1335 1326 1319 1313 1313 1322 1322 1312 1298 1288 1282 1272 1268 1265 1264 1270 1276 1278 1283 1293 1306 1318 1326 1342 1362 1382 1397 1411 1429 1452 1472 1481 1490 1502 1513 1523 1530 1541 1553 1560 1561 1566 1562 1556 1560 1564 1566 1570 1585 1597 1603 1605 1613 1620 1624 1632 1643 1654 1661 1664 1668 1673 1676 1672 1666 1664 1666 1669 1671 1678 1683 1689 1692 1691 1689 1685 1684 1685 1688 1692 1694 1699 1701 1701 1698 1696 1697 1699 1700 1698 1691 1678 1672 1670 1663 1656 1656 1656 1657 1662 1668 1673 1675 1676 1677 1677 1675 1676 1678 1684 1693 1701 1705 1707 1710 1712 1711 1713 1714 1718 1720 1721 1723 1724 1727 1733 1736 1734 1731 1736 1745 1759 1773 1789 1821 1843 1851 1853 1856 1861 1865 1862 1845 1812 1784 1770 1766 1767 1767 1762 1758 1758 1754 1750 1749 1751 1763 1770 1778 1782 1787 1794 1795 1796 1794 1791 1789 1790 1794 1794 1793 1796 1800 1804 1803 1805 1806 1803 1800 1794 1786 1779 1768 1758 1754 1757 1761 1763 1762 1762 1763 1765 1764 1762 1764 1767 1767 1762 1754 1756 1763 1768 1767 1765 1768 1771 1771 1772 1773 1773 1772 1773 1778 1783 1784 1785 1784 1781 1776 1773 1768 1759 1752 1749 1746 1748 1751 1754 1759 1765 1769 1771 1775 1779 1782 1785 1785 1786 1786 1793 1807 1822 1838 1837 1831 1828 1826 1825 1820 1808 1799 1788 1785 1783 1782 1782 1782 1783 1784 1784 1786 1789 1798 1806 1809 1811 1815 1819 1826 1842 1858 1873 1892 1911 1921 1918 1904 1888 1867 1850 1838 1825 1814 1808 1807 1810 1818 1830 1839 1842 1844 1846 1849 1855 1863 1866 1867 1869 1869 1866 1862 1858 1857 1856 1850 1847 1851 1864 1880 1906 1937 1968 1992 2011 2040 2059 2073 2081 2090 2105 2107 2093 2078 2056 2036 2019 2001 1986 1959 1911 1880 1865 1857 1854 1849 1841 1835 1832 1825 1820 1820 1826 1832 1848 1859 1898 1963 2026 2055 2067 2080 2100 2124 2149 2165 2171 2174 2176 2177 2177 2176 2177 2176 2174 2172 2169 2167 2165 2160 2155 2151 2144 2137 2130 2109 2063 2027 2005 1994 1984 1970 1960 1953 1944 1936 1931 1926 1920 1916 1911 1906 1902 1899 1897
 423 423 423 424 422 421 423 424 423 423 423 426 429 429 427 427 426 427 426 424 425 426 425 426 428 433 432 429 430 431 429 429 429 429 431 432 433 435 438 445 445 430 432 441 442 441 442 446 449 451 452 453 455 455 456 457 459 460 463 471 473 474 477 478 479 482 486 492 508 523 529 535 538 540 548 564 581 600 615 625 635 644 663 681 695 712 727 744 783 824 852 877 896 911 932 950 965 979 986 995 1007 1037 1062 1079 1094 1109 1132 1153 1165 1178 1190 1201 1214 1227 1234 1234 1233 1245 1266 1281 1295 1312 1326 1341 1359 1378 1392 1408 1425 1439 1457 1476 1492 1510 1528 1546 1570 1603 1625 1635 1630 1620 1604 1590 1580 1569 1557 1553 1552 1551 1551 1552 1553 1554 1552 1554 1562 1572 1584 1599 1617 1639 1647 1650 1642 1635 1631 1627 1623 1622 1617 1611 1606 1599 1593 1586 1582 1580 1571 1561 1552 1543 1534 1526 1518 1509 1500 1490 1482 1475 1458 1443 1435 1418 1395 1383 1372 1358 1348 1340 1332 1327 1328 1331 1328 1325 1322 1314 1308 1304 1299 1292 1278 1266 1257 1256 1257 1255 1242 1236 1225 1213 1205 1195 1176 1164 1157 1151 1142 1133 1121 1110 1101 1096 1094 1093 1094 1091 1085 1080 1072 1057 1051 1048 1044 1047 1049 1056 1062 1066 1071 1081 1093 1103 1110 1121 1141 1166 1180 1194 1206 1216 1230 1241 1246 1259 1283 1306 1327 1341 1355 1374 1388 1402 1421 1443 1458 1475 1492 1504 1517 1517 1509 1502 1512 1515 1513 1501 1497 1498 1504 1510 1520 1508 1502 1502 1502 1500 1502 1503 1502 1502 1503 1503 1500 1497 1491 1484 1473 1466 1461 1458 1452 1446 1436 1429 1422 1413 1401 1383 1366 1351 1335 1321 1307 1292 1278 1267 1256 1247 1243 1248 1248 1240 1232 1225 1221 1215 1203 1188 1166 1165 1189 1212 1217 1213 1208 1207 1209 1212 1213 1217 1224 1233 1238 1240 1242 1244 1244 1241 1240 1243 1243 1243 1242 1231 1220 1213 1209 1207 1207 1210 1213 1216 1218 1218 1221 1222 1219 1215 1211 1209 1205 1205 1205 1206 1208 1209 1207 1205 1205 1201 1201 1203 1199 1198 1202 1207 1205 1197 1193 1195 1193 1186 1186 1186 1187 1191 1196 1196 1197 1196 1195 1191 1191 1191 1193 1194 1192 1189 1191 1191 1188 1183 1181 1182 1187 1190 1186 1184 1185 1187 1187 1188 1180 1178 1199 1216 1224 1237 1251 1256 1259 1263 1272 1285 1296 1305 1314 1328 1343 1354 1367 1372 1376 1378 1377 1379 1383 1388 1393 1397 1400 1404 1410 1410 1409 1406 1400 1395 1393 1391 1386 1384 1383 1383 1379 1376 1373 1368 1361 1349 1329 1317 1310 1312 1316 1321 1322 1323 1325 1325 1322 1326 1330 1334 1338 1339 1337 1325 1319 1319 1322 1328 1333 1341 1352 1360 1359 1359 1363 1370 1374 1377 1380 1380 1381 1379 1381 1385 1388 1390 1392 1393 1393 1391 1386 1381 1377 1373 1366 1358 1347 1337 1328 1328 1342 1360 1375 1399 1407 1415 1421 1424 1422 1421 1423 1426 1428 1430 1429 1426 1418 1413 1414 1420 1424 1425 1430 1439 1444 1449 1452 1454 1453 1452 1457 1460 1464 1471 1480 1488 1494 1494 1494 1498 1501 1505 1510 1515 1519 1526 1538 1546 1554 1557 1561 1566 1572 1577 1586 1592 1593 1591 1587 1582 1573 1565 1560 1559 1559 1549 1538 1533 1530 1529 1528 1526 1527 1527 1525 1517 1510 1507 1504 1499 1492 1486 1479 1461 1448 1436 1423 1408 1398 1391 1378 1366 1354 1339 1333 1326 1324 1323 1325 1318 1308 1297 1284 1274 1267 1267 1269 1273 1279 1281 1281 1287 1300 1312 1324 1337 1351 1365 1379 1401 1421 1446 1474 1493 1503 1509 1521 1532 1541 1550 1565 1574 1578 1579 1581 1578 1573 1574 1576 1578 1584 1601 1611 1619 1621 1623 1630 1635 1638 1648 1661 1674 1679 1674 1673 1673 1671 1666 1665 1669 1671 1678 1683 1686 1691 1694 1694 1691 1686 1685 1687 1688 1691 1695 1702 1704 1705 1703 1702 1702 1703 1703 1699 1690 1679 1674 1672 1668 1663 1663 1666 1670 1678 1684 1688 1689 1686 1685 1684 1681 1682 1684 1689 1700 1706 1710 1711 1716 1718 1718 1719 1721 1726 1727 1727 1728 1730 1732 1735 1735 1733 1733 1741 1750 1766 1789 1810 1834 1852 1863 1873 1876 1881 1888 1885 1874 1854 1821 1792 1780 1779 1782 1780 1771 1763 1760 1759 1760 1766 1778 1787 1793 1798 1805 1808 1813 1813 1808 1801 1799 1802 1804 1805 1806 1807 1811 1813 1814 1814 1814 1811 1808 1804 1795 1787 1775 1763 1761 1768 1771 1770 1771 1771 1772 1772 1773 1774 1778 1779 1779 1775 1771 1770 1775 1778 1780 1779 1778 1779 1781 1782 1785 1787 1787 1790 1797 1801 1805 1813 1817 1813 1803 1792 1784 1775 1766 1760 1755 1752 1753 1755 1761 1764 1768 1772 1777 1782 1785 1787 1787 1788 1789 1795 1810 1820 1835 1837 1836 1837 1844 1850 1850 1841 1827 1809 1800 1795 1791 1788 1787 1788 1789 1787 1787 1790 1795 1801 1805 1811 1817 1824 1835 1853 1869 1884 1904 1926 1940 1943 1935 1923 1904 1883 1865 1846 1831 1823 1818 1818 1822 1833 1845 1853 1855 1855 1857 1861 1867 1870 1872 1874 1874 1869 1864 1859 1857 1855 1851 1851 1858 1870 1896 1935 1959 1982 2005 2019 2039 2057 2072 2080 2094 2108 2118 2113 2096 2081 2065 2043 2019 2000 1980 1940 1895 1874 1866 1864 1858 1849 1840 1833 1828 1824 1826 1829 1844 1859 1873 1921 1987 2029 2052 2067 2088 2109 2131 2157 2174 2181 2182 2182 2183 2183 2183 2183 2182 2180 2178 2174 2171 2167 2162 2155 2152 2146 2137 2125 2095 2050 2027 2009 1996 1988 1978 1967 1962 1954 1943 1937 1931 1923 1917 1911 1907 1903 1900 1898
 425 426 425 425 424 420 420 422 423 424 424 426 427 428 427 426 427 427 427 425 425 427 426 427 428 432 432 430 431 431 429 428 429 428 428 431 432 432 440 453 456 442 440 441 440 440 442 446 447 448 450 451 452 455 456 457 459 460 458 460 463 468 472 475 476 480 488 497 515 531 533 533 536 542 551 562 574 587 599 613 626 645 662 676 689 710 731 761 807 836 856 881 900 918 935 954 969 975 987 997 1009 1029 1063 1085 1103 1122 1141 1164 1182 1199 1214 1227 1239 1248 1256 1261 1262 1273 1283 1295 1307 1325 1340 1352 1368 1386 1397 1414 1435 1446 1465 1483 1499 1524 1547 1570 1595 1621 1626 1623 1611 1601 1587 1576 1565 1556 1548 1546 1548 1547 1545 1547 1545 1539 1541 1555 1564 1577 1593 1612 1628 1637 1638 1629 1620 1616 1610 1604 1602 1601 1593 1588 1584 1578 1571 1565 1563 1556 1547 1539 1530 1522 1512 1506 1500 1490 1480 1468 1456 1449 1436 1429 1423 1409 1395 1383 1370 1352 1336 1319 1308 1303 1302 1300 1302 1299 1295 1289 1275 1266 1263 1258 1250 1243 1240 1245 1251 1240 1224 1217 1208 1198 1189 1176 1160 1150 1144 1131 1120 1106 1097 1092 1088 1084 1083 1081 1079 1073 1065 1061 1051 1045 1044 1042 1039 1046 1048 1053 1060 1064 1074 1085 1095 1108 1114 1126 1140 1162 1176 1191 1210 1218 1225 1240 1250 1276 1303 1322 1337 1350 1363 1375 1388 1402 1425 1452 1466 1478 1490 1490 1486 1479 1477 1471 1466 1463 1460 1461 1465 1470 1474 1477 1478 1478 1481 1482 1482 1481 1480 1479 1484 1492 1498 1501 1502 1502 1499 1493 1486 1485 1485 1483 1482 1475 1463 1454 1443 1430 1421 1406 1395 1385 1363 1345 1329 1308 1275 1262 1248 1237 1227 1223 1222 1222 1217 1208 1203 1196 1194 1191 1170 1152 1156 1182 1191 1193 1195 1197 1200 1202 1204 1203 1205 1215 1227 1232 1237 1238 1236 1228 1226 1224 1223 1219 1216 1209 1203 1199 1199 1197 1197 1200 1202 1207 1211 1209 1208 1208 1207 1203 1197 1196 1196 1196 1196 1198 1199 1198 1195 1194 1195 1193 1191 1190 1188 1190 1191 1190 1188 1186 1183 1183 1183 1182 1180 1180 1180 1182 1187 1189 1187 1186 1186 1185 1186 1186 1183 1183 1184 1185 1185 1183 1179 1178 1179 1182 1187 1188 1185 1184 1183 1182 1181 1180 1179 1187 1209 1219 1230 1242 1255 1261 1266 1279 1290 1299 1310 1315 1322 1342 1352 1360 1366 1367 1369 1371 1374 1378 1380 1382 1387 1390 1394 1398 1403 1405 1403 1399 1393 1388 1387 1387 1384 1379 1375 1372 1372 1370 1364 1357 1350 1337 1315 1301 1296 1295 1298 1303 1306 1307 1310 1303 1301 1303 1309 1313 1316 1318 1316 1313 1315 1319 1327 1336 1347 1365 1375 1376 1375 1369 1365 1366 1369 1371 1373 1377 1378 1379 1383 1387 1389 1394 1395 1394 1390 1384 1377 1372 1369 1363 1353 1344 1335 1326 1322 1330 1348 1361 1373 1393 1402 1415 1423 1425 1428 1434 1439 1438 1436 1434 1434 1439 1441 1435 1427 1427 1429 1429 1431 1433 1435 1436 1439 1439 1443 1445 1449 1455 1464 1469 1473 1480 1488 1495 1494 1496 1501 1504 1508 1512 1519 1526 1534 1546 1561 1565 1568 1573 1578 1587 1593 1591 1591 1589 1587 1585 1584 1580 1580 1576 1572 1564 1551 1544 1541 1537 1534 1529 1528 1528 1524 1521 1518 1513 1508 1501 1494 1489 1482 1469 1455 1443 1427 1416 1403 1394 1383 1370 1360 1350 1350 1346 1347 1341 1332 1313 1303 1291 1281 1276 1272 1274 1278 1282 1285 1288 1291 1297 1307 1320 1335 1353 1374 1382 1393 1415 1445 1470 1494 1516 1525 1532 1543 1553 1562 1572 1583 1590 1594 1595 1593 1591 1590 1584 1584 1588 1597 1612 1624 1633 1639 1639 1640 1642 1647 1657 1668 1679 1682 1679 1676 1671 1667 1665 1665 1670 1677 1684 1688 1692 1696 1698 1696 1692 1688 1687 1688 1691 1694 1700 1706 1708 1709 1706 1705 1707 1709 1706 1698 1685 1676 1673 1670 1669 1668 1672 1677 1682 1687 1694 1699 1700 1697 1695 1693 1691 1688 1689 1693 1704 1711 1717 1721 1723 1724 1725 1727 1729 1731 1732 1733 1735 1735 1735 1735 1737 1737 1740 1750 1758 1782 1813 1832 1849 1862 1875 1888 1889 1890 1897 1901 1895 1882 1855 1819 1797 1791 1793 1792 1785 1773 1768 1769 1771 1781 1794 1801 1805 1809 1813 1819 1824 1824 1818 1813 1813 1814 1816 1818 1821 1821 1822 1822 1824 1823 1822 1817 1811 1807 1802 1796 1782 1771 1772 1775 1774 1775 1777 1779 1781 1783 1784 1785 1788 1790 1788 1787 1786 1786 1786 1787 1790 1790 1787 1787 1789 1793 1796 1801 1805 1807 1812 1819 1829 1838 1840 1841 1835 1823 1813 1799 1783 1773 1766 1759 1758 1762 1767 1770 1776 1781 1785 1788 1791 1792 1794 1797 1800 1803 1809 1816 1826 1833 1835 1843 1856 1866 1872 1869 1859 1836 1820 1811 1803 1800 1798 1797 1795 1793 1792 1792 1793 1796 1799 1806 1815 1826 1840 1859 1879 1897 1919 1938 1952 1965 1963 1954 1939 1919 1901 1879 1862 1850 1838 1831 1830 1836 1845 1853 1860 1862 1866 1868 1870 1872 1874 1877 1877 1874 1867 1859 1853 1851 1853 1858 1866 1885 1915 1954 1969 1991 2015 2028 2046 2060 2073 2087 2102 2115 2130 2133 2122 2106 2090 2068 2035 2017 2002 1975 1926 1891 1877 1874 1868 1859 1849 1840 1832 1831 1833 1838 1857 1870 1900 1954 2005 2033 2052 2065 2087 2107 2130 2163 2183 2187 2186 2187 2188 2188 2187 2187 2186 2184 2183 2178 2175 2170 2163 2157 2152 2146 2132 2108 2070 2036 2021 2009 1996 1991 1987 1980 1972 1966 1955 1946 1938 1929 1921 1913 1908 1904 1901 1900
 425 425 425 424 423 421 419 421 423 425 426 427 428 428 427 426 427 428 428 426 425 426 428 427 428 431 432 431 431 431 430 427 426 426 426 427 423 422 435 444 450 447 443 439 439 439 442 445 443 444 448 449 451 454 456 457 459 462 463 451 450 455 464 472 476 490 502 504 508 517 523 526 533 545 559 570 579 592 604 617 630 645 662 677 693 723 750 781 812 834 853 877 902 919 936 957 968 973 995 1010 1018 1031 1061 1086 1106 1124 1144 1169 1188 1205 1222 1235 1249 1264 1273 1283 1290 1294 1298 1311 1324 1339 1351 1359 1373 1390 1404 1423 1439 1450 1471 1489 1510 1540 1567 1591 1613 1619 1615 1602 1591 1580 1568 1558 1553 1549 1543 1540 1540 1542 1541 1539 1534 1533 1539 1553 1566 1583 1600 1615 1624 1625 1620 1612 1604 1599 1593 1586 1584 1581 1575 1571 1562 1556 1553 1549 1544 1537 1530 1523 1515 1506 1498 1492 1485 1474 1464 1454 1446 1439 1426 1413 1404 1395 1387 1377 1366 1346 1328 1305 1293 1287 1281 1278 1276 1270 1265 1262 1250 1245 1243 1244 1236 1231 1235 1237 1234 1215 1204 1195 1183 1170 1161 1159 1154 1143 1129 1115 1103 1093 1086 1083 1079 1076 1074 1068 1063 1058 1052 1046 1042 1038 1039 1041 1042 1047 1048 1050 1057 1064 1075 1086 1096 1110 1118 1128 1142 1162 1180 1192 1213 1221 1225 1239 1253 1280 1303 1315 1330 1345 1353 1365 1381 1403 1430 1447 1455 1467 1470 1465 1463 1456 1452 1450 1446 1439 1435 1435 1442 1449 1457 1460 1458 1458 1462 1468 1468 1470 1473 1476 1482 1492 1500 1505 1507 1510 1513 1507 1500 1499 1495 1493 1489 1482 1471 1458 1446 1432 1422 1411 1402 1394 1377 1357 1338 1311 1283 1271 1260 1247 1235 1221 1211 1206 1201 1191 1185 1183 1184 1186 1176 1149 1143 1151 1166 1178 1185 1186 1187 1187 1191 1192 1198 1207 1218 1226 1227 1228 1225 1218 1216 1211 1206 1203 1199 1195 1191 1187 1188 1188 1189 1192 1194 1196 1197 1200 1202 1202 1201 1195 1191 1189 1187 1186 1187 1188 1188 1186 1185 1186 1187 1184 1184 1183 1182 1184 1184 1183 1181 1181 1182 1179 1183 1189 1185 1182 1180 1178 1179 1178 1178 1179 1180 1179 1179 1178 1176 1174 1175 1176 1176 1175 1176 1176 1177 1181 1186 1187 1183 1176 1171 1171 1173 1180 1190 1203 1215 1222 1237 1252 1263 1269 1276 1287 1298 1305 1313 1319 1336 1349 1354 1359 1362 1360 1362 1365 1367 1373 1376 1378 1380 1383 1385 1389 1391 1393 1394 1391 1385 1382 1384 1385 1379 1376 1372 1370 1369 1365 1356 1345 1338 1320 1301 1292 1287 1284 1285 1287 1289 1292 1291 1291 1292 1296 1301 1304 1307 1307 1309 1313 1319 1326 1340 1352 1367 1385 1390 1389 1387 1386 1384 1379 1381 1380 1382 1388 1387 1385 1387 1388 1388 1390 1392 1388 1379 1373 1368 1365 1361 1351 1341 1332 1324 1318 1321 1338 1352 1360 1372 1389 1407 1415 1424 1424 1428 1436 1445 1445 1441 1440 1442 1446 1447 1447 1445 1444 1446 1448 1447 1445 1444 1440 1437 1443 1450 1453 1458 1469 1480 1480 1481 1484 1493 1503 1507 1512 1514 1518 1523 1522 1525 1534 1538 1543 1555 1568 1577 1585 1588 1590 1590 1589 1590 1591 1591 1592 1594 1595 1591 1584 1578 1568 1559 1551 1544 1539 1535 1529 1525 1523 1520 1517 1515 1512 1506 1500 1492 1486 1480 1468 1454 1437 1423 1413 1404 1395 1380 1372 1364 1360 1357 1353 1352 1348 1337 1314 1301 1290 1281 1279 1278 1281 1285 1287 1289 1295 1306 1312 1318 1331 1349 1369 1384 1394 1411 1435 1465 1489 1506 1524 1538 1549 1562 1569 1578 1586 1594 1601 1603 1601 1602 1608 1605 1602 1602 1604 1612 1629 1637 1642 1651 1657 1657 1657 1660 1667 1676 1680 1680 1678 1675 1672 1670 1668 1668 1674 1681 1690 1695 1697 1700 1700 1698 1694 1690 1689 1691 1696 1701 1708 1710 1709 1710 1709 1708 1709 1712 1711 1701 1689 1680 1674 1671 1670 1673 1679 1683 1688 1695 1702 1707 1710 1709 1707 1703 1701 1695 1694 1698 1709 1719 1726 1731 1732 1732 1732 1734 1735 1735 1737 1738 1738 1739 1740 1740 1743 1748 1754 1763 1771 1796 1829 1848 1864 1876 1888 1892 1893 1896 1901 1906 1908 1903 1889 1851 1818 1806 1804 1802 1796 1782 1776 1777 1780 1788 1801 1806 1809 1813 1819 1830 1833 1833 1828 1824 1827 1828 1827 1826 1826 1827 1830 1829 1830 1831 1830 1827 1820 1811 1805 1799 1787 1780 1780 1780 1778 1779 1782 1786 1789 1793 1794 1793 1794 1797 1797 1797 1796 1797 1796 1794 1794 1796 1796 1797 1799 1802 1807 1815 1821 1825 1834 1840 1847 1851 1855 1856 1856 1843 1832 1826 1807 1788 1775 1765 1763 1767 1775 1781 1787 1791 1795 1797 1799 1800 1802 1803 1804 1806 1810 1816 1824 1831 1836 1847 1864 1882 1890 1895 1888 1860 1836 1826 1817 1812 1807 1800 1798 1797 1796 1795 1795 1795 1797 1803 1809 1823 1843 1865 1887 1907 1928 1945 1958 1973 1977 1973 1963 1948 1933 1912 1891 1874 1857 1845 1841 1842 1847 1853 1861 1868 1873 1878 1880 1881 1882 1882 1881 1878 1868 1860 1854 1854 1858 1866 1876 1898 1930 1962 1974 1998 2019 2037 2054 2068 2082 2099 2113 2125 2140 2148 2144 2129 2109 2084 2050 2030 2018 1997 1962 1922 1898 1883 1874 1864 1855 1846 1838 1838 1843 1850 1866 1887 1926 1978 2020 2043 2059 2071 2094 2117 2135 2162 2185 2191 2192 2194 2193 2193 2191 2191 2189 2187 2186 2183 2177 2173 2166 2159 2152 2144 2122 2091 2056 2034 2022 2009 1995 1991 1989 1986 1982 1975 1966 1955 1944 1935 1926 1916 1910 1906 1901 1899
 426 426 425 424 423 422 422 422 424 424 425 427 428 428 428 427 428 428 428 428 427 427 428 427 427 428 431 433 432 431 431 429 425 425 426 422 415 422 438 442 445 448 449 449 459 457 452 453 452 448 450 449 448 451 454 455 457 460 466 456 453 453 459 470 480 502 509 504 500 506 521 539 554 574 589 600 609 619 626 636 646 659 674 696 728 763 786 802 818 832 849 868 892 913 935 954 967 982 1002 1015 1027 1045 1065 1082 1103 1127 1149 1170 1186 1201 1213 1227 1248 1269 1281 1298 1309 1318 1321 1329 1338 1352 1366 1376 1389 1403 1416 1430 1449 1463 1481 1502 1527 1562 1594 1609 1614 1607 1594 1581 1569 1559 1551 1545 1544 1541 1535 1534 1530 1527 1526 1523 1521 1526 1541 1556 1571 1588 1601 1608 1609 1604 1599 1593 1589 1583 1577 1568 1563 1561 1555 1550 1543 1539 1534 1528 1521 1516 1509 1501 1496 1488 1480 1474 1466 1456 1448 1436 1425 1417 1401 1385 1381 1379 1369 1362 1353 1338 1327 1301 1279 1270 1262 1256 1249 1245 1242 1238 1231 1228 1228 1222 1218 1219 1218 1207 1192 1179 1172 1169 1164 1151 1146 1145 1138 1126 1110 1098 1090 1081 1078 1075 1071 1070 1067 1058 1053 1049 1044 1040 1036 1031 1032 1034 1039 1042 1044 1048 1054 1062 1075 1089 1100 1110 1123 1133 1147 1170 1188 1200 1220 1227 1233 1247 1261 1276 1290 1300 1313 1329 1338 1349 1369 1395 1419 1433 1437 1436 1432 1431 1433 1432 1429 1423 1413 1410 1413 1419 1424 1430 1435 1437 1439 1447 1459 1463 1467 1472 1477 1483 1489 1497 1505 1512 1519 1522 1520 1513 1506 1501 1495 1490 1486 1483 1474 1463 1446 1434 1423 1411 1402 1393 1383 1365 1346 1317 1298 1292 1286 1276 1264 1241 1220 1211 1200 1188 1180 1172 1168 1168 1165 1147 1136 1133 1144 1158 1169 1169 1170 1173 1175 1182 1192 1197 1200 1205 1211 1213 1209 1206 1202 1196 1194 1191 1188 1185 1180 1176 1177 1178 1180 1184 1184 1186 1187 1189 1190 1191 1189 1185 1181 1179 1178 1178 1180 1180 1180 1178 1179 1182 1182 1181 1179 1178 1174 1173 1174 1174 1172 1174 1181 1183 1187 1191 1188 1184 1177 1169 1168 1167 1169 1170 1167 1165 1166 1167 1167 1167 1168 1168 1169 1169 1170 1170 1168 1172 1177 1171 1163 1165 1170 1174 1183 1193 1201 1209 1219 1234 1247 1258 1266 1274 1284 1295 1299 1305 1317 1330 1343 1348 1349 1349 1350 1350 1354 1359 1360 1364 1369 1373 1374 1377 1379 1381 1382 1383 1383 1381 1378 1376 1375 1375 1372 1369 1367 1365 1362 1356 1346 1336 1326 1305 1289 1279 1273 1273 1279 1292 1295 1293 1294 1293 1296 1304 1308 1309 1310 1314 1317 1322 1330 1347 1371 1382 1389 1396 1402 1407 1406 1397 1396 1396 1395 1393 1393 1395 1395 1391 1388 1386 1380 1377 1377 1374 1371 1367 1361 1354 1342 1334 1326 1319 1315 1321 1337 1350 1356 1364 1378 1399 1411 1419 1428 1428 1431 1439 1447 1451 1450 1453 1454 1454 1455 1455 1453 1451 1453 1456 1458 1457 1452 1446 1443 1451 1458 1461 1470 1480 1487 1492 1498 1502 1504 1508 1516 1524 1528 1534 1541 1541 1538 1542 1546 1555 1559 1564 1576 1583 1587 1587 1587 1590 1593 1595 1598 1602 1604 1601 1593 1588 1581 1571 1562 1557 1549 1543 1537 1531 1527 1523 1518 1513 1510 1506 1499 1491 1482 1474 1468 1458 1442 1426 1412 1402 1395 1389 1377 1369 1363 1359 1355 1352 1350 1345 1334 1316 1302 1292 1287 1283 1282 1285 1289 1289 1292 1303 1318 1324 1329 1350 1370 1383 1398 1414 1429 1454 1484 1507 1519 1542 1560 1571 1579 1585 1591 1598 1603 1606 1608 1608 1611 1617 1618 1621 1626 1632 1638 1645 1648 1651 1659 1667 1673 1676 1678 1682 1683 1682 1679 1676 1675 1677 1678 1676 1675 1680 1685 1692 1697 1699 1701 1700 1698 1695 1692 1693 1698 1704 1709 1712 1713 1712 1712 1713 1714 1710 1710 1711 1704 1690 1685 1681 1677 1676 1679 1685 1690 1700 1709 1713 1720 1721 1719 1719 1718 1715 1708 1702 1705 1718 1729 1736 1739 1738 1738 1740 1742 1743 1742 1739 1739 1741 1743 1746 1753 1759 1762 1767 1776 1788 1815 1849 1867 1883 1896 1903 1904 1907 1913 1917 1920 1922 1921 1916 1895 1850 1828 1821 1814 1803 1790 1785 1785 1789 1800 1808 1813 1819 1823 1829 1838 1843 1843 1842 1842 1845 1844 1841 1838 1835 1835 1836 1836 1837 1841 1842 1838 1833 1821 1811 1803 1793 1788 1787 1786 1787 1788 1791 1796 1799 1804 1806 1806 1805 1809 1808 1809 1809 1808 1804 1802 1803 1805 1808 1808 1810 1814 1819 1828 1838 1848 1859 1860 1865 1867 1870 1873 1877 1874 1862 1850 1838 1818 1796 1779 1770 1770 1777 1783 1790 1797 1804 1807 1809 1808 1808 1810 1812 1816 1820 1824 1829 1835 1843 1855 1878 1901 1917 1922 1915 1890 1857 1844 1833 1823 1817 1809 1803 1801 1798 1798 1800 1802 1803 1805 1809 1824 1847 1870 1891 1912 1936 1953 1965 1978 1986 1987 1983 1973 1961 1942 1918 1897 1877 1864 1857 1852 1852 1856 1865 1878 1885 1886 1886 1887 1891 1890 1882 1875 1867 1863 1861 1863 1870 1881 1891 1910 1947 1968 1985 2007 2029 2047 2060 2078 2095 2111 2127 2139 2155 2162 2162 2152 2128 2109 2079 2053 2040 2023 2003 1970 1935 1899 1882 1871 1861 1852 1844 1846 1856 1864 1876 1895 1940 1997 2040 2062 2075 2085 2106 2127 2141 2165 2188 2196 2198 2198 2197 2196 2196 2196 2194 2193 2190 2187 2180 2173 2166 2160 2154 2140 2111 2079 2048 2034 2023 2010 1996 1989 1989 1988 1986 1982 1972 1961 1950 1940 1931 1921 1914 1909 1903 1900
 431 430 424 422 423 422 423 423 426 427 426 427 427 428 427 428 427 427 429 428 427 427 427 428 428 429 430 429 429 429 430 430 429 431 432 434 438 452 459 455 448 450 455 460 463 457 451 451 452 453 453 453 448 448 450 453 456 457 460 461 457 457 467 475 492 505 507 504 506 520 556 585 600 608 622 636 645 648 645 647 659 671 690 731 765 791 811 826 843 855 869 885 902 922 936 954 969 989 1005 1018 1029 1046 1062 1080 1106 1126 1146 1165 1178 1191 1203 1222 1244 1261 1278 1299 1314 1324 1333 1346 1357 1370 1386 1396 1404 1420 1434 1446 1462 1479 1497 1522 1550 1584 1600 1605 1599 1586 1576 1566 1554 1545 1539 1537 1534 1528 1525 1522 1518 1514 1515 1518 1520 1527 1546 1561 1574 1585 1593 1595 1592 1588 1582 1576 1571 1565 1556 1549 1543 1539 1537 1529 1524 1519 1516 1509 1501 1497 1490 1484 1478 1470 1463 1457 1452 1442 1428 1416 1411 1404 1391 1378 1369 1355 1347 1345 1336 1323 1309 1294 1272 1259 1244 1238 1237 1232 1227 1223 1215 1212 1209 1205 1205 1198 1186 1175 1165 1159 1157 1156 1148 1138 1130 1121 1114 1109 1101 1091 1083 1076 1071 1067 1063 1062 1059 1053 1050 1046 1037 1030 1026 1027 1027 1026 1031 1035 1038 1045 1056 1065 1079 1094 1104 1114 1130 1139 1157 1176 1190 1205 1219 1229 1232 1237 1251 1265 1280 1290 1299 1309 1319 1331 1349 1371 1388 1398 1407 1404 1400 1402 1401 1399 1395 1392 1390 1392 1399 1403 1409 1414 1420 1428 1435 1445 1457 1470 1483 1493 1498 1501 1505 1508 1511 1517 1518 1514 1508 1501 1495 1491 1484 1477 1478 1472 1461 1451 1439 1429 1421 1414 1408 1396 1372 1350 1339 1321 1306 1297 1293 1282 1272 1261 1245 1227 1212 1206 1196 1181 1163 1153 1148 1142 1132 1123 1127 1137 1144 1149 1151 1155 1163 1173 1181 1187 1191 1193 1196 1194 1189 1187 1187 1177 1181 1183 1180 1177 1171 1165 1166 1170 1173 1174 1174 1175 1178 1181 1183 1185 1182 1174 1173 1172 1169 1166 1168 1172 1175 1175 1177 1178 1177 1178 1177 1174 1169 1168 1169 1169 1167 1168 1175 1184 1185 1183 1175 1169 1167 1161 1160 1160 1162 1162 1159 1158 1157 1159 1161 1161 1161 1162 1162 1161 1163 1159 1160 1162 1160 1157 1163 1171 1173 1177 1186 1195 1201 1212 1227 1239 1252 1262 1268 1277 1285 1292 1299 1312 1325 1330 1336 1339 1339 1337 1341 1344 1348 1353 1355 1358 1364 1367 1369 1373 1375 1374 1373 1374 1374 1374 1374 1372 1371 1369 1365 1364 1360 1357 1354 1346 1336 1324 1306 1286 1274 1266 1264 1269 1284 1304 1308 1314 1321 1314 1314 1320 1323 1322 1323 1325 1329 1339 1360 1376 1390 1396 1397 1400 1401 1406 1412 1409 1406 1402 1401 1400 1399 1398 1397 1393 1387 1381 1376 1369 1366 1364 1358 1351 1341 1333 1327 1323 1315 1311 1314 1331 1343 1353 1366 1377 1391 1402 1408 1416 1425 1432 1444 1454 1459 1458 1459 1460 1463 1467 1469 1469 1468 1465 1464 1464 1463 1462 1459 1453 1450 1460 1465 1469 1477 1484 1492 1499 1506 1518 1525 1525 1525 1529 1539 1549 1551 1554 1556 1556 1558 1565 1567 1572 1579 1583 1587 1590 1592 1595 1599 1601 1605 1608 1606 1599 1592 1588 1583 1572 1565 1559 1549 1544 1541 1534 1529 1525 1520 1514 1509 1502 1491 1480 1471 1464 1458 1445 1432 1421 1408 1394 1386 1378 1368 1363 1357 1351 1347 1343 1342 1336 1324 1312 1305 1295 1291 1289 1283 1287 1294 1297 1301 1310 1323 1331 1339 1360 1380 1399 1417 1431 1443 1465 1496 1521 1541 1565 1578 1589 1597 1601 1606 1612 1613 1615 1615 1615 1620 1625 1631 1640 1646 1649 1651 1657 1661 1662 1669 1677 1680 1682 1684 1686 1685 1685 1687 1688 1687 1686 1682 1682 1682 1684 1687 1692 1696 1699 1700 1702 1701 1697 1696 1699 1703 1710 1716 1720 1720 1720 1720 1720 1720 1717 1714 1713 1705 1693 1688 1685 1682 1682 1685 1692 1700 1710 1716 1720 1726 1729 1729 1730 1729 1727 1719 1715 1717 1728 1738 1743 1743 1743 1746 1748 1750 1750 1749 1744 1741 1744 1748 1756 1765 1770 1773 1778 1789 1808 1838 1868 1886 1899 1913 1918 1918 1922 1928 1934 1938 1937 1937 1935 1920 1876 1846 1835 1822 1809 1801 1795 1797 1804 1813 1820 1824 1828 1830 1833 1839 1845 1848 1851 1850 1849 1850 1850 1848 1845 1845 1845 1846 1845 1849 1850 1847 1841 1827 1812 1804 1800 1798 1794 1793 1795 1797 1802 1806 1810 1813 1816 1819 1820 1821 1818 1817 1819 1817 1811 1809 1812 1816 1820 1821 1821 1827 1833 1841 1858 1870 1876 1879 1882 1887 1891 1892 1894 1895 1891 1877 1868 1861 1837 1806 1786 1777 1780 1785 1793 1802 1809 1815 1819 1819 1819 1823 1826 1828 1830 1832 1838 1846 1856 1870 1901 1922 1939 1945 1938 1916 1877 1858 1847 1836 1827 1820 1813 1807 1802 1802 1805 1811 1811 1812 1815 1832 1853 1872 1896 1921 1946 1965 1979 1993 1998 2001 2002 1997 1989 1974 1952 1929 1902 1884 1874 1865 1860 1861 1868 1878 1884 1886 1884 1882 1883 1884 1878 1871 1867 1867 1871 1876 1883 1894 1913 1932 1957 1983 2006 2026 2047 2058 2074 2093 2107 2124 2143 2158 2169 2172 2172 2167 2150 2130 2113 2085 2063 2045 2031 2015 1976 1922 1894 1877 1867 1860 1852 1858 1866 1870 1884 1909 1949 2012 2054 2078 2092 2108 2124 2136 2150 2174 2193 2202 2203 2202 2201 2200 2201 2199 2197 2195 2193 2188 2180 2173 2166 2160 2152 2133 2096 2066 2043 2030 2019 2009 1998 1991 1991 1989 1986 1982 1973 1964 1955 1946 1938 1927 1919 1913 1907 1904
 430 430 425 421 424 425 423 421 424 426 427 427 428 429 429 428 427 427 428 427 428 428 427 428 429 430 430 430 429 428 430 433 435 436 435 432 439 454 462 465 458 447 444 447 449 449 450 449 448 450 452 452 448 447 449 451 456 457 457 457 455 460 469 478 496 504 505 509 522 541 569 598 613 622 641 652 655 655 654 657 672 686 715 754 779 801 819 837 856 880 900 915 931 941 953 970 982 1000 1017 1031 1046 1061 1071 1086 1103 1121 1141 1159 1172 1184 1206 1223 1238 1256 1274 1294 1308 1318 1332 1350 1367 1385 1401 1415 1431 1444 1459 1474 1491 1507 1528 1551 1568 1581 1585 1582 1578 1571 1562 1553 1543 1535 1531 1532 1528 1521 1513 1509 1509 1507 1509 1516 1523 1533 1547 1561 1569 1576 1584 1583 1577 1572 1566 1558 1553 1547 1540 1531 1526 1525 1519 1514 1511 1503 1498 1493 1485 1479 1475 1470 1460 1452 1445 1440 1435 1424 1414 1401 1392 1391 1381 1368 1357 1343 1328 1322 1319 1307 1296 1290 1271 1249 1232 1224 1228 1225 1216 1207 1203 1201 1197 1196 1187 1176 1168 1161 1156 1153 1149 1147 1138 1125 1115 1107 1105 1103 1098 1086 1076 1069 1065 1061 1057 1056 1057 1052 1048 1041 1028 1023 1022 1025 1022 1020 1025 1031 1038 1051 1064 1073 1085 1096 1103 1115 1133 1144 1160 1177 1189 1204 1214 1222 1226 1234 1242 1253 1263 1273 1282 1290 1300 1315 1328 1342 1360 1366 1366 1360 1362 1368 1378 1376 1373 1375 1377 1378 1384 1390 1393 1400 1411 1428 1439 1449 1468 1492 1507 1512 1511 1508 1506 1504 1501 1503 1503 1497 1491 1485 1479 1476 1471 1464 1459 1451 1444 1437 1428 1419 1412 1409 1401 1387 1362 1345 1335 1323 1314 1309 1302 1289 1278 1268 1254 1235 1217 1207 1195 1178 1160 1149 1141 1136 1128 1118 1117 1127 1133 1139 1143 1149 1158 1165 1173 1180 1186 1187 1184 1181 1178 1175 1171 1165 1165 1172 1173 1171 1166 1158 1158 1161 1165 1167 1168 1167 1169 1172 1177 1177 1171 1163 1162 1163 1161 1159 1162 1165 1168 1171 1173 1175 1173 1172 1170 1168 1167 1168 1168 1169 1168 1165 1168 1174 1174 1173 1168 1164 1164 1158 1156 1155 1157 1158 1154 1154 1154 1154 1155 1157 1157 1156 1155 1156 1154 1149 1147 1149 1152 1156 1162 1167 1172 1181 1189 1198 1206 1218 1237 1247 1257 1265 1271 1277 1283 1295 1307 1316 1321 1324 1325 1329 1332 1329 1334 1340 1344 1346 1348 1351 1354 1356 1360 1364 1365 1365 1364 1367 1370 1371 1370 1366 1364 1362 1361 1358 1353 1349 1344 1335 1327 1312 1293 1273 1263 1260 1263 1273 1291 1309 1316 1327 1335 1335 1336 1341 1345 1346 1346 1346 1353 1364 1377 1391 1401 1403 1403 1403 1403 1405 1409 1410 1408 1404 1401 1400 1400 1397 1394 1389 1381 1378 1370 1363 1358 1353 1348 1338 1328 1321 1316 1312 1306 1309 1321 1333 1343 1356 1376 1396 1407 1408 1410 1418 1427 1434 1448 1454 1460 1462 1463 1468 1473 1476 1479 1480 1480 1478 1479 1478 1474 1471 1468 1461 1459 1465 1470 1474 1481 1487 1496 1507 1516 1527 1532 1538 1543 1541 1544 1553 1558 1561 1564 1566 1567 1570 1574 1577 1581 1585 1588 1592 1596 1600 1604 1608 1611 1610 1604 1598 1591 1586 1580 1572 1564 1556 1547 1541 1538 1531 1527 1523 1518 1512 1507 1499 1482 1470 1461 1452 1442 1432 1424 1417 1406 1390 1380 1371 1363 1357 1350 1345 1342 1336 1330 1324 1318 1310 1305 1299 1294 1290 1288 1296 1302 1307 1313 1323 1332 1341 1350 1365 1391 1418 1435 1446 1457 1480 1515 1539 1564 1584 1595 1607 1614 1615 1615 1619 1620 1620 1618 1619 1626 1634 1641 1652 1658 1661 1662 1667 1670 1673 1678 1681 1683 1682 1683 1685 1686 1689 1692 1692 1691 1688 1684 1685 1685 1686 1689 1693 1694 1696 1700 1704 1703 1698 1699 1703 1710 1718 1723 1725 1726 1726 1724 1724 1723 1723 1718 1712 1703 1696 1691 1687 1684 1685 1689 1699 1709 1716 1719 1725 1732 1734 1737 1740 1741 1739 1731 1726 1728 1736 1746 1751 1751 1750 1752 1754 1756 1756 1753 1750 1747 1749 1756 1767 1775 1779 1782 1791 1805 1824 1852 1879 1895 1912 1922 1926 1928 1933 1937 1942 1945 1946 1946 1946 1931 1891 1856 1846 1829 1817 1810 1808 1808 1812 1821 1828 1833 1838 1837 1838 1841 1847 1850 1855 1855 1854 1854 1855 1856 1855 1855 1856 1858 1856 1855 1855 1849 1845 1833 1817 1809 1806 1805 1803 1803 1804 1806 1812 1812 1817 1823 1826 1828 1827 1827 1825 1823 1823 1821 1817 1817 1823 1828 1829 1828 1830 1838 1843 1857 1880 1885 1887 1890 1894 1901 1903 1904 1907 1909 1911 1910 1900 1889 1875 1845 1812 1789 1788 1791 1797 1806 1812 1820 1827 1829 1830 1833 1834 1833 1834 1837 1845 1854 1863 1882 1915 1936 1952 1963 1959 1935 1893 1874 1862 1847 1838 1830 1823 1813 1806 1808 1812 1814 1816 1817 1821 1841 1863 1879 1907 1934 1959 1979 1995 2010 2017 2023 2027 2021 2017 2009 1987 1958 1924 1900 1887 1873 1864 1863 1866 1871 1874 1876 1876 1876 1876 1877 1875 1872 1872 1875 1881 1888 1898 1916 1936 1951 1978 2008 2024 2044 2058 2068 2090 2109 2129 2149 2162 2175 2182 2183 2181 2178 2167 2147 2130 2114 2091 2067 2049 2035 2008 1948 1906 1885 1870 1866 1863 1869 1873 1879 1904 1939 1982 2037 2071 2089 2106 2120 2134 2149 2167 2190 2203 2207 2207 2206 2205 2204 2203 2202 2200 2197 2194 2188 2182 2175 2167 2159 2147 2125 2092 2061 2040 2027 2019 2009 1997 1993 1992 1990 1987 1982 1972 1964 1957 1949 1941 1933 1927 1920 1913 1908
 425 426 425 424 424 426 424 420 423 426 427 427 429 431 430 428 427 428 427 427 428 428 428 427 428 428 429 428 428 429 431 432 434 434 431 430 435 444 451 454 450 442 440 441 440 441 446 447 446 447 447 448 449 449 450 451 454 455 455 454 456 462 469 478 494 505 513 521 526 538 567 596 611 626 641 653 657 660 665 673 688 708 740 764 783 803 829 851 878 905 915 928 946 953 972 990 1003 1019 1038 1058 1073 1084 1092 1102 1112 1125 1140 1157 1170 1189 1206 1219 1231 1256 1273 1289 1306 1317 1336 1353 1366 1388 1413 1431 1452 1470 1486 1507 1524 1538 1550 1558 1562 1565 1565 1563 1564 1559 1551 1544 1532 1522 1516 1522 1522 1514 1507 1502 1503 1506 1506 1511 1526 1534 1543 1554 1562 1567 1570 1565 1561 1553 1545 1539 1533 1529 1522 1516 1510 1500 1501 1500 1493 1485 1481 1474 1470 1467 1463 1456 1446 1435 1430 1425 1420 1412 1408 1398 1376 1365 1353 1349 1347 1337 1323 1312 1293 1281 1277 1273 1266 1251 1225 1211 1213 1215 1209 1199 1188 1183 1180 1174 1165 1161 1159 1154 1149 1142 1137 1132 1122 1114 1105 1099 1096 1094 1085 1068 1059 1055 1055 1052 1049 1049 1048 1046 1042 1034 1023 1020 1019 1016 1015 1018 1023 1029 1040 1054 1066 1077 1087 1094 1103 1117 1134 1144 1157 1173 1182 1197 1206 1214 1220 1230 1235 1243 1249 1257 1268 1277 1283 1288 1295 1303 1312 1321 1329 1332 1336 1339 1348 1350 1354 1359 1362 1364 1369 1377 1385 1397 1409 1425 1438 1464 1492 1504 1506 1503 1500 1498 1492 1488 1486 1482 1482 1476 1470 1463 1460 1458 1454 1444 1437 1429 1423 1419 1411 1404 1397 1388 1377 1368 1355 1343 1336 1333 1334 1329 1312 1294 1281 1270 1250 1229 1210 1197 1188 1172 1156 1147 1136 1122 1118 1113 1107 1111 1121 1130 1135 1139 1146 1155 1165 1172 1180 1182 1176 1172 1167 1163 1157 1154 1151 1156 1164 1158 1152 1150 1150 1153 1156 1160 1161 1161 1163 1164 1165 1163 1159 1155 1153 1153 1155 1153 1155 1157 1160 1165 1170 1172 1171 1166 1160 1161 1165 1171 1171 1166 1161 1156 1156 1162 1167 1168 1164 1160 1159 1152 1148 1148 1150 1151 1148 1147 1146 1147 1150 1150 1149 1146 1147 1151 1149 1142 1137 1138 1145 1154 1162 1168 1176 1184 1192 1203 1213 1231 1246 1252 1259 1265 1271 1280 1289 1297 1303 1309 1311 1314 1318 1320 1322 1323 1325 1331 1338 1340 1343 1346 1347 1348 1349 1354 1355 1355 1357 1359 1363 1362 1359 1359 1358 1355 1352 1346 1343 1339 1330 1320 1303 1286 1272 1262 1256 1257 1265 1278 1293 1310 1328 1340 1348 1352 1354 1360 1364 1368 1373 1375 1380 1387 1397 1405 1409 1409 1407 1406 1408 1411 1413 1412 1407 1403 1401 1399 1396 1389 1385 1380 1375 1370 1362 1356 1352 1345 1336 1325 1316 1308 1305 1304 1309 1320 1332 1343 1356 1371 1394 1406 1410 1412 1417 1431 1436 1441 1447 1454 1460 1463 1468 1472 1477 1483 1488 1493 1496 1496 1495 1493 1487 1481 1475 1471 1472 1475 1479 1482 1487 1492 1505 1517 1525 1531 1537 1545 1552 1553 1553 1556 1565 1568 1571 1575 1579 1578 1581 1585 1588 1590 1593 1598 1604 1608 1614 1618 1617 1611 1602 1596 1589 1583 1576 1570 1562 1556 1548 1541 1538 1533 1528 1523 1514 1503 1493 1482 1471 1461 1452 1438 1427 1416 1405 1399 1393 1385 1377 1368 1358 1355 1349 1343 1337 1330 1324 1320 1315 1309 1305 1301 1296 1295 1300 1307 1312 1321 1330 1340 1350 1361 1372 1389 1407 1427 1441 1455 1468 1497 1537 1563 1585 1600 1608 1616 1621 1624 1624 1629 1627 1626 1627 1629 1637 1644 1651 1660 1669 1675 1677 1677 1678 1682 1685 1686 1685 1683 1683 1683 1686 1689 1694 1695 1693 1690 1687 1687 1689 1691 1691 1693 1693 1692 1695 1700 1702 1699 1702 1710 1717 1725 1728 1729 1731 1732 1730 1728 1728 1728 1724 1713 1703 1698 1695 1690 1686 1688 1696 1710 1719 1723 1727 1733 1737 1740 1744 1746 1748 1748 1745 1740 1739 1746 1756 1759 1759 1759 1760 1761 1762 1761 1757 1755 1755 1758 1766 1778 1785 1788 1794 1805 1820 1836 1861 1890 1908 1925 1934 1938 1940 1946 1950 1953 1955 1956 1959 1954 1927 1886 1867 1857 1842 1826 1820 1817 1819 1823 1830 1837 1844 1846 1844 1846 1848 1852 1854 1857 1860 1860 1859 1861 1864 1864 1864 1865 1865 1863 1860 1858 1855 1849 1838 1827 1818 1813 1815 1814 1811 1811 1815 1821 1823 1829 1838 1839 1841 1840 1836 1834 1831 1829 1827 1827 1829 1831 1835 1836 1839 1843 1850 1862 1881 1899 1903 1905 1907 1912 1914 1917 1922 1925 1926 1930 1935 1935 1928 1907 1876 1842 1808 1800 1799 1802 1807 1813 1822 1829 1833 1837 1838 1837 1835 1835 1839 1847 1856 1867 1891 1920 1950 1969 1986 1984 1964 1918 1890 1876 1862 1851 1842 1829 1817 1808 1809 1813 1816 1819 1822 1828 1849 1877 1894 1924 1952 1979 1999 2013 2024 2030 2038 2044 2041 2043 2048 2032 2002 1967 1934 1909 1889 1874 1865 1863 1866 1869 1872 1875 1877 1879 1879 1880 1881 1883 1887 1896 1907 1921 1942 1965 1985 2010 2035 2049 2064 2073 2088 2115 2144 2165 2177 2184 2193 2197 2196 2195 2193 2188 2174 2154 2140 2123 2092 2069 2054 2024 1972 1920 1892 1880 1875 1874 1882 1886 1900 1942 1977 2025 2062 2078 2098 2114 2126 2141 2159 2180 2201 2210 2211 2210 2209 2210 2209 2207 2205 2202 2199 2195 2190 2184 2177 2166 2151 2134 2116 2087 2051 2036 2026 2020 2009 1998 1994 1993 1992 1989 1984 1971 1963 1956 1947 1941 1938 1937 1933 1923 1915
 422 422 424 426 426 427 425 422 422 424 425 426 428 428 428 428 428 429 429 430 428 427 427 427 429 430 429 429 429 430 432 432 433 431 433 436 439 439 439 441 442 441 441 443 443 444 445 446 445 445 446 448 449 451 453 454 455 455 455 456 459 470 485 494 504 515 522 528 532 541 559 583 600 619 637 650 658 661 669 682 706 730 752 771 789 820 849 872 893 905 910 923 954 972 993 1011 1024 1043 1061 1073 1087 1102 1114 1125 1135 1144 1157 1174 1187 1203 1214 1226 1238 1258 1277 1296 1308 1322 1341 1358 1376 1398 1416 1435 1459 1486 1509 1528 1536 1541 1543 1543 1544 1546 1545 1550 1550 1544 1539 1531 1519 1511 1500 1497 1502 1505 1500 1498 1499 1503 1505 1510 1524 1531 1539 1548 1555 1557 1553 1548 1542 1535 1530 1525 1518 1511 1503 1500 1493 1482 1483 1484 1475 1471 1464 1458 1453 1445 1434 1425 1421 1416 1417 1415 1403 1399 1400 1393 1374 1364 1351 1339 1331 1322 1316 1306 1285 1270 1258 1244 1243 1240 1222 1199 1190 1196 1198 1190 1181 1170 1164 1158 1155 1151 1144 1135 1129 1117 1114 1114 1109 1100 1093 1088 1083 1080 1071 1063 1055 1049 1044 1043 1040 1037 1037 1037 1037 1028 1016 1011 1009 1008 1010 1018 1024 1029 1036 1047 1057 1070 1086 1093 1105 1117 1132 1142 1153 1166 1174 1189 1201 1200 1209 1221 1220 1222 1234 1240 1253 1260 1264 1270 1278 1284 1290 1295 1302 1313 1322 1324 1321 1327 1334 1342 1347 1351 1356 1366 1380 1393 1408 1422 1443 1460 1481 1492 1489 1487 1488 1481 1471 1467 1461 1458 1458 1455 1450 1441 1432 1428 1423 1418 1414 1409 1403 1394 1387 1379 1374 1370 1365 1358 1349 1340 1335 1332 1332 1326 1309 1292 1280 1265 1242 1219 1202 1190 1181 1169 1153 1142 1133 1119 1109 1106 1099 1099 1107 1120 1128 1133 1138 1147 1156 1163 1171 1172 1168 1162 1157 1154 1149 1147 1140 1140 1145 1146 1144 1144 1141 1142 1146 1149 1150 1153 1153 1154 1156 1156 1152 1149 1148 1149 1150 1149 1150 1152 1153 1156 1164 1167 1167 1159 1154 1157 1161 1166 1160 1144 1138 1139 1144 1153 1157 1151 1147 1150 1146 1142 1141 1139 1137 1137 1137 1136 1138 1140 1143 1145 1144 1141 1140 1143 1143 1138 1135 1136 1141 1155 1172 1175 1179 1185 1195 1211 1227 1240 1247 1254 1260 1266 1273 1283 1289 1291 1294 1298 1304 1306 1308 1311 1315 1315 1316 1319 1324 1330 1335 1336 1339 1341 1342 1345 1347 1347 1349 1350 1352 1351 1353 1355 1354 1350 1343 1337 1337 1332 1317 1289 1267 1262 1260 1256 1252 1254 1266 1279 1292 1313 1334 1345 1355 1360 1363 1368 1372 1379 1388 1394 1397 1402 1406 1410 1410 1409 1410 1411 1411 1411 1411 1408 1402 1400 1399 1395 1388 1382 1378 1371 1361 1356 1350 1347 1338 1326 1319 1312 1304 1300 1301 1307 1320 1335 1347 1356 1368 1386 1401 1404 1405 1412 1424 1436 1446 1450 1454 1460 1463 1467 1472 1476 1484 1495 1500 1503 1504 1506 1506 1504 1498 1489 1484 1480 1480 1485 1488 1493 1497 1500 1510 1520 1529 1538 1547 1551 1554 1558 1561 1565 1568 1572 1577 1584 1588 1588 1588 1593 1596 1600 1603 1609 1614 1620 1623 1622 1617 1612 1605 1596 1589 1583 1577 1570 1565 1561 1555 1548 1543 1539 1532 1522 1510 1496 1482 1470 1461 1453 1439 1426 1415 1403 1395 1389 1382 1376 1371 1364 1358 1355 1349 1342 1333 1329 1322 1317 1312 1308 1307 1304 1304 1307 1316 1324 1337 1347 1354 1360 1371 1385 1396 1408 1421 1433 1444 1461 1479 1509 1552 1578 1595 1608 1616 1622 1625 1626 1633 1641 1644 1647 1648 1652 1657 1661 1664 1671 1680 1683 1685 1684 1685 1686 1685 1684 1683 1683 1686 1687 1689 1691 1695 1699 1699 1698 1694 1690 1690 1690 1690 1693 1694 1693 1695 1696 1697 1700 1708 1715 1721 1727 1732 1734 1737 1737 1737 1738 1735 1730 1724 1712 1703 1701 1702 1700 1694 1698 1705 1715 1722 1730 1737 1740 1743 1746 1750 1752 1755 1758 1757 1754 1754 1758 1764 1767 1768 1767 1768 1768 1767 1766 1764 1765 1766 1771 1782 1790 1794 1800 1808 1823 1838 1853 1879 1907 1924 1938 1944 1946 1951 1957 1959 1961 1962 1967 1971 1952 1916 1888 1875 1867 1852 1837 1833 1832 1835 1841 1846 1851 1854 1853 1854 1856 1860 1861 1862 1864 1867 1870 1871 1873 1874 1875 1873 1870 1868 1865 1862 1861 1859 1857 1847 1835 1831 1830 1829 1824 1820 1823 1825 1827 1832 1839 1843 1845 1846 1846 1843 1840 1838 1836 1835 1835 1835 1834 1837 1844 1851 1861 1870 1881 1900 1917 1921 1924 1927 1927 1932 1937 1941 1947 1951 1953 1955 1955 1950 1933 1903 1872 1834 1817 1813 1813 1815 1818 1825 1832 1840 1843 1841 1839 1838 1838 1843 1851 1863 1879 1905 1931 1957 1983 2001 2003 1990 1951 1905 1883 1871 1861 1848 1831 1818 1809 1807 1809 1813 1820 1827 1838 1857 1889 1910 1935 1964 1997 2019 2031 2034 2036 2041 2046 2052 2059 2054 2038 2016 1981 1948 1924 1905 1893 1881 1867 1864 1867 1875 1881 1885 1889 1890 1891 1893 1896 1903 1913 1926 1946 1974 2002 2027 2048 2061 2073 2084 2097 2110 2134 2163 2183 2191 2196 2205 2210 2209 2207 2207 2204 2197 2180 2163 2145 2115 2084 2066 2027 1978 1928 1900 1895 1887 1888 1897 1902 1934 1978 2009 2054 2076 2089 2115 2134 2143 2152 2173 2191 2207 2213 2214 2215 2214 2213 2211 2209 2207 2203 2198 2194 2190 2184 2174 2156 2136 2122 2098 2065 2045 2033 2026 2023 2012 2001 1996 1994 1992 1989 1979 1968 1961 1955 1947 1944 1945 1947 1946 1938 1928
 421 422 424 425 426 426 424 422 422 424 425 427 428 428 428 427 429 431 431 432 430 428 428 427 429 430 430 430 430 431 432 433 432 431 433 435 436 438 438 438 440 441 442 444 444 445 445 445 445 446 449 449 449 452 454 456 456 457 457 458 462 477 491 498 505 515 523 529 537 548 557 573 592 610 632 647 654 660 672 692 718 739 759 778 805 842 864 883 892 904 916 934 968 986 1011 1025 1040 1059 1072 1086 1099 1117 1129 1142 1155 1163 1175 1186 1200 1211 1225 1237 1251 1269 1286 1302 1315 1331 1349 1369 1387 1406 1429 1460 1487 1507 1519 1530 1532 1529 1527 1528 1527 1524 1525 1530 1532 1529 1526 1514 1506 1498 1490 1489 1492 1497 1494 1492 1491 1498 1502 1509 1520 1526 1533 1540 1545 1546 1541 1536 1529 1521 1516 1511 1501 1493 1483 1479 1475 1465 1464 1462 1457 1455 1450 1444 1435 1427 1414 1407 1410 1407 1397 1395 1389 1388 1387 1377 1370 1368 1358 1342 1323 1308 1300 1292 1277 1260 1244 1228 1217 1215 1209 1194 1182 1182 1188 1184 1175 1166 1159 1152 1145 1139 1133 1126 1114 1104 1096 1092 1089 1082 1081 1082 1078 1074 1070 1069 1064 1048 1039 1036 1033 1032 1032 1035 1034 1025 1011 1006 1007 1007 1008 1013 1020 1029 1036 1045 1054 1065 1081 1092 1105 1115 1127 1140 1156 1169 1174 1183 1193 1193 1195 1203 1205 1213 1227 1231 1235 1245 1253 1260 1269 1276 1282 1287 1292 1299 1303 1303 1308 1314 1319 1326 1332 1339 1347 1355 1368 1387 1407 1423 1439 1447 1460 1471 1469 1465 1460 1455 1455 1454 1439 1434 1433 1429 1422 1416 1410 1407 1401 1396 1394 1392 1385 1380 1375 1367 1363 1360 1353 1347 1341 1334 1329 1323 1316 1307 1300 1288 1274 1258 1234 1208 1195 1183 1176 1163 1145 1138 1130 1117 1103 1096 1092 1095 1104 1112 1122 1130 1133 1141 1149 1155 1159 1160 1159 1154 1147 1141 1138 1136 1134 1134 1137 1139 1139 1137 1134 1135 1139 1142 1144 1147 1148 1148 1149 1146 1144 1143 1146 1149 1150 1148 1147 1147 1147 1149 1154 1154 1153 1151 1149 1151 1155 1150 1140 1133 1131 1133 1135 1141 1144 1138 1135 1137 1138 1135 1132 1132 1131 1131 1132 1133 1133 1134 1136 1138 1137 1136 1136 1137 1138 1138 1136 1136 1147 1165 1176 1178 1181 1187 1199 1216 1236 1243 1249 1254 1260 1266 1272 1276 1282 1284 1286 1292 1296 1300 1304 1306 1308 1310 1313 1314 1318 1324 1328 1331 1333 1336 1338 1342 1345 1346 1346 1345 1347 1349 1351 1348 1345 1343 1339 1330 1324 1318 1305 1283 1266 1260 1256 1250 1250 1254 1269 1282 1295 1318 1333 1346 1358 1362 1366 1371 1382 1390 1396 1398 1401 1404 1409 1410 1407 1406 1408 1412 1412 1408 1406 1403 1400 1397 1392 1388 1383 1374 1367 1360 1356 1350 1342 1336 1326 1320 1312 1305 1297 1297 1306 1324 1338 1347 1350 1360 1377 1396 1408 1409 1408 1416 1430 1438 1448 1454 1462 1466 1470 1472 1476 1483 1494 1502 1505 1511 1514 1517 1515 1509 1506 1500 1495 1489 1487 1493 1497 1503 1507 1510 1514 1522 1534 1544 1552 1557 1560 1564 1569 1575 1576 1579 1583 1589 1594 1598 1600 1602 1605 1608 1614 1618 1625 1631 1629 1621 1613 1608 1601 1595 1588 1581 1575 1568 1565 1561 1558 1554 1545 1537 1528 1520 1507 1495 1483 1465 1453 1442 1430 1421 1410 1398 1389 1384 1379 1373 1369 1364 1360 1356 1352 1346 1338 1331 1325 1319 1312 1312 1319 1326 1326 1329 1336 1350 1359 1367 1373 1382 1401 1413 1415 1421 1432 1442 1453 1469 1486 1515 1558 1585 1600 1614 1620 1626 1628 1632 1640 1651 1662 1672 1675 1679 1683 1685 1687 1689 1692 1693 1692 1688 1688 1688 1685 1683 1683 1688 1691 1698 1700 1698 1699 1700 1700 1700 1699 1695 1692 1691 1692 1695 1698 1700 1699 1696 1698 1705 1712 1717 1724 1729 1733 1737 1740 1740 1741 1744 1742 1733 1724 1714 1708 1710 1710 1708 1706 1707 1710 1720 1727 1736 1740 1745 1749 1752 1757 1760 1763 1765 1766 1764 1766 1768 1773 1774 1773 1772 1772 1772 1774 1776 1775 1775 1776 1781 1792 1797 1801 1809 1819 1832 1847 1865 1891 1918 1934 1946 1953 1957 1960 1964 1969 1973 1977 1983 1981 1956 1921 1897 1880 1872 1861 1850 1848 1850 1851 1855 1859 1861 1861 1863 1863 1863 1865 1869 1871 1873 1875 1877 1879 1881 1882 1882 1879 1874 1872 1869 1866 1864 1865 1865 1860 1847 1841 1840 1837 1833 1832 1831 1832 1834 1838 1841 1844 1846 1848 1850 1849 1845 1842 1841 1839 1838 1839 1840 1844 1852 1861 1873 1885 1898 1919 1932 1934 1936 1941 1942 1950 1953 1956 1964 1966 1966 1970 1970 1966 1954 1933 1903 1862 1836 1829 1826 1824 1827 1829 1833 1840 1845 1844 1844 1843 1845 1851 1861 1878 1902 1924 1944 1961 1991 2007 2012 2005 1981 1940 1896 1879 1867 1850 1835 1821 1812 1809 1809 1812 1821 1830 1843 1859 1884 1912 1944 1976 2011 2038 2049 2046 2047 2051 2055 2065 2071 2061 2032 2004 1969 1943 1929 1917 1911 1900 1881 1871 1870 1875 1882 1888 1894 1898 1900 1903 1909 1918 1928 1947 1967 1997 2035 2055 2069 2080 2093 2105 2116 2129 2146 2170 2188 2197 2206 2216 2220 2219 2218 2217 2213 2209 2196 2178 2160 2134 2095 2070 2019 1960 1925 1907 1901 1899 1900 1908 1919 1964 1999 2032 2063 2085 2098 2124 2144 2153 2170 2188 2204 2216 2217 2217 2218 2217 2216 2214 2211 2208 2204 2200 2195 2188 2175 2160 2142 2127 2108 2073 2052 2039 2026 2024 2023 2018 2009 2001 1995 1990 1983 1974 1966 1961 1956 1953 1952 1953 1954 1954 1949 1940
 422 423 424 424 425 424 422 420 420 423 425 427 428 429 427 427 429 431 434 434 431 430 430 428 429 429 430 430 430 431 433 432 432 432 433 435 435 438 438 437 437 440 441 442 444 444 445 445 446 448 450 449 450 453 455 458 458 459 460 464 469 476 484 496 504 515 523 530 540 549 562 578 590 608 629 642 653 664 683 709 730 745 769 804 832 853 864 882 902 923 938 961 984 1003 1026 1039 1053 1068 1083 1098 1117 1134 1147 1160 1174 1184 1194 1204 1211 1223 1238 1250 1262 1275 1290 1310 1327 1342 1363 1388 1417 1445 1473 1489 1501 1507 1513 1518 1510 1506 1506 1504 1503 1503 1509 1515 1515 1513 1509 1501 1495 1488 1485 1485 1484 1481 1479 1480 1480 1490 1500 1508 1517 1522 1526 1532 1536 1531 1527 1522 1511 1506 1500 1491 1488 1478 1471 1466 1459 1449 1441 1440 1442 1438 1433 1428 1418 1408 1398 1391 1389 1383 1372 1372 1371 1369 1365 1361 1362 1356 1344 1327 1310 1300 1293 1289 1275 1259 1248 1233 1211 1197 1191 1187 1177 1171 1173 1173 1169 1160 1155 1150 1138 1132 1123 1112 1103 1095 1086 1081 1078 1074 1076 1080 1075 1070 1067 1065 1063 1049 1036 1032 1029 1030 1029 1027 1022 1014 1004 1001 1004 1006 1007 1009 1015 1025 1033 1043 1054 1062 1073 1085 1100 1115 1127 1136 1153 1169 1171 1171 1171 1172 1177 1186 1197 1210 1221 1227 1229 1239 1249 1258 1263 1266 1274 1281 1284 1287 1288 1289 1293 1300 1302 1308 1315 1321 1335 1350 1361 1381 1394 1404 1422 1429 1433 1439 1446 1446 1440 1433 1428 1421 1412 1408 1404 1399 1394 1389 1381 1379 1378 1372 1369 1369 1364 1360 1357 1352 1348 1345 1343 1338 1329 1319 1312 1305 1300 1298 1294 1281 1267 1252 1222 1200 1187 1176 1167 1152 1140 1133 1124 1104 1091 1084 1086 1095 1105 1111 1118 1127 1133 1137 1142 1143 1145 1147 1144 1140 1135 1131 1128 1128 1129 1130 1130 1130 1130 1128 1128 1128 1130 1134 1137 1142 1143 1141 1142 1138 1137 1139 1144 1150 1150 1144 1141 1140 1143 1143 1140 1139 1140 1141 1136 1133 1133 1130 1129 1128 1131 1131 1129 1134 1138 1135 1131 1132 1135 1132 1128 1127 1128 1127 1130 1131 1129 1130 1130 1130 1130 1135 1136 1136 1136 1137 1136 1141 1154 1165 1173 1178 1183 1192 1204 1223 1235 1242 1249 1256 1262 1266 1269 1271 1276 1279 1282 1286 1291 1294 1298 1299 1301 1304 1309 1310 1312 1317 1320 1324 1332 1336 1336 1334 1337 1342 1341 1342 1344 1344 1342 1337 1336 1330 1319 1309 1306 1299 1295 1291 1283 1265 1253 1248 1248 1254 1271 1285 1299 1324 1344 1355 1360 1364 1367 1379 1389 1394 1396 1399 1402 1405 1407 1409 1407 1408 1410 1414 1412 1407 1403 1400 1396 1392 1389 1385 1371 1362 1358 1354 1346 1337 1329 1319 1314 1310 1302 1295 1293 1299 1313 1330 1336 1344 1351 1365 1385 1399 1409 1409 1416 1426 1435 1444 1453 1465 1472 1473 1475 1479 1488 1493 1498 1502 1510 1521 1524 1522 1522 1515 1510 1506 1504 1504 1500 1503 1509 1518 1521 1524 1529 1532 1542 1548 1556 1562 1567 1572 1576 1582 1586 1589 1594 1598 1602 1608 1614 1616 1616 1620 1623 1630 1636 1635 1627 1615 1610 1602 1593 1588 1582 1575 1569 1563 1559 1553 1546 1542 1537 1528 1519 1510 1502 1493 1483 1467 1451 1438 1426 1416 1408 1397 1388 1381 1378 1373 1369 1366 1363 1359 1354 1348 1343 1336 1328 1323 1321 1329 1342 1356 1364 1360 1369 1376 1382 1387 1394 1405 1425 1430 1429 1435 1446 1454 1464 1478 1493 1518 1567 1592 1608 1621 1630 1636 1640 1646 1654 1667 1678 1689 1694 1695 1698 1704 1709 1710 1708 1702 1698 1695 1694 1692 1690 1689 1688 1692 1697 1701 1701 1698 1698 1698 1699 1701 1700 1700 1701 1701 1700 1703 1703 1706 1706 1702 1703 1710 1717 1724 1730 1733 1736 1740 1742 1745 1749 1749 1749 1743 1729 1721 1718 1720 1718 1715 1716 1717 1719 1726 1731 1738 1743 1751 1758 1763 1766 1768 1770 1771 1774 1774 1776 1778 1780 1781 1781 1782 1782 1783 1780 1781 1782 1784 1789 1795 1801 1804 1811 1822 1832 1843 1864 1881 1897 1923 1938 1954 1964 1968 1972 1978 1983 1989 2002 2003 1988 1967 1934 1908 1890 1882 1878 1874 1872 1869 1869 1869 1871 1873 1874 1872 1869 1865 1867 1871 1877 1882 1882 1884 1885 1888 1890 1889 1885 1879 1876 1875 1873 1872 1872 1873 1872 1862 1855 1851 1850 1846 1844 1843 1843 1841 1841 1842 1846 1849 1851 1855 1856 1855 1851 1847 1846 1846 1848 1852 1859 1867 1873 1882 1902 1916 1933 1948 1956 1963 1967 1971 1971 1972 1977 1983 1987 1989 1992 1990 1988 1980 1962 1941 1898 1863 1849 1842 1840 1838 1835 1833 1836 1842 1845 1849 1854 1858 1864 1880 1908 1929 1952 1962 1971 1985 2000 2016 2017 1999 1971 1920 1891 1873 1857 1841 1828 1820 1816 1815 1817 1825 1834 1846 1864 1886 1916 1956 1983 2015 2046 2053 2055 2060 2066 2070 2076 2082 2075 2048 2016 1981 1952 1935 1930 1932 1923 1899 1884 1880 1881 1885 1889 1895 1900 1906 1916 1929 1937 1947 1968 1987 2023 2052 2070 2090 2102 2111 2125 2144 2157 2166 2181 2196 2211 2223 2227 2227 2227 2227 2228 2227 2220 2207 2192 2174 2144 2106 2064 1998 1947 1928 1917 1910 1910 1914 1920 1945 1988 2026 2048 2077 2094 2107 2133 2150 2162 2186 2212 2222 2225 2222 2221 2220 2219 2218 2216 2213 2209 2205 2197 2187 2170 2153 2141 2128 2113 2086 2060 2044 2029 2028 2030 2028 2025 2014 2005 1996 1987 1980 1972 1966 1963 1961 1963 1964 1965 1964 1962 1957 1950
 422 423 424 423 423 422 420 418 418 421 424 427 428 428 429 428 428 428 428 429 430 429 429 429 429 430 430 430 430 431 432 433 434 436 441 445 441 437 437 437 438 441 442 443 445 445 444 446 448 450 452 451 449 451 455 457 458 459 461 463 465 471 478 494 508 517 523 531 544 554 568 584 594 610 629 640 656 677 699 720 740 762 799 828 843 858 872 893 915 934 950 973 996 1010 1030 1042 1057 1075 1097 1117 1133 1147 1161 1177 1193 1201 1212 1225 1234 1245 1256 1265 1273 1287 1307 1325 1342 1360 1383 1410 1439 1464 1479 1484 1491 1494 1496 1490 1482 1482 1485 1480 1474 1480 1489 1495 1497 1497 1493 1490 1481 1476 1473 1477 1474 1470 1468 1465 1473 1481 1491 1500 1506 1512 1516 1521 1521 1516 1509 1501 1495 1486 1478 1475 1476 1469 1460 1451 1445 1435 1422 1420 1427 1427 1424 1418 1405 1394 1381 1373 1364 1358 1360 1358 1358 1361 1357 1350 1343 1331 1319 1308 1300 1294 1288 1285 1276 1262 1255 1239 1205 1192 1187 1179 1168 1158 1155 1159 1159 1153 1150 1143 1131 1124 1112 1104 1098 1091 1085 1080 1077 1071 1067 1066 1061 1057 1053 1046 1042 1036 1031 1029 1026 1025 1021 1015 1007 1004 997 988 991 1002 1009 1012 1016 1024 1030 1037 1049 1060 1069 1081 1094 1110 1122 1133 1143 1157 1164 1163 1158 1162 1177 1193 1203 1214 1222 1227 1233 1241 1247 1254 1261 1262 1265 1268 1268 1273 1279 1280 1281 1288 1294 1297 1302 1307 1316 1338 1350 1362 1376 1384 1394 1402 1408 1418 1429 1427 1416 1407 1400 1391 1384 1378 1374 1370 1366 1355 1336 1335 1344 1355 1355 1352 1349 1347 1345 1342 1338 1335 1331 1324 1317 1309 1302 1292 1292 1293 1283 1268 1257 1236 1217 1204 1188 1171 1155 1142 1128 1122 1115 1099 1084 1076 1078 1085 1096 1101 1111 1122 1133 1138 1139 1138 1139 1138 1134 1132 1128 1124 1122 1123 1123 1123 1122 1120 1119 1118 1120 1123 1125 1126 1129 1133 1134 1135 1136 1134 1135 1137 1140 1141 1139 1135 1131 1128 1126 1126 1124 1124 1125 1125 1124 1123 1125 1127 1125 1125 1131 1128 1122 1127 1133 1134 1130 1130 1128 1127 1128 1125 1120 1119 1122 1124 1124 1125 1126 1126 1126 1128 1130 1130 1131 1131 1132 1141 1151 1159 1166 1175 1186 1198 1209 1226 1235 1242 1250 1256 1260 1264 1266 1267 1271 1276 1279 1283 1287 1289 1290 1295 1297 1302 1307 1307 1310 1312 1313 1315 1324 1329 1329 1328 1327 1326 1325 1323 1321 1320 1323 1326 1315 1306 1303 1296 1289 1281 1280 1283 1282 1264 1252 1242 1243 1256 1272 1291 1308 1329 1343 1355 1360 1365 1370 1383 1389 1393 1397 1400 1402 1404 1407 1410 1411 1413 1414 1414 1409 1406 1402 1395 1391 1388 1389 1379 1363 1358 1354 1346 1334 1326 1318 1312 1306 1298 1293 1292 1294 1301 1314 1324 1329 1340 1362 1378 1382 1392 1404 1411 1422 1431 1439 1450 1460 1469 1475 1479 1482 1488 1494 1497 1500 1501 1508 1520 1524 1525 1525 1522 1516 1513 1516 1516 1517 1518 1519 1525 1534 1540 1543 1548 1552 1556 1562 1566 1572 1578 1583 1592 1599 1604 1613 1616 1617 1626 1633 1633 1630 1632 1637 1642 1640 1634 1624 1613 1607 1599 1590 1584 1579 1575 1570 1565 1558 1550 1540 1533 1527 1521 1510 1500 1494 1487 1478 1465 1454 1442 1430 1420 1411 1402 1392 1388 1385 1379 1372 1367 1363 1359 1354 1347 1342 1335 1331 1332 1338 1352 1367 1389 1398 1392 1390 1397 1404 1412 1433 1446 1450 1454 1460 1461 1460 1463 1471 1482 1497 1521 1563 1595 1616 1628 1641 1647 1654 1662 1671 1683 1692 1701 1705 1706 1709 1713 1714 1714 1713 1709 1701 1699 1697 1697 1695 1693 1692 1692 1694 1698 1699 1698 1700 1700 1701 1704 1705 1707 1709 1709 1709 1711 1710 1711 1711 1711 1712 1718 1726 1729 1732 1739 1745 1748 1751 1756 1757 1759 1758 1752 1741 1732 1729 1728 1727 1723 1722 1725 1728 1736 1741 1745 1750 1757 1761 1767 1769 1773 1777 1781 1784 1783 1784 1787 1787 1788 1790 1790 1791 1792 1789 1787 1789 1795 1802 1805 1809 1813 1821 1835 1846 1864 1886 1898 1911 1930 1946 1965 1975 1978 1986 1991 1992 2000 2015 2014 1992 1969 1942 1920 1903 1895 1891 1890 1888 1887 1885 1882 1880 1882 1884 1883 1876 1870 1871 1874 1879 1884 1886 1890 1890 1892 1893 1893 1890 1884 1882 1882 1882 1882 1883 1883 1881 1872 1865 1863 1863 1860 1858 1856 1856 1851 1847 1847 1849 1850 1853 1855 1857 1857 1856 1854 1855 1855 1857 1863 1874 1880 1885 1896 1927 1943 1955 1963 1971 1980 1986 1991 1995 1998 2000 2003 2002 2006 2011 2012 2013 2003 1990 1970 1933 1896 1875 1863 1856 1850 1842 1836 1836 1839 1842 1847 1857 1866 1877 1902 1927 1951 1970 1982 1990 1996 1999 2010 2020 2014 1988 1943 1905 1883 1864 1847 1838 1834 1833 1829 1827 1831 1840 1853 1877 1904 1933 1965 1985 2020 2048 2052 2063 2070 2076 2081 2082 2084 2080 2065 2042 2004 1963 1941 1939 1942 1938 1919 1899 1892 1890 1892 1895 1899 1907 1916 1935 1946 1952 1964 1984 2007 2040 2059 2083 2104 2116 2128 2146 2167 2178 2192 2208 2218 2229 2234 2235 2236 2236 2236 2236 2237 2232 2217 2198 2176 2135 2098 2062 1997 1954 1938 1926 1925 1925 1925 1937 1970 2016 2051 2074 2094 2107 2121 2141 2156 2170 2197 2223 2230 2230 2228 2226 2224 2222 2220 2216 2212 2208 2198 2182 2166 2152 2139 2128 2118 2099 2074 2053 2036 2032 2033 2034 2032 2028 2017 2007 1997 1989 1982 1976 1971 1969 1969 1972 1975 1974 1971 1968 1963 1957
 423 423 424 424 422 421 420 419 418 420 423 427 428 429 429 430 430 429 428 428 429 430 429 429 429 430 430 430 431 431 431 433 437 441 451 454 448 438 436 436 437 440 442 442 443 444 444 446 446 448 448 449 449 452 454 455 458 461 463 465 464 469 480 497 516 524 530 539 552 561 573 588 598 614 632 644 667 689 707 728 758 786 807 829 850 869 888 904 922 944 961 984 1002 1016 1033 1046 1065 1085 1110 1127 1141 1158 1173 1191 1208 1219 1228 1234 1242 1256 1270 1280 1290 1306 1324 1340 1358 1377 1405 1431 1450 1464 1470 1473 1475 1480 1478 1468 1466 1467 1461 1458 1460 1469 1477 1480 1482 1482 1481 1475 1471 1470 1462 1461 1459 1461 1454 1453 1467 1475 1480 1487 1494 1501 1508 1512 1512 1505 1497 1489 1480 1472 1469 1467 1466 1460 1448 1435 1431 1424 1411 1404 1414 1416 1413 1407 1398 1387 1369 1355 1344 1342 1349 1348 1347 1351 1341 1332 1324 1312 1309 1301 1294 1288 1285 1283 1275 1261 1250 1225 1199 1191 1183 1172 1164 1155 1147 1146 1150 1149 1145 1136 1124 1115 1107 1100 1093 1085 1079 1076 1072 1065 1061 1060 1054 1050 1043 1040 1037 1031 1026 1022 1019 1019 1017 1009 1000 995 976 972 984 1001 1009 1010 1014 1020 1028 1035 1042 1051 1064 1076 1089 1104 1113 1122 1135 1147 1152 1151 1150 1157 1173 1187 1195 1210 1225 1232 1237 1242 1246 1250 1257 1260 1260 1256 1252 1254 1267 1272 1273 1277 1281 1285 1291 1299 1311 1328 1337 1348 1358 1366 1374 1379 1383 1387 1391 1391 1389 1386 1379 1370 1361 1351 1344 1341 1337 1329 1322 1319 1328 1341 1340 1337 1336 1339 1337 1331 1329 1324 1319 1313 1305 1296 1288 1281 1277 1276 1267 1256 1240 1213 1196 1195 1188 1167 1149 1134 1123 1119 1111 1094 1075 1066 1068 1076 1081 1088 1098 1111 1124 1131 1129 1130 1133 1131 1125 1123 1122 1121 1118 1119 1121 1120 1117 1116 1115 1113 1113 1116 1120 1120 1121 1124 1125 1130 1132 1131 1130 1130 1131 1129 1126 1124 1122 1119 1116 1113 1113 1115 1117 1118 1115 1114 1117 1122 1119 1119 1127 1126 1119 1123 1127 1128 1126 1125 1121 1122 1121 1118 1115 1114 1119 1122 1121 1120 1122 1122 1124 1123 1121 1122 1128 1132 1139 1145 1151 1157 1167 1178 1190 1201 1211 1221 1230 1237 1246 1254 1258 1260 1262 1265 1269 1276 1279 1283 1287 1289 1288 1292 1296 1300 1302 1303 1307 1309 1311 1310 1314 1319 1320 1321 1321 1321 1318 1313 1312 1314 1314 1310 1297 1289 1284 1274 1264 1262 1264 1265 1262 1249 1241 1235 1246 1261 1272 1292 1306 1324 1337 1349 1357 1364 1372 1380 1388 1392 1397 1400 1403 1407 1409 1411 1412 1413 1413 1410 1405 1404 1400 1392 1386 1379 1375 1365 1358 1355 1345 1333 1320 1314 1310 1304 1297 1289 1289 1292 1297 1307 1318 1324 1330 1345 1371 1380 1383 1394 1405 1412 1425 1434 1444 1456 1465 1470 1476 1481 1486 1492 1499 1501 1501 1501 1508 1517 1520 1522 1523 1521 1518 1518 1519 1522 1529 1531 1530 1535 1543 1546 1551 1556 1561 1564 1568 1572 1577 1585 1593 1605 1613 1616 1623 1629 1635 1639 1642 1645 1649 1652 1655 1648 1641 1633 1626 1616 1608 1599 1593 1589 1584 1579 1575 1569 1562 1554 1545 1534 1525 1516 1508 1500 1493 1484 1475 1465 1455 1445 1436 1430 1421 1410 1402 1399 1395 1387 1379 1371 1364 1360 1355 1350 1347 1341 1341 1348 1360 1379 1392 1405 1414 1412 1412 1420 1431 1443 1465 1472 1479 1489 1496 1488 1477 1475 1479 1490 1502 1521 1557 1589 1618 1631 1644 1654 1664 1674 1683 1694 1701 1709 1715 1716 1718 1718 1717 1717 1717 1716 1711 1708 1706 1704 1701 1697 1694 1694 1697 1701 1704 1706 1708 1710 1712 1712 1712 1713 1713 1714 1715 1715 1715 1716 1717 1719 1723 1727 1733 1737 1739 1747 1750 1755 1760 1761 1762 1767 1765 1754 1747 1739 1735 1734 1732 1730 1729 1732 1736 1744 1749 1751 1756 1759 1765 1771 1773 1778 1785 1789 1793 1793 1793 1793 1794 1796 1796 1797 1798 1800 1797 1794 1797 1801 1807 1812 1814 1819 1830 1847 1863 1885 1901 1911 1928 1946 1963 1977 1983 1987 1995 1998 2001 2012 2023 2018 2002 1975 1950 1930 1917 1906 1901 1900 1899 1899 1896 1894 1891 1888 1888 1886 1879 1876 1877 1879 1884 1886 1889 1891 1894 1896 1897 1897 1894 1890 1889 1889 1889 1892 1896 1895 1892 1885 1882 1882 1878 1874 1872 1869 1867 1860 1854 1852 1852 1854 1856 1858 1860 1861 1862 1864 1865 1864 1868 1873 1883 1891 1899 1918 1951 1966 1979 1980 1985 1993 2000 2005 2010 2013 2019 2022 2020 2019 2025 2032 2032 2030 2017 1998 1961 1927 1901 1882 1872 1864 1854 1846 1845 1844 1845 1848 1858 1871 1887 1911 1942 1962 1986 2000 2008 2013 2017 2019 2023 2031 2027 1983 1934 1901 1880 1859 1849 1847 1850 1845 1839 1841 1850 1864 1886 1914 1944 1974 1995 2031 2060 2064 2071 2078 2084 2088 2086 2086 2085 2077 2060 2029 1984 1952 1940 1941 1941 1933 1915 1905 1901 1901 1903 1909 1919 1929 1945 1956 1964 1979 2003 2028 2052 2069 2088 2111 2129 2144 2161 2178 2190 2208 2224 2232 2238 2241 2241 2242 2243 2243 2242 2241 2238 2224 2202 2181 2141 2097 2069 2010 1968 1949 1939 1937 1935 1941 1968 2013 2056 2084 2096 2109 2122 2141 2163 2175 2192 2218 2233 2235 2232 2230 2228 2226 2224 2220 2215 2209 2199 2185 2169 2156 2143 2131 2121 2114 2093 2072 2052 2040 2037 2035 2035 2033 2026 2015 2007 1997 1991 1986 1982 1980 1978 1978 1979 1979 1977 1974 1971 1967 1963
 424 424 424 424 422 421 421 420 420 421 423 426 428 428 430 430 429 428 429 429 428 428 429 430 430 429 430 430 430 431 431 433 436 437 444 447 442 437 436 435 435 437 439 439 439 441 444 443 443 444 445 447 450 452 455 455 458 462 466 469 472 477 486 503 526 537 545 551 558 569 582 595 601 615 637 652 672 693 719 753 783 801 809 823 857 883 901 918 939 957 971 989 1007 1021 1034 1053 1075 1095 1118 1135 1149 1168 1185 1204 1218 1224 1229 1235 1245 1262 1284 1299 1314 1330 1346 1361 1378 1397 1420 1439 1450 1456 1457 1459 1459 1455 1449 1447 1445 1445 1442 1446 1451 1459 1463 1463 1466 1466 1462 1456 1460 1459 1448 1442 1443 1439 1439 1450 1461 1466 1470 1474 1482 1491 1500 1503 1503 1495 1485 1477 1468 1462 1458 1451 1446 1440 1428 1421 1416 1407 1395 1387 1393 1398 1395 1390 1386 1375 1365 1352 1335 1330 1333 1329 1323 1312 1309 1306 1291 1288 1286 1278 1274 1272 1272 1273 1265 1251 1227 1206 1195 1187 1178 1168 1161 1151 1145 1140 1141 1143 1137 1129 1121 1111 1104 1097 1089 1081 1072 1068 1063 1059 1056 1050 1045 1043 1039 1038 1036 1029 1020 1011 1010 1009 1004 992 983 969 963 969 986 1003 1006 1007 1010 1017 1025 1034 1040 1049 1064 1072 1080 1092 1102 1113 1129 1143 1147 1147 1150 1155 1162 1173 1185 1203 1224 1231 1232 1233 1237 1241 1242 1241 1245 1245 1246 1251 1258 1261 1265 1267 1267 1272 1281 1292 1304 1318 1328 1337 1346 1350 1356 1361 1362 1365 1368 1371 1373 1369 1363 1356 1350 1345 1341 1337 1332 1324 1315 1311 1314 1320 1318 1318 1318 1315 1314 1312 1310 1306 1298 1291 1281 1259 1256 1257 1248 1241 1236 1229 1215 1193 1178 1179 1176 1160 1142 1125 1121 1119 1108 1084 1066 1056 1056 1070 1073 1077 1085 1093 1103 1111 1116 1120 1122 1118 1115 1114 1115 1115 1114 1113 1113 1113 1114 1112 1107 1105 1108 1109 1111 1111 1112 1110 1111 1117 1121 1123 1120 1117 1117 1117 1118 1116 1115 1112 1107 1103 1106 1107 1108 1107 1105 1107 1109 1111 1112 1111 1117 1122 1119 1120 1120 1115 1117 1117 1116 1113 1114 1117 1115 1110 1112 1117 1115 1112 1115 1118 1121 1122 1120 1121 1127 1134 1143 1151 1155 1163 1178 1190 1198 1206 1212 1219 1229 1233 1240 1246 1250 1253 1256 1259 1269 1275 1278 1282 1287 1288 1286 1286 1289 1295 1298 1299 1300 1303 1304 1306 1305 1307 1311 1312 1313 1311 1309 1304 1301 1300 1298 1295 1283 1271 1260 1250 1246 1243 1242 1241 1236 1232 1232 1237 1254 1264 1279 1295 1310 1322 1336 1348 1358 1367 1373 1382 1388 1391 1397 1399 1401 1405 1408 1410 1411 1412 1411 1406 1402 1398 1394 1385 1379 1373 1365 1358 1353 1339 1329 1319 1311 1306 1301 1293 1287 1286 1290 1294 1303 1322 1332 1333 1338 1352 1369 1380 1384 1397 1408 1415 1426 1437 1448 1460 1467 1471 1474 1480 1487 1494 1499 1500 1499 1499 1503 1509 1516 1520 1520 1518 1518 1519 1523 1528 1533 1536 1540 1548 1553 1556 1561 1566 1570 1574 1581 1583 1589 1595 1602 1611 1620 1630 1639 1645 1649 1653 1658 1663 1667 1674 1675 1663 1649 1640 1632 1624 1617 1609 1600 1594 1589 1579 1571 1563 1555 1550 1541 1532 1525 1516 1510 1505 1495 1483 1474 1468 1461 1453 1444 1434 1427 1419 1411 1406 1401 1396 1389 1380 1369 1365 1360 1358 1357 1355 1361 1375 1390 1407 1416 1429 1439 1445 1448 1460 1475 1487 1494 1504 1518 1524 1527 1524 1511 1502 1496 1502 1511 1529 1567 1588 1613 1636 1649 1659 1669 1681 1692 1704 1709 1717 1724 1726 1727 1727 1724 1723 1722 1719 1716 1713 1712 1711 1710 1707 1705 1703 1703 1706 1710 1713 1715 1718 1720 1721 1721 1721 1718 1719 1720 1721 1720 1721 1723 1728 1732 1734 1740 1744 1748 1751 1755 1760 1767 1770 1769 1772 1772 1761 1755 1748 1743 1743 1741 1738 1740 1741 1744 1752 1757 1759 1765 1768 1774 1778 1781 1786 1791 1796 1800 1800 1799 1801 1802 1804 1806 1805 1805 1805 1807 1806 1805 1806 1809 1814 1820 1828 1845 1867 1890 1904 1914 1926 1946 1965 1979 1989 1995 1999 2003 2008 2013 2023 2029 2026 2014 1999 1979 1951 1934 1920 1909 1907 1907 1907 1907 1905 1900 1898 1896 1889 1881 1879 1881 1884 1887 1892 1894 1895 1896 1897 1899 1901 1899 1898 1898 1898 1901 1910 1912 1913 1909 1906 1903 1903 1899 1892 1885 1882 1878 1871 1864 1863 1863 1866 1867 1866 1867 1871 1875 1877 1878 1878 1878 1882 1892 1902 1915 1938 1966 1980 1996 2006 2013 2016 2021 2023 2026 2032 2037 2040 2041 2042 2049 2055 2054 2051 2043 2031 2003 1961 1936 1906 1892 1882 1869 1856 1851 1848 1847 1850 1862 1876 1896 1930 1966 1991 2015 2025 2031 2035 2036 2037 2038 2047 2053 2023 1968 1927 1894 1875 1866 1864 1862 1856 1851 1853 1863 1875 1891 1918 1952 1984 2010 2041 2070 2074 2076 2086 2092 2095 2096 2095 2094 2087 2070 2049 2025 1986 1946 1940 1940 1936 1928 1918 1911 1909 1916 1926 1936 1946 1962 1973 1984 2003 2025 2052 2072 2087 2106 2123 2142 2161 2175 2190 2203 2218 2234 2239 2245 2249 2250 2251 2251 2251 2251 2253 2249 2231 2204 2182 2150 2111 2088 2044 2000 1985 1970 1961 1960 1978 2024 2063 2087 2108 2121 2138 2154 2170 2186 2206 2221 2235 2240 2239 2237 2234 2231 2227 2223 2218 2211 2197 2186 2171 2157 2148 2136 2125 2119 2113 2092 2066 2048 2041 2039 2037 2034 2030 2025 2014 2003 1998 1994 1990 1988 1987 1985 1985 1984 1982 1978 1975 1974 1972 1971
 424 424 423 423 422 422 422 422 422 421 422 424 426 428 429 429 428 427 428 429 428 428 427 429 430 430 430 429 431 431 432 433 432 431 432 434 435 437 437 435 434 436 437 436 437 439 441 442 442 444 445 447 450 452 456 460 461 462 466 470 475 484 500 513 528 541 553 566 568 575 584 597 611 634 652 666 686 715 747 765 784 799 811 836 862 885 909 927 947 962 975 992 1006 1018 1036 1059 1078 1102 1126 1139 1155 1179 1194 1206 1220 1225 1229 1237 1250 1271 1300 1316 1336 1354 1368 1385 1403 1415 1425 1435 1438 1437 1435 1437 1433 1429 1428 1427 1426 1427 1433 1439 1440 1439 1439 1445 1450 1447 1445 1443 1445 1445 1435 1430 1425 1422 1433 1447 1457 1457 1459 1466 1474 1483 1495 1498 1497 1486 1475 1467 1456 1447 1437 1429 1423 1418 1414 1404 1397 1390 1379 1368 1373 1379 1372 1370 1363 1358 1359 1352 1340 1323 1310 1302 1287 1277 1277 1275 1271 1267 1260 1252 1249 1251 1257 1258 1249 1230 1213 1201 1191 1183 1174 1165 1157 1148 1142 1130 1125 1131 1129 1122 1114 1105 1097 1086 1078 1070 1063 1058 1054 1051 1048 1045 1043 1041 1038 1039 1039 1023 1008 1000 993 993 990 978 960 957 965 980 990 997 999 1004 1010 1017 1026 1034 1041 1050 1060 1066 1073 1084 1096 1106 1119 1128 1138 1142 1145 1148 1162 1180 1189 1201 1217 1219 1219 1222 1224 1226 1227 1228 1231 1234 1238 1248 1257 1257 1255 1259 1261 1271 1279 1286 1295 1307 1318 1327 1335 1340 1344 1349 1352 1355 1357 1358 1357 1352 1349 1345 1341 1336 1333 1329 1323 1315 1307 1302 1302 1303 1300 1296 1294 1293 1291 1292 1292 1288 1281 1275 1263 1243 1239 1236 1226 1215 1206 1198 1200 1186 1164 1156 1159 1149 1133 1117 1114 1107 1093 1077 1068 1056 1046 1052 1067 1070 1075 1084 1094 1102 1110 1114 1114 1111 1108 1107 1105 1106 1108 1106 1106 1109 1112 1108 1103 1098 1099 1103 1104 1103 1103 1102 1101 1103 1109 1108 1104 1107 1108 1108 1108 1107 1105 1104 1101 1098 1098 1100 1099 1097 1096 1098 1103 1104 1104 1104 1104 1108 1112 1111 1106 1104 1104 1106 1108 1108 1110 1114 1114 1111 1109 1107 1107 1108 1110 1115 1121 1125 1121 1121 1128 1135 1143 1151 1161 1175 1193 1198 1200 1204 1210 1220 1230 1233 1235 1241 1244 1247 1252 1255 1263 1269 1271 1276 1282 1283 1281 1281 1283 1286 1290 1292 1292 1295 1298 1305 1304 1301 1302 1302 1301 1298 1302 1297 1290 1288 1287 1282 1269 1256 1245 1237 1234 1229 1228 1228 1226 1228 1235 1247 1259 1273 1290 1310 1324 1332 1348 1358 1369 1377 1382 1388 1390 1393 1399 1400 1401 1404 1406 1408 1411 1411 1408 1404 1400 1396 1387 1379 1374 1369 1363 1356 1339 1324 1322 1318 1304 1296 1288 1282 1282 1286 1293 1304 1315 1329 1336 1339 1349 1360 1370 1380 1389 1399 1409 1417 1428 1440 1454 1465 1466 1467 1470 1475 1482 1493 1498 1498 1497 1496 1499 1503 1510 1516 1513 1512 1515 1518 1529 1533 1539 1545 1553 1560 1565 1568 1572 1575 1578 1585 1591 1596 1601 1610 1616 1621 1632 1641 1651 1661 1667 1674 1680 1684 1690 1688 1677 1668 1658 1650 1641 1631 1621 1609 1599 1592 1583 1572 1565 1559 1553 1543 1533 1527 1519 1511 1503 1495 1484 1474 1469 1465 1457 1452 1445 1437 1432 1426 1418 1412 1407 1403 1396 1387 1376 1370 1366 1367 1370 1375 1386 1401 1426 1435 1437 1445 1460 1468 1483 1501 1515 1520 1522 1528 1540 1552 1554 1551 1541 1530 1523 1520 1525 1545 1577 1593 1616 1641 1658 1668 1676 1687 1701 1711 1715 1723 1732 1734 1736 1736 1731 1725 1723 1720 1719 1720 1722 1721 1719 1717 1718 1717 1714 1714 1716 1723 1729 1729 1731 1731 1729 1727 1725 1725 1727 1730 1733 1734 1735 1738 1741 1744 1749 1750 1752 1756 1760 1767 1773 1775 1776 1780 1779 1771 1769 1767 1760 1752 1749 1747 1751 1752 1753 1760 1766 1769 1775 1782 1785 1787 1788 1790 1795 1800 1806 1806 1805 1807 1810 1813 1818 1819 1815 1815 1816 1814 1812 1814 1817 1821 1832 1841 1863 1889 1904 1915 1928 1949 1969 1986 1996 2000 2005 2008 2012 2014 2019 2026 2033 2034 2026 2012 1994 1973 1947 1930 1920 1918 1917 1914 1914 1913 1910 1906 1903 1894 1886 1883 1884 1887 1891 1896 1899 1901 1902 1901 1900 1901 1902 1905 1909 1914 1922 1930 1933 1935 1939 1936 1927 1924 1919 1910 1900 1892 1887 1882 1877 1875 1873 1873 1874 1874 1877 1881 1884 1886 1886 1887 1890 1895 1905 1920 1941 1958 1978 1995 2010 2024 2032 2038 2042 2045 2047 2052 2055 2058 2062 2070 2077 2075 2073 2071 2066 2056 2033 1995 1963 1930 1905 1890 1878 1866 1858 1852 1850 1854 1865 1881 1910 1956 1997 2024 2040 2048 2051 2051 2053 2057 2058 2063 2070 2047 1985 1946 1912 1891 1882 1877 1874 1870 1863 1865 1871 1882 1899 1923 1954 1983 2010 2045 2070 2075 2080 2092 2102 2107 2112 2110 2107 2098 2081 2062 2046 2025 1982 1951 1948 1945 1938 1931 1920 1918 1931 1945 1955 1966 1981 1995 2010 2021 2048 2069 2084 2109 2126 2147 2161 2177 2189 2200 2212 2226 2238 2246 2252 2256 2257 2258 2258 2259 2258 2259 2256 2241 2213 2190 2165 2131 2113 2086 2048 2022 2011 2005 2013 2035 2069 2088 2104 2127 2147 2170 2188 2203 2223 2238 2244 2245 2244 2242 2240 2237 2232 2227 2221 2212 2200 2187 2174 2162 2151 2140 2129 2121 2118 2109 2080 2060 2045 2041 2038 2035 2031 2025 2016 2006 2001 1999 1995 1992 1991 1990 1988 1987 1986 1985 1982 1980 1980 1981 1981
 423 422 422 421 421 422 422 423 423 422 422 423 425 427 428 428 427 427 426 427 428 428 428 429 430 429 429 429 430 431 433 434 431 431 433 434 435 437 438 435 434 435 436 435 437 439 440 440 442 445 445 446 449 452 456 461 463 463 465 472 484 501 513 521 532 544 558 575 577 581 591 614 634 652 672 690 715 744 758 765 773 784 804 840 862 885 906 921 943 959 974 991 1005 1019 1039 1065 1084 1105 1127 1144 1166 1185 1192 1202 1216 1227 1235 1247 1264 1291 1313 1331 1353 1373 1386 1398 1408 1412 1412 1411 1410 1421 1421 1419 1416 1415 1412 1412 1412 1416 1422 1430 1430 1424 1421 1428 1440 1441 1440 1436 1433 1431 1424 1414 1410 1418 1426 1433 1443 1449 1453 1459 1470 1478 1488 1492 1488 1477 1466 1453 1444 1431 1420 1413 1412 1410 1401 1391 1385 1373 1363 1348 1348 1353 1352 1352 1348 1346 1346 1343 1331 1303 1279 1272 1258 1248 1250 1254 1252 1245 1231 1221 1221 1229 1234 1234 1228 1216 1208 1198 1188 1178 1169 1159 1152 1145 1140 1123 1111 1121 1124 1119 1107 1097 1087 1075 1066 1058 1054 1053 1051 1048 1044 1037 1030 1028 1033 1038 1038 1016 998 992 987 978 971 962 954 958 970 978 982 986 992 1001 1010 1016 1025 1032 1039 1045 1056 1064 1070 1080 1088 1097 1108 1119 1124 1129 1136 1141 1158 1177 1185 1196 1206 1206 1206 1213 1217 1220 1225 1227 1226 1227 1227 1234 1245 1250 1248 1252 1257 1267 1278 1284 1293 1306 1316 1327 1334 1339 1343 1348 1351 1353 1354 1353 1350 1345 1342 1337 1327 1319 1318 1314 1307 1299 1292 1287 1285 1284 1281 1279 1277 1277 1276 1276 1273 1269 1264 1259 1248 1238 1232 1225 1212 1203 1194 1184 1184 1178 1161 1144 1135 1128 1116 1105 1094 1082 1077 1074 1067 1058 1043 1038 1057 1066 1070 1078 1086 1097 1104 1106 1105 1101 1101 1103 1101 1100 1100 1100 1099 1099 1101 1099 1094 1093 1094 1096 1100 1099 1098 1096 1094 1095 1101 1099 1097 1099 1100 1103 1103 1101 1100 1097 1095 1093 1094 1093 1093 1093 1091 1091 1097 1099 1099 1100 1099 1099 1102 1103 1097 1095 1097 1099 1101 1102 1105 1107 1109 1106 1102 1103 1106 1108 1110 1116 1123 1126 1121 1119 1126 1135 1143 1156 1172 1182 1191 1196 1199 1204 1209 1217 1225 1229 1232 1238 1243 1246 1250 1254 1258 1260 1263 1273 1280 1281 1282 1283 1285 1285 1284 1285 1287 1292 1295 1300 1299 1296 1293 1291 1292 1291 1292 1290 1281 1275 1275 1273 1265 1248 1233 1227 1224 1221 1221 1223 1227 1234 1245 1259 1270 1283 1307 1328 1338 1349 1362 1372 1383 1387 1388 1391 1395 1398 1400 1401 1401 1402 1405 1409 1414 1411 1406 1402 1397 1391 1380 1372 1365 1359 1355 1341 1327 1316 1316 1311 1298 1289 1280 1278 1281 1287 1302 1312 1317 1328 1337 1347 1358 1365 1374 1384 1391 1399 1410 1416 1429 1440 1455 1461 1459 1460 1464 1469 1476 1487 1492 1490 1493 1493 1493 1499 1503 1506 1506 1508 1512 1518 1532 1540 1547 1551 1556 1562 1565 1568 1574 1582 1590 1595 1601 1607 1612 1618 1622 1628 1637 1645 1657 1665 1670 1677 1683 1690 1698 1687 1674 1664 1654 1645 1637 1628 1618 1607 1596 1587 1576 1567 1561 1556 1548 1537 1531 1525 1519 1508 1498 1488 1476 1470 1466 1462 1455 1451 1445 1440 1435 1430 1425 1419 1412 1407 1399 1387 1379 1375 1376 1381 1386 1394 1406 1424 1442 1447 1448 1457 1472 1483 1508 1527 1533 1536 1542 1549 1563 1573 1574 1571 1560 1548 1538 1532 1534 1555 1587 1604 1625 1651 1666 1673 1682 1693 1712 1722 1724 1732 1741 1743 1740 1741 1740 1733 1727 1723 1723 1725 1726 1727 1725 1725 1727 1727 1726 1727 1727 1732 1738 1741 1741 1739 1737 1734 1730 1730 1730 1734 1739 1744 1748 1750 1753 1758 1759 1759 1760 1765 1769 1773 1775 1778 1781 1785 1785 1780 1778 1777 1772 1763 1763 1762 1762 1762 1764 1769 1774 1779 1785 1791 1795 1794 1792 1794 1800 1804 1809 1808 1808 1811 1816 1820 1823 1826 1825 1822 1822 1823 1821 1824 1828 1835 1842 1854 1878 1898 1911 1922 1945 1968 1983 1994 2004 2009 2016 2018 2021 2023 2028 2031 2038 2039 2030 2016 1994 1973 1948 1935 1929 1927 1926 1925 1924 1920 1916 1910 1904 1896 1890 1888 1888 1890 1893 1898 1902 1905 1906 1905 1905 1905 1908 1914 1927 1935 1940 1943 1945 1947 1954 1958 1954 1949 1942 1929 1915 1904 1896 1890 1887 1884 1882 1883 1883 1884 1888 1892 1895 1896 1894 1897 1903 1908 1922 1944 1962 1977 1996 2012 2027 2040 2050 2059 2064 2065 2067 2069 2074 2076 2079 2084 2087 2087 2086 2086 2084 2073 2051 2008 1973 1942 1916 1899 1886 1872 1863 1857 1854 1858 1870 1887 1919 1965 2008 2036 2056 2063 2066 2066 2068 2074 2077 2085 2091 2065 2002 1957 1927 1905 1896 1891 1888 1883 1876 1876 1880 1891 1908 1929 1956 1981 2005 2037 2062 2072 2080 2093 2107 2116 2120 2119 2112 2101 2086 2065 2046 2036 2008 1973 1965 1959 1950 1944 1934 1935 1947 1961 1970 1980 1992 2011 2024 2035 2058 2077 2097 2124 2141 2162 2176 2190 2198 2207 2219 2233 2245 2253 2258 2263 2263 2263 2265 2265 2266 2265 2262 2251 2226 2206 2186 2152 2133 2117 2096 2077 2064 2066 2069 2077 2091 2099 2117 2135 2159 2183 2207 2228 2243 2249 2250 2249 2247 2245 2242 2237 2232 2224 2215 2205 2193 2178 2167 2156 2144 2135 2128 2121 2118 2100 2073 2056 2043 2039 2034 2029 2023 2015 2006 2003 2002 2000 1995 1992 1991 1991 1991 1991 1991 1990 1990 1990 1991 1992 1991
 421 421 420 417 417 421 423 424 425 424 422 422 424 425 427 428 428 427 426 426 427 428 428 428 429 430 430 429 429 431 433 432 431 431 433 434 433 433 433 434 434 432 431 429 429 433 436 438 440 442 443 446 449 451 453 456 459 463 468 483 507 517 522 528 541 553 567 583 588 595 612 638 652 671 696 719 741 756 765 772 780 793 819 843 864 883 902 918 938 953 967 988 1004 1019 1036 1061 1075 1090 1112 1139 1171 1183 1186 1197 1215 1229 1241 1254 1274 1306 1329 1347 1366 1382 1392 1395 1393 1385 1382 1377 1378 1394 1395 1395 1397 1398 1397 1400 1406 1406 1404 1408 1405 1407 1411 1418 1426 1427 1425 1420 1415 1412 1400 1392 1397 1408 1413 1417 1425 1434 1439 1446 1458 1470 1479 1480 1474 1465 1452 1439 1424 1405 1397 1393 1388 1387 1384 1376 1365 1356 1343 1325 1323 1334 1338 1340 1341 1337 1324 1310 1296 1272 1250 1236 1232 1228 1224 1227 1225 1217 1203 1198 1202 1204 1204 1210 1213 1208 1205 1195 1181 1169 1160 1152 1149 1146 1142 1124 1102 1101 1111 1115 1103 1091 1079 1067 1059 1052 1046 1044 1041 1037 1032 1026 1021 1016 1021 1031 1027 1006 991 985 976 963 955 951 953 963 971 973 976 983 990 1001 1010 1015 1019 1026 1032 1040 1049 1058 1066 1074 1079 1084 1091 1098 1103 1112 1122 1131 1141 1161 1169 1176 1187 1191 1197 1204 1210 1213 1220 1223 1222 1216 1214 1216 1219 1226 1233 1242 1251 1263 1276 1284 1297 1312 1325 1340 1348 1352 1357 1365 1369 1369 1363 1358 1352 1344 1335 1324 1310 1303 1297 1286 1282 1277 1273 1270 1266 1262 1263 1262 1259 1257 1255 1252 1251 1245 1242 1236 1228 1222 1217 1212 1208 1204 1192 1173 1169 1161 1149 1128 1118 1111 1102 1090 1082 1075 1068 1062 1060 1056 1044 1030 1036 1058 1065 1073 1084 1089 1093 1094 1093 1091 1093 1096 1096 1095 1094 1092 1091 1090 1087 1085 1087 1088 1089 1091 1089 1090 1089 1085 1085 1087 1089 1089 1088 1088 1089 1092 1094 1091 1089 1088 1089 1088 1086 1085 1084 1082 1084 1085 1087 1093 1095 1097 1095 1092 1091 1091 1090 1091 1093 1097 1098 1096 1096 1100 1097 1093 1098 1103 1104 1103 1107 1115 1120 1119 1120 1124 1132 1139 1152 1166 1174 1177 1182 1189 1198 1205 1211 1218 1222 1228 1233 1237 1239 1243 1247 1251 1253 1254 1258 1268 1273 1277 1280 1283 1286 1285 1282 1283 1285 1287 1290 1292 1291 1287 1285 1285 1285 1285 1285 1280 1271 1266 1262 1261 1248 1228 1218 1216 1216 1218 1221 1230 1239 1253 1267 1280 1297 1314 1327 1337 1353 1373 1389 1394 1394 1393 1394 1398 1403 1403 1403 1402 1403 1405 1409 1411 1411 1407 1401 1396 1387 1378 1366 1357 1352 1345 1333 1325 1316 1309 1302 1296 1293 1282 1276 1279 1283 1291 1307 1317 1321 1332 1341 1351 1359 1367 1375 1383 1391 1399 1408 1416 1428 1439 1445 1445 1447 1450 1456 1460 1466 1474 1475 1474 1480 1485 1488 1494 1499 1497 1497 1502 1511 1521 1532 1534 1538 1543 1547 1551 1557 1562 1570 1584 1591 1595 1601 1602 1604 1610 1616 1622 1630 1638 1651 1660 1663 1668 1673 1677 1687 1683 1671 1656 1644 1637 1628 1620 1613 1603 1591 1584 1574 1564 1559 1552 1544 1537 1530 1522 1516 1505 1495 1486 1480 1473 1469 1466 1459 1452 1446 1442 1438 1432 1428 1424 1416 1408 1396 1385 1381 1384 1390 1400 1409 1418 1430 1442 1455 1464 1468 1478 1496 1510 1534 1549 1552 1560 1568 1574 1585 1592 1596 1596 1585 1569 1556 1545 1548 1570 1598 1616 1647 1674 1681 1687 1693 1702 1723 1735 1740 1745 1748 1749 1748 1748 1748 1745 1738 1732 1729 1731 1734 1736 1735 1732 1732 1735 1737 1740 1742 1747 1750 1750 1749 1748 1748 1746 1740 1738 1739 1743 1750 1757 1762 1765 1766 1768 1769 1769 1769 1774 1777 1779 1780 1783 1788 1792 1791 1787 1786 1787 1782 1777 1777 1775 1771 1771 1777 1781 1783 1788 1795 1797 1802 1803 1800 1800 1805 1811 1815 1813 1812 1814 1821 1825 1828 1833 1837 1833 1831 1830 1833 1837 1844 1848 1853 1867 1890 1911 1921 1935 1962 1979 1990 2004 2011 2018 2025 2029 2033 2038 2040 2042 2049 2045 2034 2016 1992 1971 1952 1943 1938 1938 1936 1933 1930 1927 1919 1912 1906 1899 1895 1895 1896 1898 1903 1907 1908 1909 1911 1916 1918 1920 1923 1934 1951 1955 1957 1959 1962 1969 1979 1988 1981 1973 1968 1953 1931 1919 1911 1902 1896 1894 1890 1888 1888 1893 1899 1903 1906 1907 1908 1911 1916 1924 1946 1972 1990 2006 2024 2040 2049 2060 2071 2080 2085 2089 2091 2090 2094 2095 2098 2104 2107 2106 2108 2108 2106 2098 2073 2022 1992 1964 1937 1922 1900 1884 1875 1866 1862 1867 1880 1897 1920 1966 2015 2052 2074 2082 2082 2085 2089 2092 2095 2102 2105 2087 2025 1974 1938 1922 1911 1906 1902 1897 1891 1890 1895 1905 1921 1941 1962 1988 2010 2034 2053 2069 2086 2094 2102 2113 2122 2122 2111 2098 2084 2062 2043 2030 2011 1989 1979 1973 1964 1956 1951 1954 1961 1974 1985 1995 2009 2026 2035 2046 2067 2087 2108 2129 2144 2163 2175 2190 2202 2213 2223 2239 2251 2259 2264 2267 2269 2270 2272 2272 2273 2273 2268 2262 2249 2229 2208 2186 2158 2140 2132 2127 2122 2115 2106 2101 2106 2115 2133 2148 2169 2193 2220 2240 2252 2253 2252 2251 2249 2246 2243 2238 2232 2221 2209 2198 2185 2171 2162 2152 2143 2135 2126 2121 2110 2079 2061 2048 2041 2036 2029 2021 2013 2007 2004 2005 2005 2002 1999 1997 1997 1999 2000 2002 2002 2002 2002 2002 2001 1999 1996
 420 421 420 418 416 420 423 424 425 424 423 422 423 425 426 427 428 427 428 428 428 427 427 427 428 432 433 431 428 429 431 431 430 430 431 432 432 432 432 432 433 430 424 421 421 427 436 438 439 434 435 444 448 449 451 454 458 463 474 494 511 521 528 539 556 569 582 602 615 625 643 659 676 686 704 730 747 759 771 784 799 811 829 846 862 877 894 907 927 946 962 983 1001 1012 1028 1049 1061 1079 1104 1133 1170 1176 1180 1194 1213 1227 1242 1261 1287 1316 1340 1358 1367 1369 1371 1366 1363 1360 1360 1361 1358 1369 1383 1387 1390 1389 1383 1383 1388 1382 1377 1382 1386 1391 1397 1400 1397 1399 1402 1401 1395 1383 1371 1378 1385 1393 1396 1403 1411 1424 1432 1443 1453 1463 1470 1466 1458 1445 1425 1413 1394 1369 1354 1348 1353 1359 1362 1355 1348 1337 1319 1308 1314 1323 1329 1331 1327 1319 1302 1286 1271 1253 1230 1214 1214 1214 1203 1205 1201 1188 1183 1180 1179 1187 1196 1202 1204 1199 1194 1186 1174 1162 1154 1148 1145 1140 1137 1128 1105 1083 1082 1099 1099 1089 1074 1062 1053 1044 1037 1034 1031 1027 1025 1022 1014 1004 1005 1015 1008 997 987 979 968 954 944 936 943 957 969 972 976 984 990 998 1010 1014 1016 1021 1028 1035 1044 1049 1055 1063 1071 1074 1080 1086 1092 1100 1107 1115 1128 1145 1157 1166 1175 1176 1182 1191 1198 1203 1201 1206 1210 1206 1204 1202 1198 1205 1219 1238 1254 1268 1280 1290 1306 1321 1335 1353 1364 1371 1380 1387 1391 1388 1378 1369 1358 1344 1334 1321 1299 1285 1273 1259 1257 1256 1254 1248 1243 1245 1248 1250 1247 1242 1235 1229 1226 1229 1231 1227 1221 1213 1208 1206 1203 1195 1176 1155 1147 1143 1129 1117 1108 1098 1091 1083 1079 1073 1066 1059 1055 1051 1045 1028 1021 1040 1057 1069 1080 1083 1085 1085 1086 1087 1087 1086 1084 1082 1080 1080 1080 1079 1078 1074 1075 1078 1078 1080 1082 1082 1080 1078 1078 1080 1084 1083 1079 1079 1080 1080 1081 1081 1081 1082 1082 1079 1077 1077 1079 1078 1076 1077 1080 1085 1088 1089 1086 1083 1083 1085 1087 1088 1091 1092 1090 1085 1085 1088 1089 1089 1096 1099 1096 1094 1099 1106 1114 1121 1131 1138 1139 1146 1156 1164 1171 1175 1182 1189 1199 1205 1212 1220 1226 1229 1233 1238 1238 1239 1241 1245 1248 1250 1253 1261 1267 1271 1273 1274 1278 1281 1281 1280 1280 1282 1282 1282 1281 1281 1281 1281 1282 1283 1277 1267 1255 1249 1245 1240 1226 1215 1212 1215 1216 1217 1225 1239 1258 1273 1285 1307 1326 1337 1351 1362 1379 1393 1400 1402 1405 1406 1406 1403 1402 1404 1406 1405 1405 1408 1409 1408 1405 1401 1396 1386 1371 1361 1354 1347 1339 1331 1320 1314 1306 1299 1293 1287 1282 1276 1276 1280 1287 1292 1302 1317 1325 1335 1340 1349 1356 1364 1372 1379 1388 1397 1405 1415 1421 1425 1424 1427 1435 1440 1446 1451 1453 1458 1463 1468 1472 1480 1482 1484 1484 1481 1484 1498 1511 1518 1522 1524 1529 1534 1537 1541 1548 1555 1564 1575 1582 1586 1590 1590 1593 1598 1603 1609 1617 1626 1637 1650 1656 1661 1664 1667 1671 1676 1673 1652 1642 1635 1627 1618 1612 1603 1589 1583 1577 1570 1562 1553 1546 1538 1529 1522 1516 1509 1500 1491 1486 1479 1473 1469 1464 1458 1451 1444 1442 1437 1431 1426 1418 1403 1394 1390 1395 1406 1416 1424 1427 1435 1443 1453 1466 1477 1488 1503 1518 1532 1551 1563 1572 1583 1595 1604 1614 1622 1625 1617 1608 1595 1582 1568 1568 1588 1615 1644 1673 1690 1698 1706 1713 1723 1735 1744 1750 1754 1753 1752 1755 1755 1754 1753 1751 1746 1741 1744 1747 1747 1743 1739 1738 1742 1747 1752 1759 1759 1757 1755 1757 1757 1755 1753 1750 1750 1752 1754 1760 1766 1771 1775 1775 1776 1779 1779 1781 1786 1788 1790 1791 1794 1796 1798 1797 1796 1796 1793 1789 1788 1789 1788 1782 1779 1787 1789 1792 1799 1804 1806 1808 1810 1811 1809 1810 1814 1815 1816 1816 1819 1827 1832 1837 1843 1843 1840 1837 1838 1843 1847 1854 1860 1868 1880 1899 1923 1934 1949 1970 1984 2000 2016 2023 2031 2036 2040 2042 2046 2050 2054 2056 2052 2040 2021 1999 1977 1960 1953 1949 1948 1948 1944 1936 1931 1921 1915 1912 1906 1901 1901 1903 1909 1915 1916 1917 1916 1918 1924 1928 1934 1941 1955 1966 1971 1974 1978 1987 1996 2006 2023 2021 2005 1994 1984 1961 1937 1925 1916 1908 1906 1904 1900 1897 1901 1908 1911 1912 1912 1914 1921 1931 1950 1980 2004 2016 2028 2045 2059 2072 2080 2090 2097 2103 2106 2109 2111 2112 2112 2116 2120 2124 2128 2127 2125 2124 2115 2091 2046 2020 2002 1965 1941 1919 1900 1889 1881 1876 1879 1893 1905 1923 1983 2038 2069 2094 2101 2103 2108 2113 2113 2118 2127 2122 2103 2047 1993 1956 1941 1932 1926 1922 1915 1906 1904 1910 1920 1935 1951 1972 1998 2026 2054 2069 2083 2099 2101 2099 2104 2109 2106 2099 2085 2069 2049 2026 2012 2000 1988 1982 1978 1971 1967 1963 1963 1971 1986 1997 2008 2020 2035 2044 2058 2078 2095 2110 2126 2142 2157 2172 2183 2196 2214 2223 2241 2255 2264 2270 2274 2276 2277 2277 2277 2278 2279 2277 2273 2267 2256 2240 2226 2208 2175 2157 2152 2147 2139 2133 2133 2140 2144 2157 2176 2192 2210 2240 2254 2258 2256 2255 2253 2251 2248 2243 2238 2232 2223 2207 2195 2181 2169 2161 2152 2142 2131 2119 2109 2089 2064 2051 2044 2041 2036 2029 2022 2013 2009 2010 2014 2016 2015 2012 2011 2013 2013 2013 2013 2013 2012 2010 2007 2004 2001 1998
 420 420 421 420 420 421 423 424 425 425 423 422 422 424 426 427 427 427 428 427 428 427 426 425 425 430 432 431 430 429 429 430 429 430 432 433 433 433 433 433 432 428 419 415 417 427 435 436 435 431 430 440 447 449 453 461 470 479 488 499 513 524 534 548 566 581 600 617 628 646 666 684 693 692 701 724 748 758 777 795 807 820 834 847 859 872 889 897 909 930 947 969 988 1000 1019 1039 1060 1094 1124 1153 1174 1178 1184 1196 1215 1230 1249 1267 1291 1320 1341 1352 1359 1359 1355 1353 1350 1349 1352 1352 1351 1363 1375 1376 1373 1366 1359 1364 1366 1361 1360 1366 1371 1376 1380 1381 1380 1378 1379 1379 1371 1359 1358 1374 1381 1384 1388 1394 1405 1417 1427 1439 1450 1458 1461 1452 1439 1424 1414 1402 1378 1349 1331 1330 1340 1343 1345 1346 1341 1331 1309 1298 1303 1316 1320 1316 1306 1298 1284 1271 1255 1238 1224 1210 1204 1206 1195 1183 1175 1169 1167 1162 1162 1179 1193 1198 1199 1193 1187 1180 1163 1153 1148 1146 1140 1136 1131 1119 1105 1080 1067 1077 1089 1081 1065 1056 1050 1040 1034 1034 1029 1023 1020 1016 1007 1000 998 994 987 983 977 968 959 947 936 925 934 945 958 971 975 984 989 996 1007 1011 1013 1015 1022 1029 1037 1042 1047 1057 1065 1068 1073 1078 1083 1093 1101 1107 1117 1132 1144 1152 1159 1157 1160 1166 1173 1179 1185 1192 1193 1189 1187 1191 1193 1199 1213 1236 1256 1273 1285 1297 1313 1328 1342 1359 1377 1390 1399 1401 1400 1395 1386 1377 1363 1347 1337 1322 1294 1280 1266 1248 1240 1239 1241 1237 1230 1227 1226 1222 1217 1217 1219 1220 1214 1219 1221 1215 1206 1190 1183 1180 1174 1165 1154 1141 1132 1124 1116 1111 1104 1094 1088 1079 1071 1067 1059 1052 1047 1043 1040 1031 1015 1022 1045 1063 1074 1076 1078 1079 1077 1077 1077 1076 1072 1072 1073 1073 1072 1074 1073 1069 1069 1071 1075 1076 1077 1077 1076 1074 1072 1072 1076 1078 1075 1074 1075 1074 1074 1075 1077 1076 1073 1073 1072 1071 1073 1073 1071 1071 1074 1077 1079 1080 1078 1077 1080 1082 1083 1084 1086 1084 1082 1080 1082 1083 1084 1084 1084 1087 1089 1090 1094 1100 1110 1125 1137 1142 1145 1149 1154 1164 1171 1176 1183 1193 1201 1206 1210 1217 1223 1228 1231 1234 1236 1237 1238 1243 1247 1250 1251 1255 1259 1263 1266 1271 1277 1279 1277 1273 1269 1269 1268 1267 1270 1272 1273 1275 1275 1269 1260 1245 1236 1231 1229 1227 1217 1210 1210 1216 1219 1222 1233 1252 1270 1285 1306 1327 1341 1357 1376 1390 1399 1404 1405 1406 1408 1407 1404 1401 1401 1403 1404 1404 1405 1408 1408 1405 1400 1394 1389 1374 1357 1352 1345 1338 1328 1322 1312 1306 1297 1291 1284 1279 1274 1274 1277 1282 1290 1295 1306 1317 1328 1334 1339 1347 1353 1360 1369 1377 1386 1394 1403 1408 1407 1412 1413 1419 1427 1432 1437 1442 1446 1449 1456 1463 1468 1472 1473 1473 1475 1477 1481 1489 1499 1506 1511 1518 1525 1531 1535 1539 1546 1551 1556 1565 1572 1576 1580 1582 1584 1592 1598 1603 1610 1618 1626 1637 1646 1653 1656 1660 1665 1669 1671 1660 1646 1640 1633 1623 1616 1607 1598 1593 1589 1582 1573 1562 1554 1545 1534 1528 1524 1516 1510 1501 1491 1482 1475 1468 1462 1457 1449 1443 1440 1436 1431 1425 1414 1407 1404 1407 1423 1438 1448 1445 1443 1447 1456 1466 1480 1495 1506 1517 1531 1547 1565 1579 1589 1605 1623 1632 1643 1653 1653 1640 1627 1616 1602 1586 1589 1607 1639 1665 1684 1700 1711 1724 1733 1740 1746 1749 1757 1762 1762 1758 1758 1760 1761 1760 1757 1754 1748 1749 1751 1753 1751 1747 1745 1752 1756 1763 1768 1768 1767 1764 1763 1764 1765 1760 1756 1756 1762 1769 1771 1775 1779 1783 1782 1783 1785 1789 1795 1799 1801 1801 1798 1798 1799 1799 1800 1801 1802 1800 1796 1797 1797 1796 1792 1788 1791 1795 1799 1808 1813 1813 1815 1817 1817 1815 1813 1814 1814 1814 1816 1819 1828 1838 1847 1851 1850 1844 1843 1847 1851 1856 1863 1869 1877 1889 1909 1934 1946 1960 1976 1990 2008 2024 2031 2039 2045 2048 2051 2055 2057 2064 2068 2064 2048 2026 2005 1984 1970 1963 1959 1957 1956 1954 1946 1936 1928 1921 1918 1914 1910 1907 1908 1913 1917 1919 1920 1922 1925 1932 1940 1949 1958 1970 1980 1987 1991 1995 2005 2013 2033 2046 2045 2033 2018 2001 1976 1948 1936 1924 1916 1912 1911 1910 1910 1909 1914 1917 1918 1919 1921 1932 1948 1980 2009 2023 2032 2044 2058 2073 2091 2100 2108 2116 2123 2129 2130 2128 2125 2127 2130 2134 2138 2140 2142 2141 2135 2125 2103 2066 2042 2026 1998 1956 1930 1913 1901 1892 1889 1894 1903 1911 1937 2005 2057 2086 2106 2115 2118 2123 2129 2132 2140 2140 2131 2109 2059 2001 1968 1954 1947 1942 1939 1933 1922 1918 1924 1933 1947 1961 1980 2014 2054 2089 2104 2109 2106 2098 2095 2095 2093 2087 2079 2064 2048 2027 2007 1994 1985 1981 1980 1977 1972 1972 1970 1972 1981 1999 2011 2019 2030 2046 2054 2071 2084 2095 2110 2125 2141 2156 2175 2186 2197 2213 2226 2245 2260 2268 2276 2280 2282 2283 2283 2284 2285 2285 2285 2283 2281 2279 2273 2258 2242 2219 2194 2180 2167 2160 2161 2176 2186 2185 2193 2206 2213 2230 2253 2263 2263 2259 2257 2255 2252 2249 2244 2238 2231 2222 2208 2193 2180 2170 2160 2146 2134 2123 2108 2089 2072 2057 2048 2045 2044 2041 2037 2030 2023 2020 2024 2031 2035 2033 2028 2026 2025 2023 2021 2019 2018 2017 2014 2009 2005 2002 2000
 421 420 421 421 421 422 423 425 426 426 424 422 422 423 426 426 426 426 424 425 426 426 428 428 424 425 429 429 429 432 432 431 430 429 431 431 430 429 429 427 424 423 415 409 412 428 433 427 424 430 436 444 453 461 474 490 496 499 505 515 528 541 553 568 588 603 616 626 637 661 688 698 706 713 717 734 754 768 783 799 810 822 835 849 861 873 884 896 912 927 936 949 965 983 1006 1037 1074 1115 1144 1165 1178 1182 1192 1213 1225 1234 1250 1267 1285 1313 1332 1340 1350 1352 1351 1353 1353 1353 1352 1351 1351 1354 1358 1359 1360 1353 1346 1341 1342 1339 1340 1343 1347 1357 1362 1367 1369 1367 1365 1357 1345 1342 1353 1368 1374 1378 1381 1386 1399 1413 1424 1433 1443 1447 1446 1434 1425 1418 1407 1394 1379 1365 1351 1345 1344 1339 1336 1341 1339 1335 1322 1303 1294 1297 1299 1291 1280 1270 1260 1245 1229 1216 1209 1202 1192 1188 1184 1165 1154 1149 1146 1145 1147 1160 1182 1189 1192 1182 1170 1158 1151 1146 1139 1135 1130 1123 1109 1099 1091 1070 1047 1048 1063 1061 1056 1052 1048 1038 1031 1029 1022 1019 1018 1013 1002 996 988 975 965 958 960 959 946 932 927 919 927 943 959 969 970 973 984 989 997 1004 1009 1012 1014 1018 1025 1035 1044 1052 1055 1059 1067 1072 1076 1084 1092 1095 1104 1111 1119 1129 1136 1140 1145 1150 1152 1153 1157 1161 1163 1170 1178 1187 1193 1200 1217 1240 1259 1277 1290 1304 1321 1341 1356 1374 1397 1409 1412 1407 1401 1395 1388 1380 1366 1349 1334 1319 1290 1275 1262 1245 1233 1228 1216 1209 1202 1199 1198 1195 1195 1200 1201 1202 1202 1202 1197 1186 1174 1167 1164 1161 1155 1150 1140 1129 1123 1120 1113 1106 1099 1093 1091 1085 1070 1059 1052 1043 1038 1034 1030 1029 1014 1014 1038 1058 1068 1068 1068 1067 1067 1067 1065 1063 1061 1062 1064 1064 1064 1066 1068 1065 1063 1067 1068 1066 1065 1066 1067 1065 1063 1064 1067 1071 1072 1070 1068 1069 1069 1068 1068 1068 1068 1068 1066 1065 1067 1068 1068 1068 1068 1069 1071 1071 1071 1075 1080 1082 1083 1082 1082 1081 1080 1080 1081 1081 1080 1080 1081 1085 1087 1091 1101 1109 1117 1130 1134 1140 1147 1152 1156 1161 1171 1179 1188 1195 1199 1201 1204 1210 1217 1221 1224 1227 1231 1238 1240 1242 1246 1247 1248 1252 1258 1260 1263 1268 1272 1271 1266 1263 1261 1260 1260 1260 1262 1265 1264 1259 1254 1244 1233 1226 1222 1221 1220 1216 1207 1204 1207 1214 1222 1228 1242 1260 1284 1304 1322 1341 1360 1373 1391 1402 1406 1409 1408 1406 1403 1403 1401 1399 1400 1399 1398 1400 1402 1403 1402 1397 1392 1381 1372 1362 1351 1342 1336 1329 1321 1313 1304 1298 1293 1284 1277 1274 1273 1275 1282 1291 1294 1301 1315 1323 1328 1334 1340 1346 1352 1358 1366 1375 1384 1390 1392 1394 1396 1402 1408 1412 1419 1423 1429 1435 1439 1446 1454 1458 1461 1464 1466 1469 1471 1474 1480 1486 1493 1499 1508 1520 1528 1532 1536 1538 1541 1545 1549 1553 1557 1562 1567 1570 1576 1584 1595 1600 1605 1611 1617 1625 1635 1642 1646 1649 1652 1656 1663 1666 1660 1649 1640 1631 1625 1618 1612 1604 1597 1590 1583 1574 1568 1559 1547 1541 1534 1526 1518 1508 1496 1486 1477 1466 1456 1449 1444 1441 1436 1430 1425 1421 1418 1419 1422 1433 1452 1463 1474 1475 1468 1474 1479 1487 1504 1516 1525 1540 1555 1570 1589 1603 1617 1636 1659 1670 1673 1677 1677 1668 1649 1638 1627 1616 1621 1636 1667 1688 1702 1713 1726 1742 1750 1757 1760 1764 1770 1770 1769 1768 1768 1768 1770 1770 1768 1765 1759 1758 1759 1759 1758 1755 1755 1762 1766 1771 1776 1776 1776 1776 1777 1776 1773 1769 1763 1766 1774 1782 1785 1786 1789 1790 1791 1792 1797 1801 1805 1806 1809 1814 1813 1807 1802 1800 1799 1802 1805 1805 1803 1805 1806 1807 1806 1804 1801 1801 1807 1818 1822 1824 1824 1824 1824 1820 1814 1814 1814 1815 1817 1821 1833 1848 1857 1857 1855 1851 1851 1856 1860 1865 1871 1876 1886 1900 1924 1944 1956 1971 1984 2000 2018 2035 2045 2051 2056 2059 2063 2066 2070 2076 2080 2076 2058 2028 2011 1995 1983 1977 1971 1965 1963 1960 1952 1942 1932 1928 1926 1923 1919 1916 1914 1915 1917 1920 1924 1928 1934 1944 1957 1965 1976 1989 2000 2006 2010 2015 2025 2037 2062 2071 2068 2057 2043 2020 1986 1961 1948 1936 1927 1922 1920 1920 1920 1922 1927 1928 1928 1926 1928 1942 1964 2009 2034 2045 2054 2064 2079 2098 2110 2117 2127 2138 2147 2151 2150 2149 2150 2149 2149 2151 2155 2161 2162 2161 2155 2145 2121 2086 2065 2048 2025 1982 1942 1924 1915 1903 1899 1905 1913 1926 1953 2019 2072 2101 2121 2131 2139 2143 2147 2154 2159 2150 2136 2108 2059 2012 1986 1972 1964 1955 1947 1944 1940 1935 1939 1951 1965 1980 2001 2041 2080 2114 2133 2130 2102 2078 2071 2074 2073 2065 2049 2040 2027 2004 1985 1973 1969 1970 1972 1971 1971 1975 1980 1986 1993 2010 2024 2033 2046 2054 2064 2079 2087 2098 2112 2125 2140 2156 2176 2189 2201 2217 2234 2247 2264 2275 2282 2286 2288 2290 2290 2291 2292 2291 2292 2291 2293 2294 2293 2287 2275 2258 2242 2226 2212 2206 2211 2220 2224 2226 2229 2234 2241 2251 2259 2262 2262 2259 2258 2255 2253 2249 2245 2237 2230 2221 2209 2196 2179 2167 2155 2141 2128 2120 2098 2078 2068 2057 2051 2048 2048 2047 2046 2043 2040 2041 2044 2050 2050 2047 2042 2038 2033 2030 2030 2030 2028 2025 2021 2015 2010 2005 2002
 420 420 422 422 422 423 423 425 427 427 426 424 422 423 425 426 425 423 420 422 426 426 427 428 426 424 427 428 428 431 431 430 431 430 431 430 428 428 426 419 412 408 406 408 426 438 437 433 430 435 447 459 477 493 503 511 518 523 529 544 562 581 594 606 617 628 634 642 655 674 685 692 702 707 716 737 754 768 780 793 808 819 834 849 863 877 889 904 921 943 959 973 985 999 1027 1060 1091 1120 1144 1166 1177 1187 1206 1221 1231 1241 1251 1268 1280 1299 1317 1325 1332 1334 1339 1346 1347 1344 1339 1340 1342 1345 1350 1351 1348 1335 1319 1316 1313 1309 1316 1323 1329 1337 1343 1344 1344 1344 1341 1334 1331 1333 1339 1348 1355 1365 1375 1384 1398 1409 1420 1427 1430 1423 1418 1417 1413 1404 1391 1384 1378 1369 1360 1350 1344 1337 1330 1331 1333 1329 1318 1305 1280 1260 1254 1257 1251 1239 1224 1209 1197 1187 1187 1183 1177 1168 1164 1149 1138 1133 1128 1127 1134 1145 1162 1176 1178 1175 1164 1153 1143 1135 1117 1108 1104 1090 1082 1077 1064 1039 1025 1034 1048 1057 1056 1054 1051 1042 1032 1021 1004 1003 1012 1010 998 989 981 971 962 957 958 956 944 930 922 912 926 945 957 959 964 969 974 980 985 993 1003 1010 1011 1014 1015 1021 1037 1057 1057 1051 1054 1057 1056 1060 1068 1070 1083 1093 1102 1114 1120 1126 1130 1132 1126 1117 1121 1133 1152 1166 1175 1186 1195 1206 1228 1250 1265 1281 1299 1316 1341 1363 1377 1393 1409 1415 1412 1404 1396 1388 1382 1375 1361 1340 1327 1311 1286 1271 1258 1234 1220 1209 1198 1192 1184 1182 1182 1182 1184 1186 1185 1181 1179 1175 1171 1169 1163 1157 1153 1148 1142 1133 1124 1116 1117 1116 1103 1089 1083 1085 1090 1088 1069 1052 1041 1034 1031 1027 1024 1021 1007 1013 1031 1048 1057 1057 1055 1056 1056 1056 1056 1056 1057 1056 1056 1056 1055 1056 1057 1054 1051 1055 1058 1056 1056 1057 1057 1054 1055 1055 1060 1061 1061 1060 1059 1057 1057 1060 1061 1062 1062 1062 1060 1059 1058 1057 1059 1063 1066 1065 1065 1064 1064 1069 1076 1079 1080 1080 1080 1077 1073 1076 1078 1081 1080 1080 1084 1089 1096 1107 1112 1115 1124 1134 1135 1141 1151 1155 1157 1166 1173 1180 1185 1188 1191 1193 1197 1207 1211 1215 1218 1219 1223 1230 1234 1235 1237 1243 1247 1253 1259 1260 1260 1261 1262 1261 1257 1253 1250 1250 1252 1255 1253 1249 1245 1244 1240 1229 1216 1213 1211 1206 1204 1202 1201 1202 1209 1220 1229 1237 1251 1267 1294 1315 1331 1350 1367 1384 1395 1402 1405 1407 1406 1403 1401 1400 1398 1398 1399 1400 1401 1401 1400 1398 1393 1390 1387 1374 1365 1359 1347 1334 1329 1320 1311 1305 1300 1294 1286 1276 1272 1271 1274 1285 1299 1307 1306 1312 1318 1324 1332 1337 1340 1344 1349 1355 1361 1367 1369 1374 1381 1389 1392 1395 1400 1405 1410 1419 1423 1431 1437 1445 1450 1452 1455 1461 1463 1468 1474 1480 1486 1494 1499 1505 1513 1519 1524 1531 1534 1537 1537 1540 1544 1547 1551 1555 1559 1562 1565 1573 1583 1592 1596 1599 1607 1615 1621 1632 1636 1639 1642 1644 1652 1663 1667 1660 1648 1638 1631 1621 1612 1606 1601 1599 1593 1586 1577 1568 1554 1547 1542 1533 1523 1514 1499 1485 1476 1465 1456 1451 1446 1443 1439 1434 1432 1432 1433 1436 1442 1456 1472 1483 1491 1491 1488 1492 1504 1518 1532 1541 1551 1571 1583 1594 1607 1621 1640 1661 1682 1695 1700 1700 1697 1690 1674 1660 1650 1647 1651 1666 1694 1707 1718 1729 1744 1756 1765 1771 1774 1774 1774 1774 1774 1774 1776 1777 1777 1776 1775 1773 1766 1765 1766 1767 1768 1769 1768 1768 1772 1778 1783 1784 1785 1786 1786 1784 1781 1777 1773 1778 1782 1789 1794 1796 1798 1798 1799 1802 1807 1812 1816 1815 1816 1819 1821 1818 1810 1803 1800 1802 1806 1810 1815 1815 1816 1816 1817 1816 1811 1810 1815 1826 1835 1837 1836 1835 1834 1831 1822 1819 1820 1820 1821 1825 1838 1849 1857 1857 1856 1856 1857 1860 1866 1873 1879 1886 1898 1912 1935 1961 1974 1986 1999 2011 2029 2047 2056 2063 2069 2072 2075 2081 2087 2089 2093 2086 2066 2037 2021 2006 1998 1991 1987 1977 1969 1962 1954 1945 1938 1934 1932 1928 1923 1919 1917 1916 1918 1921 1926 1932 1942 1955 1967 1979 1993 2005 2019 2026 2029 2037 2052 2067 2085 2088 2086 2080 2071 2053 2008 1978 1962 1951 1943 1939 1935 1931 1932 1937 1938 1939 1936 1933 1937 1950 1977 2027 2055 2067 2076 2085 2105 2122 2132 2140 2150 2160 2166 2169 2170 2171 2171 2169 2167 2169 2171 2175 2179 2182 2178 2164 2141 2116 2095 2062 2020 1983 1957 1934 1925 1916 1914 1919 1928 1940 1964 2020 2068 2106 2132 2148 2159 2168 2177 2181 2177 2157 2132 2101 2066 2036 2014 2002 1990 1973 1951 1947 1951 1953 1958 1971 1989 2006 2029 2059 2082 2113 2133 2125 2075 2043 2032 2033 2031 2023 2013 2005 1993 1976 1960 1954 1953 1954 1956 1961 1968 1975 1986 1997 2005 2021 2034 2041 2050 2055 2062 2075 2086 2100 2115 2126 2138 2158 2172 2186 2202 2218 2234 2250 2268 2280 2289 2293 2294 2295 2296 2297 2297 2297 2297 2297 2299 2299 2299 2296 2293 2288 2282 2275 2266 2259 2259 2260 2257 2255 2251 2248 2249 2251 2252 2249 2248 2249 2250 2251 2250 2247 2244 2238 2232 2223 2210 2197 2180 2167 2153 2142 2131 2123 2101 2079 2071 2065 2060 2058 2056 2055 2054 2056 2059 2060 2060 2060 2058 2054 2049 2045 2041 2039 2039 2040 2037 2033 2026 2018 2013 2008 2004
 420 420 422 423 423 424 424 425 426 427 427 426 423 422 424 426 425 423 421 421 424 425 426 425 424 424 427 428 429 429 430 431 432 432 433 432 430 429 427 421 411 408 407 418 434 439 440 439 440 455 472 483 496 505 513 522 531 539 551 574 589 600 610 618 629 638 642 651 666 676 676 682 699 702 706 728 756 770 784 799 814 826 841 859 872 889 904 919 938 963 982 1001 1018 1039 1062 1089 1110 1131 1161 1175 1182 1195 1210 1220 1233 1244 1256 1270 1279 1294 1308 1316 1319 1321 1323 1327 1326 1322 1322 1330 1336 1338 1341 1340 1327 1314 1302 1295 1293 1290 1298 1311 1319 1326 1329 1329 1325 1315 1306 1302 1314 1323 1330 1339 1350 1362 1377 1384 1395 1408 1418 1426 1422 1412 1409 1409 1405 1396 1385 1378 1369 1358 1349 1341 1335 1330 1323 1320 1317 1309 1298 1282 1255 1236 1227 1227 1222 1212 1198 1183 1166 1154 1165 1170 1164 1148 1142 1136 1125 1118 1118 1117 1120 1132 1141 1150 1160 1158 1146 1139 1127 1119 1100 1086 1074 1069 1067 1055 1029 1009 1011 1025 1039 1053 1057 1051 1040 1028 1015 1001 987 985 991 992 989 982 977 974 966 960 957 957 950 931 916 903 919 939 948 952 961 969 969 976 979 988 1002 1009 1008 1009 1010 1014 1028 1057 1055 1045 1039 1037 1039 1042 1047 1052 1060 1070 1080 1099 1106 1105 1107 1109 1097 1099 1112 1132 1151 1165 1174 1184 1196 1212 1235 1255 1267 1285 1307 1328 1354 1374 1387 1402 1413 1414 1409 1398 1390 1382 1375 1365 1348 1328 1316 1300 1287 1273 1253 1223 1212 1202 1193 1183 1168 1163 1166 1169 1166 1163 1162 1161 1161 1161 1158 1156 1154 1150 1143 1136 1130 1123 1116 1108 1105 1099 1085 1076 1073 1071 1071 1066 1054 1044 1034 1028 1024 1024 1022 1015 1000 1011 1029 1041 1045 1044 1043 1043 1045 1047 1049 1051 1053 1053 1054 1053 1049 1046 1041 1042 1045 1049 1052 1050 1049 1050 1050 1049 1049 1050 1052 1053 1052 1051 1051 1051 1050 1052 1054 1057 1059 1060 1057 1054 1053 1053 1053 1055 1059 1059 1059 1058 1061 1067 1070 1071 1069 1071 1072 1070 1069 1071 1073 1075 1080 1087 1099 1105 1110 1113 1115 1119 1132 1139 1144 1149 1155 1157 1161 1167 1171 1174 1176 1179 1182 1187 1192 1199 1206 1210 1213 1214 1216 1218 1221 1226 1232 1238 1244 1250 1254 1252 1249 1251 1250 1247 1244 1242 1242 1240 1240 1240 1236 1234 1232 1232 1226 1210 1204 1203 1203 1200 1199 1200 1203 1207 1221 1230 1237 1246 1260 1273 1302 1322 1337 1357 1376 1387 1393 1399 1402 1404 1401 1398 1396 1394 1394 1396 1398 1401 1401 1399 1397 1392 1386 1379 1372 1366 1361 1351 1336 1324 1318 1307 1300 1299 1294 1287 1278 1271 1269 1269 1278 1290 1299 1308 1309 1313 1319 1325 1328 1332 1337 1340 1343 1348 1352 1359 1363 1371 1381 1385 1387 1389 1393 1400 1409 1418 1425 1430 1435 1438 1444 1448 1455 1463 1464 1469 1477 1484 1490 1497 1503 1507 1510 1513 1517 1524 1528 1533 1536 1539 1541 1545 1547 1550 1553 1555 1559 1564 1573 1582 1587 1592 1598 1605 1609 1618 1627 1629 1630 1633 1640 1656 1666 1667 1659 1645 1634 1620 1613 1611 1609 1607 1604 1596 1585 1576 1566 1560 1553 1540 1526 1515 1501 1486 1477 1467 1462 1459 1455 1452 1452 1447 1447 1447 1449 1457 1465 1479 1490 1499 1505 1508 1506 1511 1530 1543 1554 1562 1577 1594 1604 1613 1621 1634 1656 1681 1698 1707 1713 1719 1721 1713 1698 1688 1675 1672 1684 1701 1715 1723 1735 1745 1757 1767 1773 1776 1778 1778 1778 1778 1777 1779 1781 1784 1785 1787 1784 1779 1772 1768 1769 1771 1776 1780 1780 1777 1778 1784 1789 1790 1791 1791 1791 1791 1787 1784 1782 1785 1789 1797 1802 1804 1806 1806 1807 1811 1818 1821 1823 1824 1824 1825 1824 1822 1815 1806 1804 1807 1811 1818 1822 1824 1825 1825 1825 1826 1825 1821 1822 1830 1841 1845 1848 1845 1843 1840 1833 1828 1826 1826 1828 1832 1841 1847 1853 1855 1857 1858 1858 1860 1866 1875 1887 1900 1912 1926 1953 1975 1987 1997 2010 2021 2039 2056 2065 2072 2078 2083 2089 2095 2099 2103 2108 2100 2078 2051 2032 2015 2008 2004 1996 1987 1974 1962 1955 1950 1946 1940 1936 1932 1928 1924 1922 1921 1921 1924 1931 1939 1951 1965 1981 1997 2007 2022 2039 2045 2049 2060 2078 2092 2106 2111 2109 2105 2091 2069 2034 1990 1973 1961 1953 1949 1946 1942 1944 1946 1945 1947 1946 1943 1945 1959 1990 2037 2073 2086 2096 2104 2122 2140 2152 2162 2168 2177 2181 2182 2185 2186 2186 2185 2184 2185 2187 2193 2196 2199 2197 2184 2164 2137 2118 2073 2017 1985 1965 1946 1938 1929 1926 1931 1941 1961 1993 2037 2075 2096 2118 2144 2163 2175 2187 2189 2179 2151 2121 2096 2068 2047 2020 1998 1979 1949 1925 1933 1944 1952 1963 1984 2006 2022 2038 2055 2072 2090 2094 2067 2029 2010 1999 1992 1987 1982 1974 1966 1960 1952 1944 1941 1940 1940 1943 1950 1959 1966 1978 1993 2009 2030 2039 2043 2046 2047 2051 2065 2078 2092 2112 2126 2141 2158 2173 2188 2208 2224 2236 2252 2271 2285 2294 2297 2299 2299 2300 2301 2301 2300 2299 2298 2299 2300 2299 2298 2296 2295 2292 2287 2282 2277 2275 2272 2268 2264 2257 2248 2242 2235 2231 2225 2220 2217 2223 2236 2242 2243 2241 2239 2234 2227 2216 2203 2188 2168 2152 2143 2136 2127 2113 2090 2079 2074 2071 2068 2068 2068 2068 2067 2066 2065 2064 2063 2061 2056 2052 2049 2047 2045 2044 2042 2040 2037 2029 2020 2014 2009 2005
 419 420 421 422 423 424 424 425 425 426 428 427 423 422 424 426 426 423 421 421 421 421 423 423 423 424 426 427 427 429 430 431 432 432 430 430 430 430 430 429 425 422 422 428 432 437 445 454 464 477 488 496 505 514 523 535 550 563 578 592 601 610 620 627 636 641 649 659 665 670 670 685 709 719 721 743 767 786 800 813 826 836 851 864 877 893 909 925 944 968 988 1012 1037 1059 1082 1106 1130 1159 1173 1177 1187 1200 1209 1224 1238 1248 1255 1267 1278 1285 1294 1301 1304 1304 1302 1302 1300 1300 1305 1315 1324 1320 1315 1307 1302 1293 1278 1266 1265 1271 1280 1294 1302 1306 1303 1300 1296 1292 1290 1293 1299 1309 1324 1341 1354 1364 1376 1383 1392 1404 1418 1428 1426 1414 1404 1401 1393 1383 1373 1363 1350 1341 1333 1325 1317 1313 1305 1299 1290 1278 1258 1241 1227 1204 1192 1184 1182 1174 1154 1141 1138 1137 1144 1150 1144 1132 1116 1109 1105 1102 1103 1103 1106 1115 1125 1134 1140 1132 1124 1116 1101 1090 1077 1060 1049 1046 1029 1007 994 996 1006 1019 1025 1028 1025 1017 1005 992 985 982 972 966 967 964 963 962 962 967 966 957 953 953 942 925 908 893 912 925 937 950 961 965 964 969 976 985 999 1007 1004 1003 1005 1008 1018 1039 1031 1024 1022 1022 1023 1028 1032 1037 1041 1046 1056 1074 1080 1081 1082 1082 1083 1094 1109 1128 1149 1165 1175 1188 1202 1218 1240 1258 1273 1292 1315 1335 1357 1376 1391 1409 1416 1414 1405 1394 1384 1374 1363 1349 1332 1314 1303 1294 1280 1265 1247 1223 1206 1195 1185 1176 1160 1153 1150 1149 1146 1142 1144 1147 1147 1145 1143 1143 1142 1137 1132 1125 1120 1113 1101 1098 1100 1095 1080 1067 1061 1061 1058 1049 1042 1036 1031 1025 1016 1014 1015 1006 995 1004 1014 1027 1034 1034 1037 1036 1036 1039 1040 1042 1041 1041 1045 1049 1042 1035 1031 1031 1035 1038 1042 1042 1041 1042 1045 1043 1042 1043 1049 1050 1049 1048 1048 1048 1046 1044 1046 1049 1052 1050 1049 1049 1048 1047 1048 1048 1048 1048 1050 1054 1058 1063 1064 1060 1058 1060 1064 1066 1065 1068 1072 1080 1092 1099 1106 1110 1112 1114 1120 1127 1134 1142 1147 1149 1156 1158 1158 1159 1162 1164 1167 1171 1176 1181 1184 1187 1194 1200 1204 1206 1209 1212 1215 1223 1229 1232 1236 1242 1244 1240 1235 1233 1231 1232 1232 1232 1232 1226 1221 1220 1219 1216 1210 1208 1204 1197 1195 1195 1194 1197 1201 1205 1211 1220 1231 1237 1245 1259 1270 1288 1315 1333 1350 1370 1385 1391 1394 1396 1397 1398 1395 1393 1393 1391 1392 1392 1393 1397 1399 1395 1391 1388 1383 1372 1359 1350 1340 1330 1322 1316 1307 1298 1292 1290 1287 1278 1271 1266 1267 1271 1281 1290 1297 1302 1306 1310 1315 1319 1320 1322 1325 1329 1333 1338 1342 1351 1358 1365 1373 1376 1380 1386 1393 1402 1409 1417 1424 1428 1431 1433 1436 1442 1449 1452 1455 1462 1471 1478 1488 1495 1500 1504 1507 1511 1515 1519 1523 1527 1532 1536 1538 1543 1545 1547 1550 1557 1562 1562 1566 1574 1578 1584 1592 1596 1599 1604 1611 1618 1620 1623 1631 1645 1656 1664 1667 1660 1645 1628 1620 1620 1622 1618 1611 1604 1597 1594 1586 1572 1556 1539 1523 1512 1503 1492 1488 1481 1473 1472 1469 1465 1464 1466 1468 1470 1473 1480 1488 1499 1505 1511 1517 1521 1524 1533 1550 1561 1572 1583 1598 1615 1628 1636 1640 1657 1679 1699 1709 1719 1732 1739 1744 1741 1724 1712 1707 1707 1714 1730 1739 1746 1755 1763 1769 1773 1774 1776 1779 1781 1783 1785 1786 1787 1787 1790 1795 1797 1793 1786 1781 1776 1775 1777 1782 1788 1791 1794 1794 1794 1796 1801 1801 1799 1801 1800 1798 1793 1792 1793 1797 1805 1810 1814 1816 1816 1816 1819 1826 1831 1833 1834 1831 1828 1826 1824 1821 1815 1815 1818 1822 1829 1832 1835 1835 1835 1837 1838 1837 1834 1833 1838 1847 1855 1862 1862 1860 1854 1846 1839 1836 1836 1840 1845 1848 1849 1850 1851 1852 1857 1860 1864 1868 1880 1899 1914 1930 1948 1970 1986 1996 2009 2022 2033 2049 2067 2079 2087 2093 2099 2105 2111 2116 2118 2121 2115 2092 2071 2050 2030 2021 2016 2003 1988 1976 1966 1959 1956 1952 1948 1941 1935 1930 1927 1924 1923 1925 1932 1941 1951 1965 1988 2008 2019 2031 2050 2061 2068 2076 2089 2106 2116 2126 2133 2136 2126 2109 2079 2045 2003 1985 1971 1962 1959 1958 1957 1955 1955 1955 1955 1953 1953 1957 1970 2003 2055 2093 2107 2115 2133 2155 2166 2176 2188 2194 2198 2198 2199 2201 2202 2204 2204 2208 2207 2208 2214 2215 2217 2217 2203 2183 2154 2132 2086 2026 1998 1978 1959 1952 1946 1943 1950 1971 1994 2024 2073 2091 2092 2090 2108 2135 2156 2164 2163 2146 2112 2086 2067 2048 2023 1987 1963 1941 1908 1885 1886 1896 1908 1927 1962 1997 2010 2010 2011 2015 2001 1992 1990 1981 1976 1972 1966 1960 1955 1948 1941 1939 1936 1930 1928 1926 1927 1929 1934 1941 1950 1964 1983 2007 2036 2039 2035 2024 2022 2029 2046 2067 2086 2107 2130 2146 2160 2178 2194 2216 2231 2245 2259 2276 2290 2299 2301 2303 2303 2304 2304 2303 2300 2295 2291 2291 2291 2291 2291 2291 2287 2282 2275 2271 2268 2267 2265 2261 2257 2241 2227 2221 2213 2203 2193 2173 2169 2180 2204 2225 2234 2237 2237 2236 2233 2226 2216 2200 2176 2155 2143 2139 2131 2119 2102 2094 2091 2087 2083 2078 2073 2073 2072 2070 2068 2067 2064 2061 2057 2054 2053 2051 2050 2048 2045 2041 2040 2036 2027 2020 2013 2007
 421 421 421 421 422 422 423 423 424 425 426 424 422 424 427 428 434 431 427 424 423 423 423 423 424 424 425 426 425 427 428 429 429 429 428 428 429 432 432 431 430 428 429 430 434 444 459 471 478 486 495 502 513 525 537 553 569 579 589 601 611 620 628 634 639 648 658 663 659 658 669 688 716 740 752 766 789 805 815 827 838 849 860 873 886 902 927 943 959 981 1000 1028 1058 1077 1095 1124 1150 1171 1177 1182 1191 1202 1216 1227 1238 1244 1249 1266 1278 1283 1284 1286 1289 1292 1290 1287 1285 1286 1292 1299 1300 1296 1290 1284 1281 1271 1261 1251 1250 1253 1262 1272 1280 1283 1276 1271 1272 1276 1282 1291 1300 1311 1325 1340 1351 1364 1374 1384 1397 1407 1417 1427 1422 1409 1397 1384 1372 1361 1354 1348 1338 1327 1314 1302 1295 1288 1278 1267 1255 1237 1222 1209 1199 1182 1167 1151 1137 1126 1122 1127 1127 1121 1115 1124 1124 1116 1104 1095 1095 1092 1092 1094 1101 1111 1118 1122 1114 1106 1101 1090 1080 1071 1057 1036 1021 998 989 981 980 990 1000 1012 1008 998 989 985 979 965 965 964 955 952 948 947 942 941 944 948 956 954 948 943 926 909 887 879 902 920 935 946 954 961 962 964 971 977 990 998 993 991 993 998 1003 1008 1010 1010 1010 1014 1014 1010 1010 1013 1019 1025 1032 1048 1057 1057 1058 1066 1079 1095 1111 1131 1152 1169 1182 1199 1215 1227 1245 1262 1277 1297 1320 1338 1358 1377 1393 1410 1416 1412 1401 1387 1375 1363 1351 1339 1322 1305 1294 1283 1269 1252 1237 1217 1203 1188 1179 1170 1151 1141 1133 1131 1130 1127 1126 1130 1135 1135 1135 1135 1134 1128 1123 1115 1106 1098 1091 1088 1091 1089 1073 1066 1058 1050 1043 1039 1033 1029 1029 1026 1017 1014 1010 998 993 996 999 1015 1026 1027 1028 1028 1028 1028 1028 1029 1032 1032 1032 1033 1030 1027 1024 1025 1028 1033 1035 1036 1037 1036 1037 1037 1037 1040 1042 1043 1042 1041 1042 1040 1039 1040 1042 1044 1045 1046 1047 1046 1043 1042 1042 1041 1042 1043 1047 1052 1055 1059 1060 1057 1054 1056 1057 1057 1065 1077 1084 1088 1093 1098 1103 1107 1112 1119 1125 1130 1136 1141 1142 1143 1148 1149 1153 1154 1154 1158 1163 1167 1169 1171 1176 1181 1190 1192 1192 1193 1199 1206 1208 1213 1217 1221 1225 1234 1231 1227 1226 1224 1224 1226 1223 1223 1222 1215 1211 1208 1205 1201 1193 1189 1188 1188 1190 1191 1195 1204 1208 1213 1222 1232 1243 1252 1263 1276 1295 1313 1327 1349 1364 1378 1388 1394 1395 1394 1395 1393 1390 1390 1391 1391 1390 1389 1389 1389 1389 1386 1383 1382 1376 1365 1348 1338 1328 1319 1311 1304 1296 1290 1288 1284 1278 1271 1265 1264 1267 1273 1282 1293 1302 1307 1311 1320 1322 1320 1322 1324 1326 1328 1331 1335 1340 1347 1353 1357 1362 1368 1379 1388 1394 1399 1409 1420 1422 1422 1424 1430 1433 1435 1437 1441 1445 1454 1467 1475 1487 1494 1496 1500 1504 1510 1514 1517 1520 1522 1525 1532 1536 1541 1544 1546 1550 1557 1563 1563 1564 1569 1572 1576 1586 1593 1596 1598 1603 1609 1614 1619 1627 1636 1648 1657 1668 1672 1668 1657 1643 1635 1632 1630 1625 1618 1608 1601 1588 1571 1557 1544 1533 1524 1516 1509 1503 1494 1487 1482 1481 1480 1484 1495 1509 1517 1521 1521 1518 1517 1518 1519 1525 1535 1546 1559 1572 1585 1596 1610 1627 1642 1652 1657 1660 1678 1695 1710 1721 1734 1747 1757 1766 1766 1755 1740 1733 1734 1742 1752 1757 1760 1766 1773 1776 1779 1778 1778 1781 1784 1786 1789 1795 1798 1799 1800 1802 1800 1799 1796 1794 1787 1783 1784 1790 1796 1799 1802 1803 1804 1805 1808 1809 1808 1808 1806 1806 1803 1802 1805 1806 1812 1814 1818 1822 1825 1828 1830 1834 1838 1844 1844 1840 1833 1832 1831 1828 1825 1824 1826 1833 1839 1844 1848 1850 1851 1855 1858 1851 1843 1846 1853 1859 1866 1871 1874 1876 1872 1861 1853 1849 1847 1849 1853 1854 1854 1851 1852 1853 1854 1857 1862 1874 1885 1900 1925 1944 1964 1988 1999 2008 2022 2035 2049 2064 2082 2092 2101 2110 2115 2120 2126 2130 2134 2138 2133 2113 2086 2068 2049 2037 2030 2013 1993 1983 1976 1969 1963 1957 1951 1946 1938 1929 1926 1925 1926 1930 1940 1953 1966 1985 2012 2033 2048 2066 2077 2083 2090 2098 2115 2130 2136 2144 2155 2155 2137 2117 2087 2052 2017 1994 1981 1971 1968 1967 1967 1966 1966 1965 1967 1966 1965 1970 1984 2025 2073 2113 2127 2142 2167 2184 2193 2203 2212 2216 2220 2224 2224 2223 2226 2227 2228 2234 2236 2234 2234 2231 2229 2230 2220 2198 2167 2136 2073 2028 2012 2001 1985 1970 1963 1967 1982 1997 2015 2052 2087 2086 2065 2053 2062 2077 2098 2106 2091 2064 2030 2009 1992 1974 1955 1945 1942 1926 1894 1857 1833 1826 1846 1866 1889 1914 1925 1927 1928 1930 1921 1924 1932 1934 1945 1950 1950 1948 1946 1942 1937 1934 1930 1927 1925 1924 1923 1920 1919 1925 1933 1946 1966 1992 2024 2024 2018 2011 2007 2008 2021 2038 2064 2100 2133 2150 2167 2186 2202 2218 2234 2249 2264 2280 2293 2302 2304 2306 2306 2305 2302 2298 2291 2285 2276 2271 2273 2275 2273 2268 2262 2255 2249 2246 2244 2246 2247 2244 2239 2220 2198 2191 2175 2158 2144 2136 2133 2139 2162 2198 2219 2231 2235 2236 2236 2233 2228 2218 2196 2167 2148 2140 2136 2126 2111 2106 2103 2097 2091 2085 2078 2074 2072 2072 2071 2069 2066 2062 2058 2056 2056 2054 2052 2050 2047 2043 2042 2040 2035 2030 2024 2014
 424 423 421 421 421 421 421 422 422 423 423 420 420 425 426 427 436 436 430 427 427 424 423 424 425 426 425 425 424 425 427 427 427 428 429 429 428 429 432 432 430 430 430 432 436 449 465 474 480 489 500 510 524 539 550 564 575 583 592 603 612 615 623 632 640 647 658 666 671 668 678 695 724 748 766 786 807 817 825 834 846 857 867 880 893 915 937 950 970 992 1013 1042 1064 1080 1105 1139 1158 1174 1179 1182 1192 1203 1215 1227 1233 1238 1250 1262 1268 1271 1272 1272 1274 1279 1273 1269 1270 1276 1281 1281 1282 1278 1269 1267 1264 1256 1249 1244 1242 1243 1250 1260 1266 1267 1258 1256 1259 1267 1277 1288 1302 1314 1326 1340 1350 1364 1373 1385 1398 1411 1421 1425 1418 1406 1395 1380 1365 1348 1341 1330 1315 1301 1285 1274 1268 1258 1244 1230 1217 1201 1187 1180 1183 1168 1151 1130 1115 1110 1116 1117 1106 1102 1097 1092 1090 1092 1090 1084 1079 1081 1083 1082 1090 1102 1107 1103 1093 1088 1084 1073 1060 1045 1024 1004 987 976 973 967 968 982 992 1000 997 989 978 969 963 948 943 943 933 933 929 928 933 932 930 931 939 944 940 928 916 902 877 872 894 910 926 937 946 956 960 959 960 965 972 979 982 983 984 988 994 998 1000 998 999 1004 1002 998 1000 1003 1008 1014 1021 1034 1044 1052 1062 1073 1084 1098 1116 1134 1152 1169 1182 1203 1221 1232 1248 1265 1281 1302 1324 1341 1360 1379 1394 1409 1413 1409 1398 1381 1367 1355 1343 1331 1313 1295 1283 1273 1263 1249 1235 1219 1205 1186 1170 1158 1147 1132 1124 1119 1116 1115 1113 1116 1121 1124 1122 1121 1119 1114 1111 1107 1098 1092 1085 1081 1085 1084 1074 1066 1050 1036 1031 1028 1025 1024 1022 1019 1015 1014 1004 986 982 984 989 1002 1019 1022 1021 1020 1021 1022 1022 1021 1022 1024 1024 1025 1023 1018 1019 1022 1025 1028 1028 1030 1032 1031 1030 1030 1032 1035 1036 1034 1033 1035 1034 1032 1031 1035 1036 1039 1041 1042 1044 1043 1041 1038 1036 1037 1039 1042 1045 1049 1052 1053 1049 1045 1046 1051 1055 1063 1078 1085 1088 1088 1089 1095 1102 1109 1116 1122 1125 1128 1133 1136 1138 1137 1140 1143 1147 1149 1150 1153 1156 1159 1161 1163 1168 1175 1180 1181 1186 1191 1192 1198 1202 1204 1208 1215 1219 1221 1218 1217 1215 1212 1213 1217 1217 1216 1211 1204 1199 1193 1188 1185 1185 1185 1186 1188 1191 1196 1201 1209 1213 1220 1236 1251 1261 1270 1284 1297 1312 1322 1344 1359 1369 1381 1384 1387 1392 1391 1391 1390 1389 1388 1389 1389 1389 1390 1389 1387 1384 1379 1377 1370 1360 1351 1339 1326 1317 1310 1301 1295 1290 1286 1284 1278 1271 1267 1264 1266 1270 1279 1292 1304 1307 1311 1316 1321 1324 1325 1325 1327 1329 1332 1338 1342 1346 1349 1353 1358 1362 1367 1380 1387 1392 1398 1405 1413 1417 1418 1421 1428 1432 1433 1434 1438 1444 1455 1467 1476 1487 1492 1493 1498 1505 1512 1515 1518 1520 1523 1527 1533 1539 1542 1545 1547 1549 1554 1559 1562 1566 1573 1575 1578 1584 1590 1594 1597 1601 1606 1613 1617 1624 1634 1648 1660 1670 1673 1673 1670 1657 1645 1640 1641 1640 1633 1619 1608 1594 1581 1570 1559 1547 1537 1527 1521 1514 1508 1501 1496 1493 1500 1511 1526 1544 1553 1559 1565 1559 1548 1540 1537 1544 1556 1568 1579 1592 1607 1622 1639 1653 1661 1667 1674 1682 1694 1709 1722 1735 1748 1762 1773 1779 1780 1771 1759 1752 1754 1761 1767 1768 1770 1774 1778 1782 1784 1786 1784 1784 1788 1790 1796 1803 1806 1808 1811 1812 1809 1806 1806 1804 1799 1793 1793 1794 1797 1805 1812 1815 1814 1814 1814 1814 1816 1817 1812 1811 1811 1812 1815 1815 1817 1819 1821 1826 1830 1834 1836 1839 1844 1850 1852 1848 1841 1839 1836 1833 1831 1832 1835 1842 1846 1853 1860 1865 1867 1869 1870 1865 1854 1860 1868 1873 1876 1881 1884 1886 1885 1875 1865 1862 1863 1859 1858 1857 1855 1853 1852 1851 1851 1854 1861 1876 1888 1903 1929 1952 1983 2000 2011 2022 2035 2052 2066 2083 2095 2105 2113 2120 2125 2134 2139 2143 2150 2153 2149 2133 2104 2082 2065 2052 2041 2023 2005 1994 1984 1976 1968 1961 1954 1948 1940 1931 1927 1927 1931 1936 1947 1962 1979 2006 2039 2059 2072 2089 2098 2104 2110 2118 2137 2150 2158 2165 2170 2164 2145 2117 2087 2048 2021 2001 1990 1983 1979 1977 1978 1979 1979 1978 1981 1979 1979 1987 2007 2047 2080 2120 2144 2168 2193 2207 2213 2224 2230 2232 2234 2239 2240 2238 2241 2245 2250 2249 2245 2240 2240 2241 2241 2237 2226 2199 2158 2120 2068 2034 2021 2010 2003 1996 1990 1993 2002 2014 2034 2054 2073 2062 2033 2020 2032 2048 2058 2044 2027 1997 1966 1951 1942 1920 1906 1904 1910 1904 1880 1836 1805 1790 1807 1820 1829 1847 1855 1859 1859 1858 1860 1876 1893 1904 1921 1931 1934 1935 1936 1934 1932 1931 1930 1929 1929 1928 1917 1907 1904 1908 1916 1928 1943 1960 1983 1989 1990 1993 1988 1978 1974 1989 2013 2055 2107 2141 2165 2180 2190 2210 2230 2246 2263 2280 2293 2303 2305 2306 2304 2301 2295 2287 2280 2273 2266 2261 2258 2257 2251 2246 2237 2230 2230 2231 2230 2229 2228 2228 2224 2202 2169 2155 2141 2130 2123 2116 2113 2114 2129 2165 2198 2223 2234 2237 2239 2237 2234 2230 2219 2193 2162 2146 2140 2135 2124 2115 2107 2100 2095 2089 2083 2077 2075 2073 2073 2072 2069 2065 2060 2058 2057 2056 2053 2050 2047 2044 2043 2041 2037 2034 2030 2021
 423 424 422 421 421 421 422 422 422 422 421 419 420 422 421 422 425 428 427 426 425 423 422 422 422 424 424 424 424 426 426 426 425 425 428 430 427 425 430 430 431 432 432 433 439 451 466 475 484 497 512 525 538 550 558 568 577 582 587 592 599 599 602 613 632 645 655 669 684 692 704 725 749 772 797 825 832 831 835 843 854 863 872 887 902 921 942 959 981 1002 1025 1046 1064 1086 1117 1147 1158 1166 1178 1188 1191 1199 1212 1221 1227 1233 1246 1257 1261 1260 1257 1253 1254 1254 1252 1255 1261 1260 1260 1261 1256 1248 1248 1248 1241 1229 1227 1239 1241 1238 1238 1241 1246 1246 1244 1248 1254 1263 1274 1288 1302 1315 1326 1343 1353 1366 1375 1386 1398 1410 1423 1426 1413 1402 1396 1387 1374 1353 1336 1323 1302 1282 1268 1251 1235 1224 1209 1193 1182 1169 1160 1160 1164 1160 1150 1134 1116 1106 1107 1104 1097 1096 1091 1078 1067 1066 1069 1064 1064 1064 1062 1063 1068 1080 1085 1080 1074 1065 1052 1034 1016 1005 996 987 975 965 957 952 957 971 981 984 978 965 950 940 934 925 919 911 905 906 904 903 912 916 909 908 917 921 916 905 896 886 869 867 887 892 899 916 930 945 953 952 953 959 964 968 972 975 975 974 980 987 983 981 981 985 987 985 988 996 1010 1017 1024 1033 1045 1055 1066 1076 1084 1094 1114 1130 1147 1164 1177 1197 1220 1235 1253 1271 1286 1305 1327 1343 1362 1379 1392 1405 1409 1405 1392 1373 1359 1344 1329 1315 1300 1287 1276 1266 1256 1244 1228 1212 1198 1180 1161 1155 1142 1124 1118 1111 1107 1105 1103 1105 1107 1108 1110 1109 1107 1101 1099 1096 1092 1088 1080 1079 1082 1081 1072 1056 1033 1024 1019 1017 1017 1014 1012 1010 1009 1008 996 977 974 981 984 992 1005 1014 1014 1013 1016 1015 1016 1016 1015 1017 1020 1019 1017 1012 1012 1013 1014 1021 1021 1021 1021 1022 1022 1023 1025 1027 1031 1030 1029 1029 1028 1026 1025 1028 1031 1032 1035 1035 1035 1035 1035 1032 1031 1034 1035 1038 1041 1045 1045 1036 1035 1044 1050 1057 1063 1069 1076 1079 1082 1086 1089 1093 1100 1108 1113 1117 1119 1121 1128 1134 1132 1129 1131 1136 1140 1143 1144 1146 1148 1153 1157 1159 1162 1167 1171 1174 1178 1183 1187 1189 1195 1199 1203 1208 1212 1211 1209 1206 1202 1199 1200 1200 1196 1195 1194 1192 1186 1180 1178 1178 1182 1186 1187 1190 1197 1201 1207 1215 1220 1232 1253 1265 1270 1283 1296 1308 1322 1342 1356 1365 1375 1380 1380 1381 1387 1388 1386 1385 1386 1386 1385 1386 1389 1393 1387 1383 1379 1375 1368 1352 1341 1335 1323 1314 1309 1300 1292 1289 1284 1281 1277 1272 1267 1264 1264 1269 1278 1289 1298 1305 1308 1313 1317 1322 1326 1329 1331 1332 1335 1339 1343 1346 1349 1353 1357 1360 1363 1368 1381 1386 1387 1394 1400 1405 1410 1413 1418 1424 1427 1429 1432 1439 1449 1464 1471 1481 1488 1489 1488 1492 1502 1511 1518 1523 1526 1530 1534 1540 1542 1543 1545 1547 1550 1552 1557 1563 1567 1573 1577 1578 1582 1586 1590 1595 1600 1604 1611 1616 1626 1641 1653 1658 1662 1665 1668 1671 1667 1658 1654 1656 1653 1641 1625 1615 1603 1593 1584 1573 1564 1554 1540 1531 1528 1524 1517 1514 1520 1534 1548 1560 1567 1574 1590 1601 1602 1597 1578 1569 1574 1584 1593 1603 1617 1636 1655 1669 1679 1684 1690 1693 1697 1708 1724 1744 1756 1765 1777 1786 1792 1792 1785 1774 1769 1772 1777 1778 1780 1782 1785 1789 1792 1795 1796 1796 1797 1797 1798 1806 1809 1810 1812 1816 1819 1817 1814 1813 1812 1808 1805 1804 1807 1810 1817 1822 1826 1826 1824 1824 1823 1824 1824 1821 1818 1817 1819 1821 1821 1823 1826 1831 1834 1838 1840 1842 1846 1850 1853 1856 1854 1850 1847 1845 1842 1839 1840 1844 1851 1855 1866 1874 1876 1877 1880 1880 1881 1877 1876 1880 1886 1892 1902 1906 1906 1902 1893 1883 1878 1878 1877 1871 1863 1857 1854 1850 1848 1848 1854 1863 1882 1900 1912 1931 1956 1987 2012 2028 2039 2054 2074 2086 2101 2111 2120 2128 2135 2143 2149 2156 2163 2169 2171 2168 2154 2124 2104 2087 2069 2053 2035 2022 2010 1996 1987 1979 1969 1961 1952 1942 1933 1930 1931 1937 1945 1956 1972 1991 2033 2068 2086 2098 2111 2121 2131 2136 2144 2162 2178 2184 2184 2180 2172 2146 2105 2076 2049 2026 2011 2003 1996 1998 2002 2000 1998 1996 1995 1993 1990 1995 2007 2024 2057 2079 2109 2155 2186 2213 2231 2241 2247 2247 2245 2246 2247 2246 2239 2239 2246 2253 2249 2241 2230 2229 2230 2228 2220 2208 2181 2147 2118 2080 2049 2035 2024 2018 2015 2010 2006 2005 2005 2021 2028 2024 2006 1987 1983 1993 1990 1985 1968 1953 1936 1923 1907 1883 1860 1844 1838 1836 1829 1812 1790 1775 1761 1764 1767 1763 1773 1784 1788 1790 1795 1803 1826 1854 1877 1881 1886 1897 1908 1911 1913 1914 1916 1917 1919 1913 1904 1891 1882 1880 1883 1890 1901 1912 1920 1930 1935 1939 1941 1940 1940 1939 1956 1974 1995 2037 2075 2106 2124 2141 2175 2199 2215 2232 2252 2274 2295 2301 2300 2297 2290 2285 2276 2264 2258 2251 2244 2236 2228 2220 2214 2206 2203 2204 2209 2212 2211 2208 2203 2193 2165 2143 2131 2119 2107 2098 2093 2090 2089 2101 2129 2167 2203 2229 2238 2239 2236 2235 2233 2230 2222 2191 2162 2149 2143 2139 2132 2124 2115 2108 2100 2092 2087 2083 2081 2079 2075 2072 2068 2064 2062 2061 2059 2056 2052 2049 2046 2044 2041 2037 2034 2030 2025
 420 421 421 421 421 422 423 422 421 420 420 420 420 420 419 419 421 422 423 423 420 422 423 422 423 426 425 424 424 427 427 427 424 424 430 436 431 435 455 447 433 433 433 437 449 461 475 488 501 516 528 536 545 554 562 569 575 577 573 572 576 583 593 605 628 647 658 674 691 705 728 762 782 796 811 829 834 834 838 849 861 870 880 897 911 927 948 965 986 1008 1026 1046 1068 1096 1125 1148 1157 1165 1176 1185 1188 1192 1200 1210 1217 1224 1232 1242 1240 1234 1237 1237 1234 1236 1238 1241 1244 1244 1240 1236 1233 1225 1224 1222 1215 1208 1206 1216 1226 1227 1230 1233 1230 1232 1236 1242 1251 1263 1276 1291 1304 1316 1329 1348 1358 1369 1384 1392 1402 1411 1418 1420 1406 1395 1387 1374 1362 1343 1330 1316 1297 1275 1256 1235 1224 1219 1207 1191 1178 1163 1157 1152 1142 1133 1127 1127 1113 1102 1090 1084 1080 1080 1080 1066 1054 1052 1052 1048 1047 1046 1046 1049 1052 1058 1063 1062 1055 1038 1016 1006 1002 998 993 980 967 957 944 939 945 956 968 970 960 949 937 929 920 907 900 894 891 889 893 895 894 898 893 891 898 907 897 883 871 863 857 851 866 877 885 895 910 930 941 946 950 957 961 968 972 975 974 970 969 969 965 960 961 968 969 970 976 986 1008 1019 1025 1032 1039 1044 1054 1066 1077 1093 1111 1126 1144 1161 1173 1191 1212 1229 1251 1274 1290 1304 1324 1341 1360 1376 1388 1399 1402 1397 1381 1363 1348 1332 1314 1299 1288 1281 1272 1259 1245 1233 1215 1193 1181 1169 1163 1159 1137 1122 1115 1108 1100 1092 1091 1094 1096 1094 1096 1095 1092 1088 1086 1085 1082 1076 1075 1081 1079 1069 1056 1039 1025 1017 1014 1010 1005 1001 1003 1004 1002 997 985 971 968 977 981 984 993 1002 1005 1004 1006 1007 1006 1006 1006 1006 1008 1007 1005 1001 1000 1001 1005 1012 1015 1015 1016 1017 1017 1019 1021 1021 1023 1024 1022 1023 1022 1022 1022 1023 1025 1028 1031 1033 1030 1030 1031 1028 1025 1026 1029 1032 1037 1039 1033 1034 1043 1050 1053 1055 1061 1065 1069 1075 1081 1083 1086 1091 1096 1100 1104 1107 1110 1113 1120 1130 1129 1130 1133 1135 1137 1141 1142 1142 1143 1149 1154 1154 1156 1163 1168 1172 1176 1178 1181 1185 1191 1195 1198 1199 1201 1199 1196 1193 1191 1188 1186 1183 1180 1179 1177 1176 1174 1174 1175 1178 1184 1189 1190 1196 1201 1206 1214 1224 1234 1246 1265 1279 1287 1301 1312 1327 1342 1351 1357 1366 1376 1379 1376 1379 1383 1382 1380 1378 1379 1382 1385 1389 1392 1390 1381 1373 1369 1365 1356 1343 1332 1324 1313 1306 1299 1292 1287 1283 1279 1275 1273 1268 1264 1264 1267 1277 1284 1290 1296 1302 1308 1313 1316 1328 1332 1334 1339 1337 1340 1345 1346 1348 1350 1353 1357 1360 1365 1370 1377 1382 1384 1390 1396 1401 1407 1410 1413 1416 1420 1425 1429 1440 1454 1460 1466 1476 1484 1485 1487 1489 1496 1504 1515 1523 1526 1529 1536 1541 1542 1544 1545 1545 1548 1551 1556 1562 1566 1570 1573 1574 1577 1583 1587 1590 1596 1604 1615 1623 1632 1644 1656 1658 1660 1664 1667 1669 1669 1668 1667 1665 1662 1652 1639 1632 1627 1622 1611 1595 1578 1566 1554 1544 1541 1539 1537 1541 1556 1571 1580 1587 1594 1605 1619 1635 1639 1629 1611 1605 1605 1615 1620 1628 1647 1666 1682 1693 1698 1703 1704 1704 1709 1721 1740 1757 1768 1778 1787 1796 1804 1804 1794 1784 1778 1782 1790 1793 1791 1793 1796 1801 1805 1807 1806 1806 1807 1807 1811 1816 1818 1820 1822 1823 1822 1821 1819 1818 1818 1816 1815 1816 1820 1822 1826 1828 1832 1833 1832 1831 1830 1831 1833 1832 1828 1826 1826 1829 1831 1832 1833 1837 1844 1849 1852 1853 1855 1858 1861 1864 1864 1860 1858 1855 1851 1850 1851 1853 1858 1863 1871 1880 1886 1890 1893 1893 1893 1892 1888 1893 1902 1911 1923 1931 1934 1933 1922 1909 1901 1896 1890 1882 1872 1864 1856 1851 1849 1850 1858 1872 1896 1913 1925 1941 1966 1998 2030 2046 2058 2074 2090 2104 2117 2126 2136 2145 2153 2158 2164 2172 2177 2182 2189 2186 2169 2142 2122 2106 2083 2065 2050 2043 2036 2017 2005 1996 1980 1967 1957 1946 1938 1935 1936 1947 1954 1965 1979 2007 2052 2089 2109 2124 2133 2145 2156 2163 2170 2185 2204 2210 2205 2189 2173 2141 2100 2077 2051 2029 2019 2014 2011 2011 2015 2015 2012 2009 2004 2001 1998 2004 2016 2036 2058 2077 2105 2140 2177 2209 2233 2245 2250 2248 2245 2245 2241 2234 2224 2217 2215 2216 2208 2194 2181 2171 2167 2160 2152 2146 2132 2116 2098 2076 2061 2054 2048 2040 2028 2019 2005 1985 1965 1963 1962 1951 1937 1923 1914 1913 1904 1892 1885 1887 1886 1862 1833 1803 1775 1758 1754 1745 1739 1741 1740 1732 1734 1730 1724 1723 1731 1746 1754 1750 1746 1747 1763 1786 1817 1829 1823 1838 1852 1859 1865 1878 1888 1883 1876 1869 1859 1853 1849 1845 1847 1854 1869 1880 1885 1890 1899 1900 1901 1905 1902 1907 1929 1946 1962 1970 2001 2032 2054 2078 2114 2146 2167 2186 2208 2236 2275 2290 2289 2281 2273 2267 2256 2246 2237 2225 2216 2207 2199 2193 2188 2185 2185 2186 2191 2196 2196 2192 2183 2168 2145 2127 2113 2099 2085 2077 2071 2067 2069 2076 2101 2136 2185 2211 2231 2238 2235 2233 2232 2229 2227 2220 2196 2173 2163 2159 2157 2151 2143 2136 2124 2109 2103 2096 2087 2081 2076 2072 2070 2067 2065 2063 2060 2058 2055 2051 2048 2045 2041 2036 2033 2029 2025
 421 420 420 420 421 422 421 421 420 420 420 421 420 420 419 420 421 422 422 422 419 420 423 425 427 428 425 423 425 427 428 427 426 426 442 452 450 457 466 456 434 434 437 450 466 478 492 505 517 528 534 539 546 555 561 567 572 572 568 566 571 583 599 615 636 651 666 683 700 716 740 776 791 797 807 823 834 837 841 852 863 871 886 902 916 931 951 967 989 1009 1030 1053 1081 1107 1129 1143 1149 1155 1166 1173 1175 1183 1189 1195 1205 1215 1218 1218 1218 1220 1221 1222 1224 1227 1230 1230 1230 1230 1225 1222 1215 1207 1203 1196 1194 1192 1189 1190 1204 1212 1218 1221 1224 1226 1231 1238 1249 1265 1282 1295 1306 1318 1332 1350 1361 1375 1388 1395 1406 1411 1407 1399 1389 1381 1373 1361 1347 1329 1312 1295 1278 1255 1227 1206 1207 1207 1197 1182 1171 1160 1147 1136 1123 1115 1110 1106 1101 1094 1083 1068 1062 1063 1059 1046 1041 1044 1046 1041 1034 1034 1039 1042 1045 1052 1060 1071 1063 1048 1029 1015 1010 1004 992 979 969 950 936 932 935 946 960 965 960 950 932 920 910 901 895 890 886 880 878 882 879 882 882 887 893 893 872 860 848 846 843 834 843 862 873 887 903 919 928 936 945 951 954 960 961 967 969 965 964 960 953 947 948 951 955 960 974 986 998 1008 1014 1023 1031 1038 1049 1063 1078 1096 1112 1127 1144 1160 1171 1187 1208 1223 1242 1268 1288 1303 1319 1336 1358 1375 1383 1391 1392 1386 1372 1354 1339 1322 1302 1286 1277 1270 1261 1248 1233 1221 1199 1180 1170 1162 1164 1161 1135 1115 1106 1097 1087 1080 1078 1081 1081 1081 1083 1085 1083 1080 1080 1076 1070 1066 1068 1075 1070 1055 1042 1028 1018 1011 1005 998 993 992 994 997 995 989 980 969 966 972 977 978 984 991 995 994 995 998 998 998 1000 999 1001 1002 1001 996 994 995 998 1004 1008 1010 1010 1011 1010 1013 1015 1016 1018 1020 1017 1015 1015 1015 1016 1019 1021 1022 1025 1026 1023 1024 1026 1022 1021 1021 1024 1029 1031 1025 1028 1036 1044 1052 1052 1052 1059 1064 1068 1072 1077 1079 1083 1089 1093 1094 1096 1099 1101 1104 1110 1118 1123 1127 1128 1127 1131 1135 1138 1141 1142 1147 1152 1153 1154 1160 1166 1171 1176 1179 1181 1184 1189 1191 1192 1192 1191 1188 1187 1186 1184 1181 1177 1172 1170 1169 1169 1171 1173 1175 1178 1184 1192 1196 1197 1202 1208 1214 1224 1244 1261 1264 1281 1298 1305 1313 1325 1338 1345 1352 1357 1368 1376 1377 1373 1374 1380 1377 1374 1374 1377 1381 1385 1390 1391 1384 1375 1366 1358 1345 1338 1327 1315 1310 1302 1298 1292 1287 1283 1280 1276 1272 1269 1264 1261 1263 1272 1279 1283 1288 1296 1301 1306 1311 1314 1322 1329 1334 1342 1345 1350 1356 1356 1353 1353 1356 1359 1363 1369 1374 1377 1382 1386 1390 1395 1399 1404 1407 1409 1412 1415 1422 1428 1436 1450 1459 1464 1469 1474 1478 1483 1489 1494 1500 1511 1520 1522 1525 1530 1536 1539 1540 1541 1541 1544 1546 1549 1552 1557 1563 1566 1567 1573 1578 1584 1588 1594 1603 1620 1633 1640 1647 1654 1656 1657 1661 1662 1662 1663 1665 1666 1664 1661 1658 1655 1651 1646 1641 1630 1608 1593 1582 1572 1564 1557 1554 1560 1571 1586 1596 1603 1617 1627 1638 1653 1659 1657 1645 1630 1625 1632 1635 1637 1649 1667 1686 1703 1712 1712 1718 1717 1716 1720 1735 1755 1773 1783 1788 1795 1803 1812 1812 1802 1790 1786 1789 1797 1801 1802 1804 1805 1806 1809 1813 1815 1816 1816 1817 1820 1824 1827 1827 1827 1827 1826 1826 1825 1823 1822 1821 1822 1826 1829 1833 1837 1837 1837 1837 1838 1838 1836 1837 1840 1842 1838 1835 1838 1840 1841 1842 1842 1845 1852 1857 1862 1867 1870 1874 1878 1879 1880 1872 1868 1865 1862 1860 1860 1863 1865 1869 1874 1883 1890 1898 1903 1905 1905 1904 1902 1905 1916 1924 1936 1946 1954 1954 1941 1929 1916 1907 1896 1887 1879 1872 1864 1858 1854 1856 1867 1885 1903 1920 1935 1954 1982 2014 2041 2057 2071 2089 2105 2119 2131 2142 2152 2160 2166 2173 2180 2188 2192 2195 2197 2194 2177 2155 2135 2116 2097 2087 2076 2071 2067 2046 2023 2007 1991 1977 1964 1954 1947 1945 1947 1955 1961 1972 1989 2023 2058 2088 2116 2136 2148 2162 2174 2182 2191 2204 2222 2230 2224 2200 2176 2142 2109 2083 2056 2033 2023 2019 2019 2018 2020 2019 2018 2014 2010 2007 2006 2012 2030 2050 2067 2084 2104 2128 2154 2186 2209 2219 2229 2228 2222 2217 2208 2194 2174 2157 2146 2141 2131 2122 2114 2105 2105 2108 2101 2093 2087 2073 2059 2043 2043 2051 2052 2042 2030 2015 1995 1969 1943 1931 1918 1903 1895 1889 1874 1853 1834 1820 1822 1831 1825 1791 1757 1734 1721 1717 1714 1707 1700 1697 1698 1703 1714 1710 1705 1703 1706 1714 1728 1733 1726 1722 1732 1742 1760 1785 1797 1795 1797 1808 1819 1833 1843 1839 1832 1829 1823 1816 1811 1809 1810 1814 1835 1856 1860 1857 1863 1872 1874 1869 1862 1871 1891 1911 1923 1925 1939 1981 2014 2038 2075 2115 2141 2166 2183 2206 2252 2270 2272 2261 2252 2241 2233 2222 2214 2206 2199 2192 2183 2172 2163 2158 2161 2167 2173 2178 2181 2177 2172 2159 2140 2119 2102 2087 2068 2057 2052 2051 2052 2059 2083 2112 2158 2193 2221 2235 2234 2231 2229 2227 2226 2224 2218 2203 2184 2178 2176 2171 2162 2154 2145 2131 2121 2111 2098 2086 2077 2072 2071 2068 2065 2063 2061 2058 2055 2052 2048 2045 2041 2036 2032 2028 2024
 421 420 420 421 421 420 419 420 420 420 420 421 421 421 420 421 422 422 422 422 420 420 422 425 426 426 424 423 426 426 426 427 427 428 438 460 465 464 463 449 436 442 454 471 484 495 506 514 522 531 535 539 544 551 555 560 565 568 567 573 584 601 619 627 639 649 659 674 688 708 730 759 778 789 796 816 839 845 851 864 876 887 900 911 923 941 961 979 998 1016 1042 1072 1090 1105 1122 1132 1135 1139 1144 1149 1156 1167 1172 1180 1188 1198 1201 1201 1202 1206 1206 1207 1212 1220 1224 1222 1218 1214 1208 1201 1194 1187 1179 1174 1174 1174 1174 1178 1191 1201 1205 1208 1212 1217 1228 1240 1255 1274 1287 1301 1315 1326 1338 1352 1364 1378 1388 1393 1400 1404 1393 1381 1368 1358 1348 1328 1315 1301 1285 1273 1252 1224 1204 1192 1191 1192 1184 1172 1161 1146 1137 1128 1116 1107 1097 1086 1075 1073 1065 1051 1044 1040 1034 1032 1033 1037 1037 1029 1024 1027 1031 1035 1038 1048 1068 1079 1076 1060 1047 1031 1018 1007 993 982 964 941 932 928 921 926 937 950 954 945 932 928 917 905 905 903 886 873 867 865 862 860 860 864 870 865 849 839 830 827 825 816 823 840 861 880 892 901 909 922 935 942 944 943 949 953 956 956 953 944 937 931 932 938 943 953 973 986 993 1002 1009 1019 1028 1037 1053 1071 1085 1102 1118 1130 1146 1160 1170 1186 1207 1222 1238 1261 1283 1299 1313 1329 1351 1370 1377 1381 1381 1375 1359 1339 1325 1307 1288 1275 1263 1251 1241 1232 1220 1209 1191 1176 1166 1163 1157 1139 1119 1106 1097 1085 1074 1070 1070 1071 1072 1072 1073 1074 1070 1069 1070 1067 1063 1060 1061 1061 1057 1046 1028 1015 1005 1000 994 991 987 986 985 985 982 977 971 965 962 965 968 974 978 983 986 987 988 992 990 988 988 991 993 993 992 991 988 989 993 997 1001 1002 1004 1002 1000 1003 1008 1010 1014 1015 1014 1012 1009 1009 1010 1012 1013 1014 1013 1013 1014 1013 1015 1017 1017 1017 1024 1025 1019 1022 1030 1038 1043 1048 1047 1048 1055 1062 1066 1069 1071 1073 1077 1082 1087 1087 1087 1091 1094 1097 1102 1110 1113 1113 1111 1112 1120 1126 1130 1136 1138 1141 1148 1150 1153 1156 1162 1170 1176 1180 1180 1181 1185 1188 1188 1188 1187 1182 1179 1177 1173 1168 1165 1165 1166 1167 1169 1174 1179 1183 1188 1194 1200 1202 1206 1215 1232 1236 1241 1268 1282 1292 1303 1314 1323 1329 1335 1339 1346 1352 1359 1369 1370 1368 1368 1370 1376 1373 1370 1371 1375 1377 1376 1376 1374 1371 1365 1360 1353 1333 1320 1309 1303 1299 1294 1288 1284 1280 1277 1275 1272 1268 1264 1261 1260 1261 1270 1279 1281 1285 1296 1302 1306 1310 1314 1319 1323 1329 1335 1340 1347 1353 1359 1362 1361 1363 1365 1368 1372 1375 1377 1383 1386 1390 1395 1399 1402 1404 1406 1410 1415 1421 1427 1434 1441 1452 1463 1468 1469 1473 1479 1486 1492 1501 1510 1518 1517 1518 1520 1524 1530 1533 1535 1536 1536 1538 1542 1546 1548 1552 1558 1563 1571 1575 1580 1589 1598 1608 1623 1633 1637 1639 1640 1642 1644 1646 1647 1648 1653 1656 1658 1657 1655 1654 1655 1656 1659 1657 1649 1624 1610 1601 1587 1579 1577 1590 1606 1613 1621 1631 1642 1653 1664 1680 1689 1678 1672 1664 1655 1650 1652 1652 1657 1672 1688 1707 1720 1729 1734 1734 1732 1732 1739 1758 1772 1788 1797 1802 1804 1808 1815 1817 1809 1798 1797 1799 1806 1807 1808 1812 1814 1812 1814 1820 1824 1826 1827 1827 1830 1834 1835 1833 1832 1832 1835 1834 1834 1835 1833 1829 1828 1833 1838 1841 1843 1846 1845 1844 1846 1847 1851 1852 1850 1847 1846 1846 1848 1850 1850 1852 1855 1858 1865 1871 1880 1887 1891 1893 1893 1891 1891 1889 1881 1879 1876 1873 1873 1875 1875 1877 1880 1885 1891 1899 1906 1911 1917 1919 1920 1922 1930 1937 1950 1971 1979 1979 1953 1933 1917 1906 1898 1891 1885 1879 1872 1866 1863 1867 1878 1896 1915 1938 1952 1973 2003 2034 2058 2075 2091 2107 2123 2134 2143 2150 2157 2163 2170 2179 2191 2196 2193 2187 2182 2180 2171 2162 2155 2138 2119 2112 2107 2098 2096 2087 2056 2028 2006 1991 1977 1966 1960 1957 1956 1963 1972 1983 2001 2031 2062 2090 2110 2138 2163 2177 2189 2205 2218 2229 2242 2249 2240 2209 2173 2125 2095 2071 2052 2036 2026 2021 2022 2023 2023 2022 2021 2017 2015 2016 2017 2026 2045 2061 2079 2094 2109 2124 2138 2148 2143 2145 2152 2151 2145 2137 2123 2100 2076 2070 2079 2084 2073 2053 2032 2025 2026 2034 2040 2036 2033 2024 2010 2001 1994 1998 2001 2001 2002 1990 1965 1941 1925 1910 1891 1866 1845 1831 1832 1816 1787 1769 1780 1779 1754 1720 1707 1699 1694 1692 1689 1684 1679 1674 1674 1678 1683 1685 1684 1686 1690 1697 1697 1700 1701 1704 1714 1719 1722 1731 1745 1749 1748 1757 1768 1773 1777 1781 1781 1779 1774 1768 1763 1762 1761 1760 1776 1807 1823 1813 1803 1819 1830 1821 1811 1825 1857 1883 1894 1889 1889 1918 1970 1998 2040 2082 2106 2132 2151 2157 2168 2189 2224 2226 2221 2217 2211 2204 2197 2188 2177 2162 2152 2142 2137 2133 2136 2144 2157 2165 2165 2163 2157 2153 2141 2114 2091 2066 2048 2038 2032 2033 2033 2036 2060 2093 2127 2171 2205 2227 2230 2229 2226 2226 2225 2223 2220 2214 2201 2193 2190 2187 2183 2177 2168 2155 2142 2126 2114 2100 2082 2074 2071 2069 2067 2064 2061 2059 2056 2052 2048 2045 2040 2035 2031 2026 2024
 420 420 420 421 421 420 419 420 420 420 420 421 421 421 422 423 423 422 421 421 420 420 422 423 424 424 424 424 425 426 426 427 429 428 430 443 451 445 444 441 445 460 472 482 493 502 509 514 520 528 532 532 531 535 539 545 556 563 574 590 603 614 623 628 639 648 653 664 679 697 724 746 762 778 791 808 829 848 864 888 906 915 920 925 935 955 976 992 1009 1036 1067 1080 1081 1083 1091 1101 1106 1116 1124 1132 1140 1145 1150 1163 1174 1183 1187 1189 1192 1189 1192 1198 1207 1216 1218 1214 1206 1196 1189 1179 1171 1164 1158 1150 1152 1156 1158 1169 1177 1182 1190 1204 1209 1215 1235 1248 1264 1277 1294 1312 1325 1331 1342 1358 1369 1377 1385 1389 1394 1394 1386 1371 1355 1344 1326 1305 1292 1273 1254 1237 1216 1196 1189 1184 1180 1174 1160 1149 1139 1128 1123 1117 1102 1082 1074 1068 1054 1050 1048 1036 1027 1022 1025 1026 1027 1023 1021 1016 1017 1022 1027 1031 1033 1040 1056 1069 1069 1058 1046 1033 1017 1003 991 980 965 941 925 923 911 907 914 923 933 929 927 938 936 928 929 923 905 881 862 854 851 852 851 848 844 841 832 826 819 809 806 799 806 821 837 854 866 883 894 906 917 920 919 923 935 941 942 941 934 922 918 919 925 935 944 958 968 978 991 1002 1013 1026 1035 1043 1061 1077 1090 1105 1121 1133 1148 1162 1172 1188 1208 1225 1241 1261 1280 1295 1309 1322 1341 1361 1370 1373 1367 1358 1340 1321 1307 1290 1278 1267 1251 1238 1229 1220 1212 1199 1179 1165 1161 1159 1137 1119 1110 1100 1090 1078 1067 1061 1058 1059 1062 1061 1059 1058 1058 1059 1058 1055 1051 1048 1046 1048 1039 1027 1014 1005 994 987 984 983 980 980 976 975 974 971 968 961 953 948 951 967 971 973 977 978 981 987 988 985 983 983 985 987 989 989 985 979 977 986 995 997 994 992 991 993 998 1002 1003 1005 1005 1005 1004 1002 1002 1002 1005 1007 1006 1006 1005 1005 1010 1014 1015 1016 1016 1013 1016 1025 1032 1036 1039 1041 1044 1048 1052 1059 1062 1064 1067 1070 1072 1074 1077 1081 1084 1086 1091 1096 1103 1106 1106 1106 1107 1112 1120 1124 1128 1132 1136 1138 1142 1147 1152 1156 1160 1165 1168 1174 1174 1174 1177 1180 1179 1178 1175 1170 1166 1165 1166 1164 1163 1166 1169 1171 1176 1182 1184 1188 1195 1201 1207 1211 1220 1238 1253 1254 1265 1286 1296 1306 1316 1323 1328 1332 1336 1342 1346 1350 1357 1364 1364 1363 1365 1369 1371 1369 1371 1372 1371 1372 1368 1361 1358 1355 1352 1349 1345 1329 1315 1307 1299 1294 1287 1282 1279 1276 1273 1270 1267 1262 1259 1259 1261 1264 1268 1275 1281 1286 1293 1299 1306 1312 1315 1318 1319 1324 1328 1333 1338 1345 1351 1357 1365 1373 1376 1377 1381 1382 1380 1381 1383 1386 1392 1396 1399 1401 1405 1410 1418 1422 1428 1434 1440 1447 1457 1465 1468 1471 1476 1481 1488 1499 1510 1514 1511 1508 1510 1512 1516 1521 1526 1529 1529 1530 1532 1535 1539 1548 1553 1559 1566 1571 1581 1592 1601 1609 1617 1620 1620 1620 1625 1627 1631 1628 1626 1629 1638 1643 1645 1641 1641 1645 1650 1655 1660 1663 1658 1641 1621 1609 1602 1602 1613 1636 1649 1656 1667 1679 1688 1702 1719 1724 1713 1698 1689 1685 1686 1681 1670 1669 1676 1688 1705 1720 1731 1738 1741 1742 1744 1749 1759 1772 1788 1803 1812 1818 1821 1820 1821 1820 1814 1808 1809 1814 1817 1818 1819 1821 1821 1820 1821 1826 1828 1830 1833 1836 1840 1841 1841 1840 1839 1839 1840 1843 1845 1848 1851 1843 1837 1844 1852 1851 1852 1853 1855 1854 1855 1858 1862 1860 1856 1851 1851 1854 1859 1860 1860 1860 1865 1870 1878 1889 1901 1909 1912 1912 1912 1913 1910 1906 1899 1895 1891 1889 1889 1887 1887 1888 1890 1895 1899 1904 1910 1917 1924 1928 1931 1935 1943 1951 1967 1987 2000 1998 1973 1942 1923 1909 1902 1895 1889 1884 1880 1879 1878 1880 1892 1906 1930 1954 1967 1987 2016 2042 2071 2089 2103 2118 2133 2138 2135 2125 2131 2136 2151 2166 2182 2179 2163 2149 2143 2146 2149 2155 2157 2153 2139 2130 2124 2117 2111 2108 2096 2063 2029 2009 1993 1980 1973 1970 1970 1976 1985 1997 2015 2038 2078 2109 2121 2138 2166 2185 2196 2210 2219 2223 2227 2229 2213 2176 2136 2099 2075 2061 2047 2035 2027 2022 2023 2024 2023 2022 2023 2023 2024 2024 2028 2045 2062 2074 2084 2092 2095 2086 2070 2052 2033 2037 2049 2050 2043 2034 2021 2013 2018 2009 2009 2014 2001 1984 1975 1975 1975 1966 1972 1978 1970 1959 1956 1954 1954 1955 1954 1957 1958 1950 1937 1925 1908 1886 1864 1831 1802 1784 1767 1749 1731 1716 1717 1717 1701 1689 1683 1675 1668 1667 1667 1661 1657 1652 1653 1656 1660 1663 1665 1664 1664 1667 1669 1673 1678 1680 1682 1684 1689 1697 1706 1715 1722 1727 1724 1719 1722 1728 1729 1729 1725 1717 1713 1717 1724 1729 1729 1737 1747 1752 1758 1766 1772 1757 1751 1767 1812 1845 1866 1867 1856 1863 1906 1937 1968 2012 2053 2080 2091 2098 2087 2075 2114 2158 2176 2179 2175 2168 2162 2162 2148 2135 2126 2113 2102 2092 2095 2109 2131 2148 2152 2150 2148 2146 2132 2097 2070 2051 2036 2021 2015 2015 2016 2016 2032 2063 2103 2137 2177 2207 2222 2225 2224 2223 2222 2220 2216 2208 2198 2193 2192 2191 2189 2187 2183 2175 2164 2148 2130 2111 2089 2077 2071 2068 2065 2063 2060 2058 2053 2048 2044 2041 2038 2034 2031 2027 2024
 420 420 420 420 420 420 420 420 420 420 420 421 421 421 422 423 422 421 420 420 420 421 422 422 422 423 424 424 426 427 426 426 428 428 428 430 433 435 436 439 453 470 478 486 495 502 508 512 516 518 518 514 512 516 524 533 548 564 583 599 607 615 625 630 640 647 653 664 679 700 728 748 763 779 797 813 827 847 861 880 900 914 926 935 950 970 986 1003 1029 1059 1074 1080 1077 1076 1078 1080 1087 1103 1111 1115 1117 1122 1137 1155 1165 1171 1175 1173 1175 1177 1184 1193 1200 1207 1206 1194 1180 1174 1171 1161 1154 1153 1147 1139 1141 1146 1150 1162 1173 1181 1194 1209 1215 1222 1239 1253 1266 1284 1306 1321 1331 1336 1345 1358 1367 1373 1377 1380 1383 1381 1379 1370 1352 1337 1321 1300 1282 1263 1248 1227 1204 1186 1177 1164 1153 1145 1141 1134 1124 1116 1108 1103 1093 1071 1058 1050 1044 1041 1036 1029 1024 1017 1017 1021 1024 1017 1011 1006 1005 1008 1015 1023 1028 1033 1040 1049 1055 1047 1039 1023 1009 999 984 970 957 939 916 908 903 897 894 900 914 916 922 937 939 935 929 921 905 888 861 849 845 844 844 840 837 832 822 817 809 797 789 786 797 814 825 835 845 867 880 888 893 894 897 905 921 928 921 911 905 902 901 907 923 939 949 960 970 981 995 1010 1023 1037 1043 1051 1067 1081 1092 1107 1123 1137 1152 1167 1179 1193 1211 1226 1242 1262 1280 1297 1309 1319 1333 1352 1361 1360 1352 1344 1330 1310 1292 1276 1267 1258 1245 1234 1225 1215 1202 1185 1164 1152 1144 1136 1125 1115 1105 1095 1085 1074 1062 1052 1048 1047 1049 1049 1049 1050 1049 1049 1050 1048 1041 1036 1033 1033 1025 1013 1004 999 992 984 979 977 977 973 970 971 969 966 960 956 949 942 943 954 963 965 968 972 973 976 980 978 979 978 979 982 984 985 982 974 970 979 990 994 990 988 988 988 990 993 993 997 999 996 994 996 997 997 997 997 998 999 999 999 1003 1008 1007 1007 1010 1014 1021 1027 1031 1032 1034 1038 1042 1046 1049 1053 1055 1060 1062 1063 1065 1067 1072 1079 1082 1085 1089 1093 1099 1101 1101 1104 1107 1114 1120 1123 1127 1132 1134 1137 1139 1145 1150 1153 1155 1157 1160 1165 1168 1169 1170 1168 1167 1167 1166 1163 1158 1158 1160 1163 1165 1169 1173 1177 1183 1187 1190 1194 1201 1210 1213 1221 1231 1246 1256 1262 1282 1296 1303 1310 1317 1320 1325 1331 1336 1342 1345 1348 1353 1357 1359 1361 1362 1363 1365 1368 1373 1373 1368 1365 1359 1354 1351 1347 1345 1342 1336 1327 1319 1309 1299 1291 1285 1282 1280 1276 1272 1269 1266 1259 1256 1259 1263 1267 1270 1276 1285 1294 1298 1300 1305 1308 1311 1315 1319 1322 1327 1331 1336 1341 1345 1350 1358 1367 1378 1384 1389 1388 1383 1382 1384 1386 1389 1393 1397 1401 1406 1413 1418 1422 1428 1435 1441 1448 1456 1463 1467 1471 1475 1481 1490 1499 1507 1505 1501 1501 1505 1507 1510 1513 1516 1520 1522 1524 1526 1528 1534 1542 1548 1554 1562 1568 1576 1586 1593 1596 1601 1602 1603 1604 1608 1615 1617 1613 1612 1616 1620 1623 1628 1633 1639 1646 1652 1658 1663 1666 1662 1650 1632 1622 1622 1635 1653 1665 1678 1691 1706 1717 1724 1736 1748 1750 1737 1722 1714 1711 1709 1706 1693 1688 1692 1703 1715 1725 1732 1738 1743 1748 1754 1763 1773 1786 1804 1818 1826 1831 1835 1830 1827 1824 1819 1817 1819 1825 1825 1824 1827 1829 1829 1828 1829 1834 1836 1839 1843 1847 1849 1849 1847 1844 1843 1845 1850 1852 1853 1859 1861 1856 1850 1857 1861 1862 1861 1865 1868 1868 1866 1867 1872 1868 1863 1860 1862 1865 1866 1867 1869 1871 1873 1879 1891 1905 1913 1922 1926 1928 1931 1934 1938 1935 1920 1911 1906 1901 1899 1897 1896 1900 1902 1903 1905 1908 1917 1927 1934 1939 1943 1951 1956 1963 1979 1995 2009 2005 1985 1956 1932 1916 1904 1899 1896 1892 1892 1894 1894 1899 1912 1921 1943 1967 1977 1997 2023 2042 2069 2090 2108 2125 2133 2129 2111 2093 2096 2103 2120 2144 2164 2152 2133 2124 2120 2124 2129 2132 2140 2146 2141 2136 2131 2121 2111 2110 2106 2091 2062 2041 2022 2003 1995 1992 1991 1998 2008 2018 2036 2055 2094 2127 2138 2151 2173 2185 2184 2182 2181 2176 2184 2187 2168 2140 2109 2085 2068 2056 2043 2033 2028 2024 2023 2025 2025 2026 2028 2030 2030 2032 2040 2056 2067 2072 2066 2055 2030 2006 1997 1993 1981 1971 1972 1976 1964 1953 1952 1957 1958 1954 1956 1952 1942 1935 1929 1926 1926 1930 1926 1920 1917 1912 1915 1923 1926 1922 1922 1932 1938 1933 1920 1909 1890 1867 1840 1800 1768 1744 1723 1712 1706 1701 1696 1690 1680 1672 1663 1657 1651 1648 1648 1644 1641 1639 1641 1641 1642 1648 1649 1648 1648 1651 1652 1652 1654 1658 1664 1669 1676 1683 1688 1694 1698 1701 1703 1701 1700 1698 1698 1698 1694 1690 1689 1695 1696 1698 1701 1702 1704 1710 1713 1717 1718 1714 1712 1723 1766 1810 1829 1830 1815 1822 1857 1894 1930 1965 2003 2030 2040 2038 2040 2030 2047 2076 2100 2118 2132 2137 2136 2133 2118 2107 2098 2084 2067 2055 2070 2086 2105 2120 2126 2128 2127 2125 2104 2072 2056 2040 2024 2010 2000 1999 2000 2000 2015 2041 2083 2110 2144 2182 2208 2220 2220 2215 2211 2208 2203 2199 2194 2192 2191 2190 2190 2189 2186 2181 2176 2165 2138 2113 2092 2078 2071 2066 2062 2060 2057 2054 2048 2042 2039 2037 2035 2033 2031 2028 2024
 420 420 420 420 420 420 421 421 420 420 420 420 421 421 421 421 421 420 420 420 421 422 422 422 422 422 422 423 424 425 425 426 427 428 428 429 431 434 435 439 454 470 478 486 492 499 504 505 501 496 497 500 505 512 520 533 554 573 590 600 608 620 624 624 631 643 650 661 684 710 731 754 771 790 805 816 831 848 862 881 900 915 932 951 967 983 1005 1028 1049 1062 1068 1070 1073 1073 1072 1073 1074 1086 1101 1104 1106 1110 1123 1144 1156 1160 1159 1159 1160 1169 1183 1187 1183 1176 1170 1162 1156 1153 1149 1143 1140 1139 1137 1132 1135 1143 1149 1158 1172 1190 1218 1218 1221 1232 1251 1262 1277 1301 1315 1328 1339 1344 1348 1354 1359 1367 1371 1371 1368 1368 1370 1364 1349 1331 1311 1297 1278 1259 1250 1235 1214 1193 1172 1155 1139 1131 1130 1124 1116 1104 1095 1089 1077 1056 1042 1038 1035 1028 1019 1017 1019 1016 1013 1015 1011 1009 1005 1002 995 994 998 1009 1016 1020 1025 1036 1046 1046 1036 1019 1005 995 978 961 950 940 915 901 897 888 884 884 896 908 917 924 922 907 898 898 886 869 855 848 841 837 839 838 832 820 803 797 796 788 776 771 780 799 814 826 838 855 866 870 871 872 878 883 896 896 886 885 890 893 896 902 920 942 951 964 984 999 1015 1028 1039 1048 1054 1064 1078 1089 1098 1112 1129 1143 1159 1175 1187 1201 1214 1227 1245 1265 1282 1300 1313 1318 1325 1337 1346 1343 1336 1331 1317 1294 1276 1263 1255 1247 1238 1228 1217 1204 1185 1168 1157 1144 1129 1121 1114 1106 1094 1085 1079 1068 1053 1044 1040 1041 1041 1041 1037 1038 1037 1035 1034 1031 1028 1026 1021 1015 1008 1000 994 990 988 981 977 973 969 964 962 961 960 957 953 950 945 942 942 945 955 960 962 964 966 967 968 970 973 975 975 977 980 981 974 968 968 977 983 985 982 978 978 981 984 986 987 988 991 988 985 985 986 987 989 992 993 994 995 997 997 995 998 1004 1012 1020 1025 1026 1026 1026 1028 1031 1036 1042 1044 1048 1051 1052 1054 1056 1057 1059 1064 1071 1077 1080 1085 1088 1091 1092 1094 1102 1106 1109 1115 1119 1122 1129 1131 1133 1136 1139 1142 1145 1149 1153 1155 1157 1159 1160 1160 1158 1156 1157 1157 1155 1156 1157 1161 1166 1169 1176 1182 1185 1192 1201 1206 1209 1213 1220 1226 1235 1242 1250 1258 1268 1286 1301 1307 1308 1312 1317 1323 1332 1337 1340 1343 1346 1354 1357 1357 1360 1361 1363 1362 1366 1367 1364 1359 1354 1351 1348 1345 1340 1336 1331 1325 1324 1320 1306 1296 1290 1284 1280 1277 1273 1269 1268 1266 1259 1257 1259 1262 1267 1273 1281 1295 1301 1305 1307 1308 1309 1310 1315 1320 1322 1328 1333 1337 1341 1346 1351 1355 1360 1366 1373 1375 1376 1380 1383 1385 1389 1393 1396 1399 1404 1412 1416 1421 1428 1433 1440 1447 1454 1460 1464 1466 1471 1477 1483 1488 1493 1494 1494 1494 1495 1499 1501 1503 1507 1510 1514 1517 1519 1520 1524 1528 1533 1536 1537 1548 1560 1566 1571 1575 1578 1578 1579 1584 1587 1591 1594 1599 1598 1599 1604 1610 1617 1622 1630 1644 1652 1657 1663 1670 1674 1672 1664 1651 1651 1658 1673 1685 1699 1713 1726 1737 1746 1755 1769 1779 1778 1769 1759 1752 1754 1744 1731 1719 1713 1714 1717 1722 1726 1735 1743 1749 1756 1769 1781 1790 1805 1821 1834 1843 1850 1852 1845 1835 1831 1830 1829 1831 1833 1835 1835 1837 1838 1840 1842 1843 1846 1849 1851 1851 1853 1855 1856 1856 1855 1855 1859 1862 1864 1866 1868 1872 1873 1868 1872 1875 1877 1878 1880 1880 1880 1881 1883 1884 1880 1874 1870 1871 1872 1876 1879 1882 1883 1885 1893 1906 1919 1928 1937 1941 1946 1954 1960 1968 1971 1957 1935 1924 1918 1917 1912 1911 1911 1912 1911 1911 1915 1925 1936 1943 1949 1956 1965 1970 1976 1985 2006 2015 2007 1986 1961 1940 1926 1911 1906 1907 1906 1910 1914 1917 1922 1930 1943 1963 1979 1989 2005 2025 2046 2067 2086 2107 2121 2124 2111 2078 2057 2060 2071 2081 2106 2132 2124 2108 2099 2093 2098 2100 2090 2084 2096 2112 2114 2107 2095 2089 2095 2094 2086 2075 2057 2048 2038 2030 2026 2023 2026 2033 2047 2067 2082 2107 2137 2154 2169 2179 2174 2148 2128 2112 2108 2123 2136 2130 2107 2093 2079 2064 2053 2043 2036 2032 2030 2029 2030 2031 2033 2035 2034 2028 2022 2022 2025 2026 2021 1999 1971 1958 1959 1969 1963 1927 1916 1926 1920 1908 1903 1902 1898 1895 1892 1889 1891 1899 1900 1891 1882 1885 1886 1886 1878 1865 1863 1861 1868 1871 1868 1882 1901 1907 1901 1890 1876 1857 1835 1807 1765 1728 1709 1693 1683 1679 1681 1677 1669 1664 1656 1646 1639 1635 1630 1627 1624 1622 1623 1622 1622 1625 1629 1628 1629 1630 1630 1631 1633 1636 1641 1648 1654 1662 1670 1677 1680 1678 1677 1679 1675 1673 1672 1675 1673 1666 1665 1669 1669 1668 1670 1670 1669 1669 1673 1680 1679 1682 1685 1682 1687 1709 1740 1765 1764 1765 1786 1816 1855 1897 1928 1948 1957 1958 1962 1977 1996 2011 2019 2026 2034 2064 2094 2105 2098 2070 2055 2044 2035 2026 2025 2047 2067 2068 2057 2057 2064 2068 2071 2063 2055 2049 2035 2019 2004 1991 1984 1981 1978 1993 2020 2056 2085 2110 2155 2182 2197 2199 2189 2176 2173 2179 2186 2188 2190 2190 2190 2190 2189 2189 2186 2182 2169 2138 2112 2094 2080 2072 2066 2060 2055 2051 2047 2043 2037 2032 2032 2033 2032 2030 2027 2022
 421 421 420 420 421 421 420 420 420 420 420 420 420 421 421 420 420 420 420 420 420 421 422 422 422 421 422 423 424 425 426 428 428 429 429 430 432 434 436 439 449 463 474 482 486 486 486 485 483 485 495 507 519 529 539 552 570 582 592 600 612 623 618 612 618 630 644 672 705 722 741 764 784 799 811 821 833 853 870 891 916 930 945 962 977 997 1021 1034 1044 1050 1052 1053 1054 1051 1054 1064 1067 1069 1084 1094 1104 1110 1117 1126 1133 1143 1143 1141 1150 1157 1159 1158 1150 1144 1143 1139 1135 1133 1131 1126 1122 1122 1121 1120 1128 1141 1148 1154 1169 1191 1218 1224 1235 1254 1272 1280 1294 1308 1323 1335 1341 1346 1349 1352 1355 1358 1360 1359 1359 1358 1349 1341 1329 1308 1295 1286 1271 1257 1244 1230 1214 1200 1183 1163 1147 1128 1116 1112 1101 1088 1074 1065 1053 1035 1029 1028 1025 1019 1013 1008 1005 1008 1009 1009 1007 1004 1001 996 990 988 989 992 996 1005 1013 1026 1039 1043 1036 1021 1006 995 978 961 948 941 930 909 890 883 881 876 875 890 900 885 876 868 862 857 851 843 833 832 833 835 840 840 832 815 793 784 788 784 770 760 765 778 794 813 831 841 846 848 855 860 861 857 862 865 868 871 877 885 895 907 926 947 962 986 1003 1017 1028 1037 1043 1050 1060 1072 1087 1099 1108 1121 1137 1151 1169 1188 1201 1212 1220 1232 1251 1270 1284 1302 1314 1317 1320 1327 1333 1331 1322 1314 1296 1275 1262 1250 1241 1233 1224 1210 1199 1186 1169 1161 1158 1143 1126 1116 1107 1095 1085 1079 1069 1059 1049 1041 1038 1037 1034 1030 1026 1025 1025 1021 1019 1017 1016 1014 1008 1003 998 991 985 980 977 973 969 964 962 960 955 952 952 951 948 945 942 940 938 938 944 952 957 959 961 962 963 964 965 966 966 967 969 968 962 961 965 974 975 974 972 971 970 973 976 977 977 980 983 981 980 980 980 980 983 986 990 990 992 993 991 990 991 995 1005 1019 1023 1022 1021 1024 1028 1032 1033 1037 1041 1042 1044 1047 1048 1051 1055 1059 1063 1067 1071 1077 1081 1083 1087 1089 1091 1102 1107 1109 1112 1116 1119 1122 1129 1132 1134 1136 1137 1137 1142 1147 1148 1148 1149 1151 1153 1152 1151 1153 1154 1156 1158 1162 1166 1170 1177 1184 1189 1194 1204 1213 1217 1222 1229 1232 1236 1246 1252 1258 1265 1275 1285 1296 1304 1306 1313 1324 1332 1337 1340 1342 1344 1346 1352 1357 1357 1358 1357 1356 1354 1353 1350 1348 1344 1342 1342 1341 1338 1333 1326 1321 1321 1321 1314 1303 1293 1288 1283 1277 1274 1271 1268 1266 1262 1259 1259 1260 1263 1269 1279 1292 1301 1305 1311 1317 1322 1325 1324 1328 1329 1333 1336 1338 1341 1348 1352 1353 1357 1361 1365 1370 1374 1378 1383 1387 1389 1394 1398 1402 1408 1414 1418 1423 1429 1437 1442 1449 1455 1459 1465 1467 1470 1476 1480 1484 1488 1491 1491 1491 1490 1489 1491 1494 1494 1497 1501 1506 1511 1512 1512 1516 1517 1520 1525 1526 1536 1546 1550 1557 1558 1558 1559 1560 1565 1573 1577 1579 1584 1587 1593 1603 1610 1618 1624 1635 1645 1656 1665 1672 1679 1685 1690 1690 1684 1691 1704 1708 1715 1731 1746 1757 1765 1774 1784 1796 1808 1814 1814 1808 1800 1790 1773 1760 1748 1738 1735 1737 1734 1735 1742 1749 1757 1772 1789 1802 1817 1828 1839 1850 1861 1866 1867 1863 1850 1841 1842 1841 1841 1843 1845 1848 1851 1852 1853 1854 1856 1857 1857 1857 1857 1856 1858 1860 1861 1863 1866 1871 1874 1876 1879 1882 1886 1887 1884 1883 1889 1890 1893 1894 1896 1894 1892 1892 1893 1889 1884 1880 1882 1883 1886 1888 1890 1894 1905 1914 1925 1935 1945 1953 1963 1972 1982 1991 1994 1996 1992 1972 1947 1937 1932 1929 1927 1925 1922 1921 1923 1930 1938 1946 1953 1962 1973 1980 1987 1994 2005 2019 2019 2004 1986 1968 1949 1938 1931 1924 1924 1925 1928 1933 1937 1943 1954 1967 1984 1994 2004 2014 2029 2044 2066 2082 2103 2110 2106 2085 2053 2036 2038 2044 2039 2058 2096 2104 2091 2072 2062 2059 2054 2049 2052 2069 2083 2076 2062 2054 2055 2063 2066 2068 2059 2051 2048 2050 2051 2046 2042 2045 2054 2067 2081 2093 2106 2116 2122 2131 2128 2110 2087 2070 2061 2063 2065 2071 2072 2075 2079 2072 2058 2049 2044 2041 2037 2032 2026 2022 2023 2027 2029 2017 2003 1989 1970 1959 1960 1958 1935 1924 1927 1937 1934 1903 1881 1875 1869 1865 1857 1844 1835 1831 1828 1830 1835 1830 1833 1836 1832 1826 1827 1832 1829 1820 1814 1815 1812 1809 1804 1806 1820 1845 1861 1859 1847 1820 1794 1783 1761 1725 1701 1686 1672 1665 1664 1659 1655 1652 1646 1638 1630 1625 1621 1616 1611 1609 1607 1605 1603 1605 1607 1607 1607 1608 1608 1610 1613 1617 1621 1627 1634 1638 1646 1651 1655 1658 1655 1654 1654 1651 1651 1653 1649 1643 1640 1642 1646 1645 1644 1641 1641 1642 1645 1647 1652 1655 1661 1666 1669 1675 1687 1700 1708 1710 1720 1734 1782 1826 1860 1891 1910 1913 1918 1925 1940 1954 1964 1980 1993 2007 2032 2059 2074 2069 2047 2035 2020 2011 2000 1992 1996 2011 2021 2010 2001 2001 2016 2026 2036 2044 2043 2029 2015 2001 1989 1977 1966 1959 1966 1995 2026 2056 2079 2114 2146 2156 2158 2152 2143 2143 2155 2168 2180 2186 2189 2192 2190 2188 2188 2188 2185 2173 2146 2122 2101 2088 2079 2070 2062 2055 2047 2042 2037 2029 2022 2021 2025 2026 2023 2019 2015
 421 421 421 421 422 421 420 420 420 420 420 421 421 422 421 421 421 421 421 420 421 422 422 422 421 420 422 423 425 425 427 429 431 430 430 430 432 434 436 439 444 454 465 473 472 468 468 471 477 490 508 522 534 545 552 564 577 585 592 602 615 621 618 614 618 635 659 685 711 726 743 763 783 801 815 825 840 859 876 899 926 937 948 966 981 995 1011 1023 1032 1037 1039 1040 1039 1039 1045 1055 1060 1059 1066 1085 1100 1109 1114 1117 1120 1126 1132 1134 1136 1138 1139 1136 1130 1127 1128 1126 1121 1118 1114 1110 1107 1107 1110 1115 1123 1133 1141 1152 1165 1185 1216 1232 1246 1262 1275 1286 1301 1315 1331 1339 1341 1344 1346 1351 1352 1352 1352 1352 1348 1342 1329 1314 1302 1291 1282 1269 1256 1242 1228 1213 1202 1191 1174 1157 1139 1126 1112 1098 1082 1062 1049 1042 1034 1025 1020 1018 1018 1013 1010 1007 1000 1001 1007 1007 1002 997 991 990 989 985 984 985 988 995 1003 1012 1023 1031 1030 1016 1006 997 983 969 955 941 930 915 890 880 878 871 860 862 864 857 855 849 845 838 828 820 814 818 824 825 832 834 829 811 784 777 779 777 762 749 751 762 778 792 808 821 827 834 842 853 854 849 852 856 860 864 872 887 906 924 942 962 980 998 1012 1022 1030 1036 1042 1050 1061 1076 1094 1107 1115 1129 1145 1158 1180 1200 1211 1219 1228 1240 1256 1271 1285 1301 1312 1316 1318 1323 1324 1318 1308 1298 1280 1264 1252 1240 1228 1219 1209 1196 1186 1171 1158 1154 1149 1132 1122 1116 1107 1089 1081 1070 1063 1056 1045 1040 1036 1031 1024 1019 1015 1012 1011 1010 1009 1007 1004 1000 996 990 987 984 979 974 971 968 964 960 956 952 947 946 946 943 942 940 938 936 934 933 935 941 949 953 956 954 955 957 957 959 960 960 961 957 954 956 960 968 971 970 969 968 966 969 971 971 972 975 978 975 974 976 977 978 982 984 985 985 987 990 989 986 986 990 1000 1011 1016 1017 1017 1020 1026 1032 1031 1029 1032 1034 1039 1044 1048 1052 1056 1060 1063 1065 1067 1072 1077 1080 1084 1085 1090 1100 1107 1111 1113 1116 1117 1121 1124 1127 1131 1131 1131 1132 1133 1136 1139 1141 1143 1144 1147 1150 1152 1152 1154 1157 1161 1166 1169 1176 1184 1190 1195 1202 1210 1217 1222 1231 1238 1242 1247 1254 1259 1265 1271 1279 1285 1293 1301 1306 1316 1327 1333 1336 1338 1340 1342 1345 1347 1349 1350 1350 1350 1349 1348 1345 1341 1339 1336 1335 1334 1334 1331 1328 1321 1318 1317 1316 1310 1298 1289 1285 1281 1276 1273 1270 1266 1260 1257 1258 1260 1263 1267 1272 1282 1298 1311 1318 1319 1325 1340 1344 1344 1345 1344 1351 1353 1351 1354 1357 1361 1363 1365 1369 1376 1388 1394 1397 1400 1403 1402 1405 1412 1415 1420 1424 1428 1434 1442 1450 1454 1457 1461 1466 1473 1475 1477 1477 1478 1478 1482 1485 1485 1484 1484 1483 1483 1485 1486 1487 1490 1496 1499 1501 1502 1506 1508 1512 1515 1520 1528 1536 1538 1543 1541 1541 1544 1548 1552 1561 1566 1570 1577 1586 1595 1605 1615 1623 1632 1638 1646 1654 1665 1676 1685 1693 1701 1708 1712 1720 1728 1735 1747 1758 1772 1779 1786 1795 1803 1815 1826 1834 1838 1830 1817 1805 1787 1771 1762 1755 1749 1746 1744 1745 1749 1755 1768 1785 1806 1823 1836 1845 1855 1867 1875 1882 1885 1881 1869 1853 1853 1852 1850 1850 1854 1857 1859 1861 1863 1863 1865 1866 1866 1864 1862 1861 1865 1870 1870 1870 1873 1878 1882 1886 1889 1889 1892 1893 1893 1895 1902 1905 1906 1906 1907 1907 1907 1903 1899 1895 1893 1892 1893 1893 1895 1898 1902 1909 1923 1935 1944 1952 1959 1969 1982 1992 2004 2013 2018 2018 2008 1994 1971 1955 1947 1942 1937 1934 1930 1929 1934 1940 1948 1955 1963 1974 1983 1993 2005 2011 2019 2027 2026 2011 1991 1977 1962 1951 1946 1944 1939 1941 1945 1949 1953 1961 1978 1995 2004 2008 2014 2024 2036 2051 2073 2089 2101 2100 2085 2064 2041 2019 2014 2010 1999 2008 2039 2060 2063 2055 2041 2024 2018 2019 2019 2033 2048 2046 2038 2031 2032 2037 2048 2044 2033 2023 2022 2029 2043 2045 2037 2035 2042 2043 2046 2054 2069 2066 2059 2062 2059 2050 2033 2010 2007 2017 2028 2029 2038 2045 2053 2048 2032 2023 2026 2032 2028 2014 1999 1992 1996 2002 2004 1990 1971 1956 1936 1927 1931 1923 1901 1896 1903 1907 1890 1870 1848 1828 1812 1816 1819 1813 1800 1792 1791 1789 1788 1787 1788 1791 1791 1790 1789 1789 1788 1778 1776 1775 1770 1767 1766 1767 1774 1794 1816 1814 1808 1789 1769 1751 1725 1701 1690 1681 1666 1657 1652 1645 1641 1636 1629 1622 1618 1615 1609 1603 1602 1601 1599 1598 1595 1594 1594 1594 1595 1596 1596 1597 1600 1604 1610 1615 1619 1621 1631 1635 1638 1640 1639 1636 1634 1631 1628 1628 1626 1625 1627 1629 1630 1629 1626 1623 1623 1625 1629 1633 1639 1642 1647 1651 1655 1663 1672 1684 1687 1686 1690 1700 1738 1794 1833 1852 1868 1887 1899 1908 1921 1929 1935 1956 1976 1994 2017 2030 2040 2040 2025 2009 1991 1977 1967 1958 1953 1954 1960 1962 1959 1964 1976 1988 2008 2025 2026 2015 2011 2002 1989 1975 1959 1946 1942 1957 1993 2026 2052 2080 2112 2131 2136 2127 2118 2125 2136 2154 2172 2184 2190 2192 2192 2189 2187 2187 2186 2178 2161 2141 2119 2102 2094 2084 2071 2062 2051 2041 2034 2026 2020 2019 2019 2018 2013 2010 2007
 421 422 423 423 423 422 423 424 424 424 425 426 427 426 425 425 424 424 423 422 422 423 423 422 421 420 421 423 424 424 425 429 432 432 431 430 431 433 435 438 441 445 452 458 457 457 463 470 482 502 520 531 541 550 557 569 581 586 588 594 600 604 607 612 627 654 669 689 714 729 744 762 780 800 820 833 849 867 884 906 928 940 955 969 977 981 985 990 999 1005 1008 1011 1011 1017 1034 1043 1046 1050 1056 1073 1089 1096 1100 1109 1113 1115 1120 1121 1118 1115 1114 1112 1108 1108 1109 1106 1101 1097 1091 1090 1091 1094 1102 1111 1117 1125 1135 1149 1161 1180 1214 1235 1248 1261 1273 1286 1303 1316 1327 1336 1340 1342 1342 1343 1345 1341 1336 1331 1327 1321 1311 1304 1296 1285 1272 1255 1240 1224 1209 1196 1185 1169 1155 1141 1118 1104 1096 1092 1076 1051 1038 1030 1022 1018 1016 1011 1005 1005 1009 1008 998 992 997 998 991 984 981 982 980 978 978 980 980 988 996 1002 1009 1017 1014 998 992 986 972 961 950 936 920 905 888 879 872 867 853 844 840 837 832 825 817 814 810 803 797 798 803 802 806 813 813 802 780 768 766 759 748 742 741 751 772 783 792 805 820 826 829 836 843 841 839 840 846 861 875 896 920 938 957 975 989 1004 1016 1024 1030 1036 1043 1052 1062 1077 1095 1109 1118 1133 1148 1163 1185 1204 1212 1220 1230 1242 1255 1270 1284 1299 1309 1315 1317 1316 1310 1300 1290 1280 1265 1250 1238 1229 1215 1203 1195 1189 1179 1160 1148 1139 1130 1122 1111 1098 1087 1077 1073 1064 1059 1046 1038 1035 1032 1025 1018 1012 1006 1003 1002 1002 1002 997 993 989 984 981 979 976 972 968 964 959 955 951 948 945 943 941 940 936 933 932 932 932 932 931 930 934 942 946 946 944 945 947 948 950 953 952 950 947 946 950 954 957 960 959 959 959 960 963 964 964 966 968 966 967 968 969 971 976 981 984 984 984 980 981 985 986 987 992 1001 1009 1013 1013 1013 1016 1020 1026 1024 1023 1028 1034 1039 1043 1048 1054 1058 1060 1062 1064 1067 1069 1072 1076 1080 1085 1091 1097 1101 1105 1110 1114 1115 1117 1118 1120 1122 1118 1118 1124 1128 1130 1131 1133 1135 1138 1142 1148 1153 1153 1155 1162 1169 1174 1178 1185 1190 1197 1205 1208 1214 1221 1229 1237 1241 1245 1253 1261 1265 1267 1270 1276 1283 1296 1303 1310 1318 1323 1327 1332 1334 1333 1333 1336 1340 1341 1341 1339 1339 1336 1334 1333 1332 1332 1331 1330 1328 1328 1328 1324 1316 1313 1307 1304 1300 1289 1285 1283 1278 1274 1269 1264 1257 1253 1254 1258 1261 1266 1271 1275 1283 1306 1322 1331 1338 1347 1348 1350 1351 1349 1356 1363 1364 1361 1364 1365 1371 1376 1379 1386 1400 1410 1412 1416 1417 1416 1417 1421 1425 1428 1432 1436 1442 1445 1450 1455 1458 1461 1464 1469 1473 1474 1472 1470 1466 1466 1467 1467 1465 1467 1470 1472 1472 1472 1472 1476 1478 1482 1484 1484 1484 1487 1493 1499 1505 1512 1516 1517 1521 1527 1530 1535 1541 1548 1552 1558 1565 1571 1580 1590 1599 1608 1618 1626 1632 1638 1646 1655 1665 1676 1689 1700 1710 1722 1732 1743 1750 1764 1773 1785 1794 1800 1809 1817 1826 1837 1846 1855 1856 1844 1827 1813 1800 1785 1774 1769 1763 1756 1753 1754 1759 1768 1781 1797 1822 1839 1854 1866 1876 1883 1892 1905 1908 1901 1886 1868 1865 1863 1862 1862 1864 1866 1869 1871 1874 1876 1877 1879 1876 1874 1871 1872 1874 1877 1879 1881 1881 1884 1889 1894 1898 1900 1902 1902 1905 1908 1912 1914 1916 1915 1915 1917 1917 1914 1909 1908 1909 1909 1908 1909 1909 1914 1919 1935 1948 1954 1959 1967 1975 1990 2002 2017 2028 2035 2037 2033 2021 2006 1987 1972 1965 1958 1954 1950 1945 1943 1944 1952 1961 1967 1977 1990 2000 2011 2023 2028 2033 2035 2034 2029 2010 1993 1983 1979 1973 1968 1963 1960 1964 1971 1974 1989 2010 2025 2031 2035 2039 2044 2052 2066 2081 2091 2094 2086 2064 2043 2020 1998 1984 1964 1961 1964 1981 1989 1985 1986 1989 1983 1981 1983 1983 2000 2012 2010 2005 2004 2012 2020 2021 2016 2003 1991 1986 1978 1984 1998 2003 2000 1995 1993 1998 2002 2005 2005 2007 2011 2010 2006 1979 1954 1952 1964 1990 1990 2005 2016 2016 2011 2000 1989 1985 1993 2001 1995 1987 1975 1957 1954 1963 1960 1937 1912 1902 1888 1884 1881 1868 1855 1847 1840 1829 1811 1783 1770 1763 1758 1756 1754 1756 1754 1755 1750 1747 1746 1748 1750 1751 1757 1758 1753 1747 1744 1745 1742 1740 1740 1737 1737 1744 1752 1757 1761 1767 1757 1738 1712 1696 1687 1681 1673 1657 1644 1639 1630 1623 1616 1611 1606 1603 1600 1594 1592 1591 1592 1592 1592 1590 1588 1587 1586 1584 1583 1587 1588 1592 1596 1598 1601 1604 1607 1611 1616 1621 1623 1623 1624 1619 1614 1612 1610 1608 1606 1607 1606 1608 1609 1609 1606 1605 1604 1607 1614 1619 1622 1630 1634 1635 1642 1651 1662 1673 1676 1674 1675 1701 1741 1787 1810 1819 1838 1863 1877 1892 1891 1897 1919 1957 1978 1990 1997 2000 1994 1981 1968 1956 1943 1933 1924 1917 1918 1923 1920 1917 1927 1938 1946 1961 1990 1997 1996 1999 1992 1973 1959 1947 1933 1922 1926 1955 1994 2023 2051 2075 2094 2098 2093 2093 2102 2115 2129 2154 2173 2183 2188 2188 2188 2187 2187 2187 2182 2175 2165 2149 2132 2120 2110 2094 2076 2060 2046 2035 2029 2026 2023 2019 2013 2007 2003 1999
 422 424 425 425 427 430 433 434 432 431 431 432 432 430 428 428 429 426 424 423 423 423 423 423 423 421 421 422 423 424 425 427 430 432 430 429 430 432 434 436 439 442 444 448 452 458 468 478 492 512 525 535 544 553 562 574 584 587 585 583 585 592 605 621 641 659 675 690 716 729 744 761 778 803 824 838 856 873 892 912 934 950 968 976 975 976 978 983 988 989 986 986 998 1008 1015 1024 1037 1046 1051 1063 1078 1085 1089 1095 1106 1110 1111 1105 1099 1092 1086 1084 1083 1084 1083 1081 1078 1075 1074 1075 1078 1085 1095 1104 1112 1121 1131 1147 1164 1188 1215 1234 1246 1260 1275 1288 1304 1314 1321 1329 1332 1334 1335 1334 1332 1328 1325 1323 1317 1305 1298 1295 1297 1291 1276 1258 1248 1232 1217 1200 1186 1173 1157 1144 1126 1103 1092 1089 1079 1055 1033 1026 1019 1012 1008 1001 998 997 996 994 987 984 986 982 981 980 975 974 974 975 975 972 970 978 990 996 1001 1004 1004 990 979 969 953 942 930 913 896 886 881 876 865 857 852 842 828 820 815 809 803 801 795 790 785 785 786 786 788 793 797 791 780 768 756 748 744 739 738 744 757 776 790 802 812 813 814 818 818 820 826 831 842 864 874 897 924 943 961 978 992 1006 1018 1025 1030 1037 1045 1054 1066 1079 1094 1108 1119 1133 1149 1162 1179 1196 1206 1215 1227 1240 1255 1272 1286 1299 1310 1315 1314 1306 1296 1282 1271 1260 1246 1234 1225 1217 1203 1190 1183 1178 1169 1154 1147 1138 1123 1110 1102 1087 1074 1069 1061 1053 1048 1041 1033 1027 1020 1013 1008 1000 994 992 992 992 992 991 984 980 977 974 969 968 963 960 956 950 947 944 941 939 936 935 933 929 928 927 927 926 924 925 926 927 930 934 936 934 935 939 941 942 943 944 942 940 937 941 945 947 947 948 950 952 954 958 961 962 963 961 959 959 961 963 968 976 981 982 983 983 974 974 980 986 989 992 1000 1005 1009 1010 1011 1013 1016 1018 1020 1022 1029 1037 1041 1045 1049 1051 1053 1056 1057 1061 1065 1067 1069 1073 1078 1084 1089 1098 1100 1099 1101 1106 1108 1111 1113 1115 1117 1113 1115 1127 1137 1140 1140 1142 1140 1138 1141 1145 1151 1157 1162 1168 1173 1178 1183 1187 1191 1198 1206 1211 1217 1223 1231 1238 1243 1248 1256 1262 1266 1268 1271 1277 1287 1298 1304 1308 1314 1318 1320 1323 1324 1324 1327 1327 1327 1329 1332 1330 1327 1325 1324 1325 1325 1325 1324 1323 1320 1323 1323 1315 1310 1303 1294 1289 1286 1282 1280 1278 1276 1271 1265 1258 1252 1253 1258 1266 1270 1276 1280 1285 1297 1315 1323 1330 1342 1350 1351 1356 1360 1358 1363 1367 1374 1375 1375 1378 1387 1397 1404 1409 1416 1419 1417 1421 1425 1426 1427 1428 1431 1435 1439 1443 1445 1447 1450 1453 1455 1458 1459 1461 1461 1459 1457 1456 1457 1456 1455 1452 1451 1450 1449 1454 1459 1461 1463 1467 1468 1465 1465 1465 1465 1469 1475 1484 1493 1499 1505 1511 1515 1521 1528 1535 1542 1547 1550 1555 1562 1568 1576 1584 1591 1598 1608 1616 1625 1636 1645 1655 1667 1681 1695 1710 1722 1735 1747 1757 1768 1781 1790 1802 1813 1821 1831 1840 1849 1859 1868 1877 1873 1861 1845 1830 1814 1801 1788 1780 1774 1765 1765 1768 1774 1780 1790 1807 1830 1849 1871 1883 1890 1895 1909 1918 1920 1913 1900 1883 1874 1871 1870 1873 1877 1879 1880 1883 1886 1887 1889 1891 1890 1888 1887 1886 1885 1885 1886 1889 1891 1894 1898 1901 1904 1907 1909 1912 1915 1916 1917 1917 1921 1926 1927 1927 1923 1922 1923 1922 1922 1923 1922 1923 1929 1936 1949 1961 1966 1969 1974 1986 1998 2010 2027 2039 2047 2050 2051 2052 2042 2026 2012 1990 1978 1971 1968 1965 1961 1958 1957 1965 1971 1978 1991 2005 2016 2032 2041 2044 2042 2041 2040 2040 2035 2020 2008 2005 2003 2000 1992 1986 1986 1991 1997 2009 2020 2030 2037 2047 2052 2055 2057 2059 2063 2062 2063 2058 2033 2002 1973 1959 1940 1927 1924 1926 1927 1925 1916 1912 1929 1935 1933 1932 1937 1947 1962 1969 1982 1989 1992 1999 2005 2001 1984 1976 1959 1940 1943 1958 1977 1983 1972 1964 1962 1964 1961 1960 1965 1979 1980 1957 1921 1907 1908 1923 1948 1961 1968 1973 1976 1974 1970 1962 1957 1957 1961 1961 1963 1951 1927 1923 1929 1922 1898 1876 1861 1852 1852 1849 1833 1810 1786 1773 1766 1753 1743 1741 1740 1731 1725 1718 1719 1725 1725 1720 1715 1713 1718 1721 1724 1729 1727 1724 1721 1720 1717 1716 1714 1715 1715 1716 1718 1721 1721 1726 1729 1722 1706 1694 1685 1677 1668 1655 1640 1631 1624 1615 1610 1602 1598 1592 1589 1586 1583 1584 1584 1585 1587 1587 1587 1587 1588 1588 1584 1581 1582 1584 1587 1591 1591 1590 1592 1595 1598 1600 1604 1604 1604 1604 1600 1597 1595 1595 1592 1590 1590 1590 1592 1590 1592 1591 1590 1588 1589 1595 1600 1604 1610 1616 1620 1624 1633 1640 1647 1658 1659 1656 1668 1699 1735 1772 1788 1801 1819 1837 1847 1853 1870 1896 1948 1973 1980 1987 1983 1969 1957 1947 1931 1916 1907 1897 1892 1889 1885 1884 1887 1892 1898 1910 1922 1948 1972 1980 1977 1961 1939 1930 1929 1917 1901 1897 1916 1952 1984 2024 2050 2066 2068 2066 2065 2077 2097 2112 2129 2149 2165 2182 2187 2187 2186 2186 2185 2183 2180 2177 2172 2163 2151 2140 2124 2101 2074 2055 2042 2031 2027 2024 2018 2011 2005 2000 1995
 423 424 427 430 434 436 437 436 434 431 430 430 430 429 428 427 429 430 427 424 423 422 422 422 423 422 421 421 421 423 425 426 427 428 428 428 429 431 432 433 437 440 442 445 451 459 472 486 501 518 529 537 549 559 566 575 583 586 585 581 581 591 611 628 639 653 669 686 715 732 748 764 782 808 828 841 859 876 894 917 940 958 968 974 973 973 975 971 971 973 972 984 1000 1006 1006 1008 1019 1038 1046 1057 1069 1080 1084 1092 1098 1101 1097 1089 1081 1070 1062 1059 1061 1063 1063 1063 1064 1063 1063 1067 1073 1082 1092 1100 1110 1121 1132 1149 1176 1197 1216 1233 1246 1264 1281 1293 1303 1311 1316 1323 1326 1327 1328 1325 1322 1320 1315 1308 1299 1293 1292 1291 1292 1282 1264 1254 1251 1241 1227 1214 1197 1181 1167 1148 1132 1116 1099 1088 1073 1051 1034 1025 1014 1006 998 994 992 990 987 985 982 979 975 973 976 977 972 970 969 970 969 967 967 969 973 972 970 976 991 985 969 956 946 934 921 909 888 878 868 862 853 848 849 845 834 824 815 809 804 797 791 781 777 777 776 775 778 780 781 774 773 766 754 746 742 734 731 742 756 773 788 800 803 802 799 801 804 811 820 830 849 864 874 899 925 943 961 977 989 1003 1016 1021 1025 1034 1044 1056 1069 1082 1096 1108 1119 1132 1149 1162 1174 1189 1202 1215 1229 1243 1259 1276 1290 1302 1309 1312 1309 1300 1288 1271 1255 1244 1233 1223 1215 1205 1191 1181 1172 1164 1156 1150 1141 1127 1108 1101 1094 1080 1066 1057 1047 1041 1040 1037 1026 1018 1013 1007 1001 993 991 988 985 981 980 979 976 975 972 967 960 956 955 952 948 945 942 938 936 935 932 929 928 927 924 923 922 920 917 911 914 920 924 926 928 927 928 931 934 936 938 937 932 930 930 935 941 940 941 942 944 947 949 954 959 960 961 958 956 955 954 959 966 971 973 970 972 973 969 972 977 983 987 989 994 998 1002 1007 1011 1011 1014 1016 1018 1023 1031 1037 1041 1046 1047 1048 1048 1049 1053 1057 1062 1066 1069 1070 1073 1079 1085 1091 1092 1090 1095 1101 1105 1105 1105 1108 1114 1120 1126 1138 1144 1144 1145 1146 1147 1146 1146 1149 1155 1162 1166 1171 1173 1177 1182 1187 1193 1201 1206 1210 1217 1222 1228 1234 1237 1245 1255 1263 1267 1269 1276 1283 1288 1295 1298 1300 1304 1309 1315 1316 1314 1315 1315 1318 1320 1318 1320 1320 1319 1318 1320 1322 1321 1320 1319 1317 1317 1317 1315 1309 1302 1294 1287 1282 1281 1279 1278 1275 1272 1267 1259 1253 1253 1256 1262 1272 1278 1283 1288 1300 1313 1321 1325 1331 1341 1348 1354 1363 1373 1375 1373 1376 1382 1385 1390 1397 1400 1404 1408 1410 1414 1418 1419 1421 1424 1425 1426 1427 1428 1431 1434 1437 1438 1440 1444 1446 1448 1452 1454 1453 1452 1451 1450 1450 1450 1447 1444 1443 1442 1441 1442 1444 1446 1448 1450 1454 1452 1450 1453 1455 1459 1466 1475 1483 1491 1496 1502 1509 1511 1512 1519 1526 1534 1538 1543 1550 1560 1566 1573 1584 1592 1599 1608 1614 1625 1639 1648 1657 1674 1686 1700 1715 1728 1742 1756 1767 1779 1791 1801 1814 1827 1835 1846 1856 1864 1876 1885 1893 1892 1879 1862 1843 1825 1813 1801 1790 1782 1775 1774 1778 1784 1789 1799 1819 1843 1865 1885 1897 1903 1910 1923 1928 1929 1920 1906 1894 1886 1882 1882 1886 1889 1892 1892 1893 1896 1896 1899 1900 1899 1899 1898 1899 1900 1899 1897 1895 1897 1903 1908 1910 1913 1915 1916 1918 1918 1919 1919 1920 1926 1931 1933 1933 1931 1930 1928 1927 1928 1931 1934 1939 1948 1958 1969 1975 1981 1982 1993 2008 2017 2033 2049 2056 2062 2066 2068 2069 2063 2047 2035 2020 2001 1989 1983 1980 1975 1971 1971 1974 1980 1990 2007 2023 2034 2042 2045 2046 2047 2050 2049 2048 2047 2042 2036 2029 2021 2015 2007 2000 1996 2000 2003 2007 2008 1998 1994 2012 2025 2025 2020 2013 2008 2011 2017 2016 1989 1960 1929 1919 1910 1902 1897 1892 1887 1882 1877 1871 1878 1889 1898 1893 1892 1905 1919 1933 1945 1957 1964 1971 1977 1964 1953 1944 1925 1910 1918 1936 1949 1951 1938 1925 1926 1929 1928 1932 1945 1958 1959 1928 1888 1877 1877 1885 1900 1916 1931 1942 1948 1946 1940 1937 1931 1926 1920 1913 1907 1897 1886 1876 1872 1858 1842 1831 1826 1818 1809 1803 1792 1775 1760 1750 1744 1734 1726 1721 1718 1712 1706 1699 1699 1702 1702 1697 1694 1695 1700 1701 1703 1708 1708 1706 1703 1702 1699 1698 1697 1698 1698 1699 1700 1704 1704 1706 1702 1697 1691 1683 1671 1667 1661 1644 1630 1624 1615 1608 1601 1592 1588 1586 1585 1582 1581 1580 1579 1578 1582 1584 1585 1586 1588 1591 1590 1585 1580 1580 1582 1585 1585 1584 1583 1585 1588 1590 1591 1589 1590 1590 1586 1584 1583 1585 1583 1581 1581 1579 1577 1576 1579 1581 1580 1577 1575 1579 1583 1587 1595 1601 1606 1612 1619 1625 1633 1642 1645 1649 1651 1668 1698 1734 1754 1765 1778 1794 1819 1838 1857 1884 1924 1950 1960 1971 1968 1954 1941 1928 1910 1896 1884 1873 1865 1858 1852 1852 1853 1864 1877 1885 1895 1908 1924 1943 1938 1921 1911 1909 1910 1902 1882 1875 1887 1920 1946 1983 2025 2040 2045 2047 2049 2061 2079 2098 2117 2135 2155 2173 2184 2186 2185 2184 2183 2183 2181 2180 2177 2173 2168 2157 2141 2121 2091 2063 2047 2032 2021 2016 2011 2006 2002 1997 1991
 423 424 426 430 433 432 431 430 428 427 424 422 421 422 424 424 425 430 430 427 424 422 421 421 421 422 422 421 420 422 424 424 424 425 427 428 429 430 430 431 435 438 440 444 454 466 478 493 508 522 534 543 554 563 566 570 574 580 585 584 586 599 619 632 640 647 661 694 721 742 758 778 797 816 833 848 865 883 904 929 947 958 960 957 958 960 961 956 952 956 963 981 996 998 1000 1006 1010 1028 1037 1046 1061 1073 1080 1086 1085 1080 1070 1061 1053 1042 1035 1035 1039 1042 1044 1047 1048 1049 1053 1061 1069 1079 1087 1095 1108 1121 1134 1161 1186 1200 1214 1234 1251 1270 1285 1292 1299 1307 1312 1316 1319 1320 1319 1314 1307 1303 1298 1294 1291 1288 1285 1283 1274 1257 1245 1240 1239 1232 1219 1213 1202 1189 1176 1156 1136 1120 1104 1087 1073 1052 1038 1026 1012 1000 992 985 976 979 979 969 963 958 959 962 966 967 962 963 965 965 960 959 958 959 951 946 947 955 972 979 971 957 940 924 913 902 883 859 845 843 844 840 838 833 831 828 822 815 807 797 782 772 768 766 764 765 767 770 773 771 768 762 750 741 734 710 705 727 759 782 791 794 793 785 784 790 804 819 835 842 860 876 887 907 929 943 959 975 983 992 1004 1013 1020 1030 1041 1054 1068 1079 1092 1105 1116 1128 1147 1163 1175 1189 1202 1218 1237 1251 1265 1281 1292 1302 1305 1305 1303 1295 1280 1259 1245 1236 1226 1216 1205 1191 1177 1166 1156 1147 1140 1136 1126 1113 1097 1088 1076 1063 1052 1044 1035 1030 1026 1021 1016 1011 1006 998 994 990 986 982 978 970 967 969 969 965 963 959 952 948 945 942 939 937 932 930 932 932 927 923 923 921 918 918 917 914 912 903 899 903 916 922 921 922 925 927 927 929 931 928 925 925 928 931 934 934 933 933 939 942 947 951 953 953 952 950 951 949 948 950 959 961 960 960 963 963 964 968 970 975 980 985 988 991 994 1000 1008 1011 1013 1016 1020 1024 1028 1032 1037 1041 1041 1042 1044 1045 1049 1055 1058 1062 1066 1068 1069 1073 1082 1087 1088 1088 1091 1096 1095 1099 1107 1111 1122 1132 1134 1139 1142 1141 1140 1145 1148 1152 1152 1153 1158 1165 1169 1173 1176 1180 1184 1190 1194 1202 1208 1212 1216 1223 1227 1234 1239 1247 1251 1259 1266 1271 1277 1282 1285 1288 1291 1293 1297 1300 1306 1306 1305 1307 1308 1309 1311 1311 1312 1311 1312 1313 1311 1315 1314 1311 1312 1315 1315 1312 1308 1301 1292 1286 1282 1279 1277 1276 1273 1271 1268 1262 1252 1250 1254 1259 1272 1280 1289 1300 1309 1314 1318 1325 1331 1340 1348 1355 1371 1382 1386 1390 1386 1386 1389 1393 1398 1402 1404 1406 1408 1408 1408 1408 1411 1411 1413 1417 1420 1422 1420 1416 1416 1420 1422 1429 1429 1428 1431 1433 1435 1436 1443 1446 1447 1446 1443 1438 1434 1434 1433 1433 1434 1433 1434 1434 1436 1438 1439 1440 1445 1451 1457 1463 1466 1470 1475 1481 1488 1495 1498 1501 1508 1515 1527 1536 1545 1555 1566 1572 1578 1589 1597 1604 1615 1624 1637 1648 1657 1672 1693 1704 1714 1724 1735 1750 1765 1776 1790 1802 1815 1830 1840 1849 1862 1874 1884 1893 1903 1909 1908 1896 1879 1853 1834 1822 1815 1805 1793 1787 1786 1789 1793 1798 1806 1830 1860 1885 1905 1913 1917 1928 1934 1942 1941 1925 1911 1901 1896 1895 1894 1898 1901 1903 1906 1908 1910 1911 1911 1912 1913 1911 1910 1911 1915 1917 1913 1911 1910 1916 1918 1919 1921 1922 1925 1925 1925 1923 1923 1926 1930 1935 1938 1940 1937 1936 1935 1935 1936 1941 1948 1954 1962 1973 1979 1986 1993 2000 2015 2028 2044 2060 2066 2071 2076 2080 2082 2086 2086 2078 2060 2050 2040 2021 2008 2000 1996 1993 1994 1994 1998 2011 2026 2035 2032 2022 2021 2031 2040 2049 2047 2040 2042 2042 2041 2032 2022 2008 1987 1978 1973 1973 1970 1963 1952 1943 1941 1948 1953 1956 1957 1954 1944 1938 1938 1937 1926 1909 1886 1874 1869 1858 1851 1847 1850 1848 1838 1828 1828 1833 1838 1835 1847 1866 1870 1884 1897 1914 1935 1943 1937 1926 1922 1906 1891 1883 1895 1914 1925 1917 1902 1900 1905 1906 1906 1913 1927 1941 1935 1913 1874 1855 1850 1847 1850 1854 1862 1884 1904 1919 1920 1905 1879 1864 1868 1855 1841 1834 1822 1812 1805 1797 1791 1786 1782 1776 1770 1763 1756 1751 1742 1735 1728 1717 1709 1704 1700 1694 1687 1681 1678 1677 1677 1677 1677 1679 1679 1682 1685 1686 1686 1683 1680 1677 1677 1677 1676 1677 1679 1677 1680 1684 1683 1682 1679 1678 1676 1667 1657 1653 1644 1631 1624 1617 1607 1601 1594 1587 1584 1583 1583 1582 1581 1581 1579 1577 1578 1581 1583 1585 1586 1589 1588 1585 1580 1578 1580 1581 1580 1580 1580 1579 1579 1581 1581 1578 1578 1580 1581 1577 1573 1573 1576 1575 1575 1571 1567 1565 1568 1568 1567 1565 1563 1567 1571 1574 1580 1583 1587 1593 1601 1607 1613 1624 1627 1635 1643 1651 1667 1688 1712 1726 1743 1765 1800 1831 1849 1868 1892 1912 1932 1948 1950 1936 1920 1904 1886 1868 1857 1846 1838 1833 1829 1829 1827 1833 1851 1858 1867 1879 1884 1884 1882 1879 1866 1864 1869 1868 1856 1853 1866 1895 1914 1937 1975 2001 2014 2030 2041 2050 2069 2087 2108 2124 2140 2154 2170 2180 2183 2182 2181 2181 2180 2178 2176 2173 2170 2162 2145 2127 2104 2077 2055 2033 2013 2003 1995 1990 1986 1980 1975
 424 425 424 424 425 424 424 424 424 424 422 419 417 417 418 420 422 425 428 430 428 423 420 420 421 421 422 422 421 422 422 421 421 423 427 429 430 430 430 431 434 436 440 452 472 484 492 505 518 530 539 546 551 555 556 558 563 573 585 593 598 609 625 635 644 655 670 706 731 750 764 786 802 820 836 853 869 888 913 933 942 950 952 949 944 940 937 937 947 959 964 971 974 979 990 1001 1006 1014 1030 1039 1051 1060 1068 1069 1064 1051 1035 1026 1020 1013 1013 1016 1020 1023 1025 1028 1031 1036 1043 1052 1061 1071 1081 1091 1106 1122 1137 1161 1187 1201 1213 1234 1254 1273 1286 1291 1298 1306 1311 1314 1315 1316 1314 1309 1304 1300 1294 1287 1285 1274 1261 1254 1248 1242 1232 1222 1215 1207 1201 1196 1190 1184 1178 1166 1147 1126 1104 1089 1076 1055 1035 1020 1006 998 990 977 968 965 959 951 945 943 943 945 947 946 947 950 957 960 958 957 952 947 942 937 940 947 953 963 962 947 932 910 892 877 864 845 834 830 829 827 824 821 819 819 819 811 795 783 777 772 768 760 755 753 753 756 761 768 762 750 736 729 716 691 694 721 754 771 782 783 772 770 777 795 815 832 848 855 872 893 903 915 933 944 958 973 980 984 995 1006 1018 1028 1037 1047 1059 1071 1087 1102 1113 1128 1146 1162 1176 1188 1201 1224 1248 1261 1272 1283 1292 1299 1301 1299 1296 1286 1270 1252 1240 1232 1224 1212 1198 1181 1166 1154 1144 1136 1131 1125 1113 1104 1093 1078 1065 1050 1041 1035 1028 1021 1016 1013 1007 1003 997 992 989 983 977 975 970 964 961 961 958 954 950 948 945 940 933 931 931 929 925 924 926 927 922 918 916 914 913 911 908 905 904 898 896 900 905 914 916 916 917 920 921 921 921 920 922 922 924 924 926 927 927 928 932 939 942 945 945 943 943 944 943 942 943 942 945 950 952 953 954 957 961 964 967 974 982 988 990 991 993 997 1003 1010 1012 1014 1018 1020 1024 1028 1033 1036 1036 1037 1040 1043 1048 1054 1057 1057 1061 1067 1069 1073 1081 1085 1085 1085 1084 1085 1093 1103 1114 1118 1125 1134 1137 1139 1136 1134 1136 1142 1147 1149 1150 1152 1156 1162 1167 1172 1176 1180 1186 1192 1196 1203 1210 1212 1218 1225 1228 1237 1245 1249 1251 1256 1264 1271 1273 1275 1279 1280 1283 1288 1289 1293 1297 1297 1298 1299 1301 1300 1298 1298 1297 1299 1302 1305 1305 1308 1309 1308 1308 1307 1306 1302 1295 1288 1283 1282 1279 1275 1274 1271 1268 1263 1259 1254 1251 1253 1259 1264 1276 1287 1298 1311 1318 1321 1329 1336 1342 1350 1357 1367 1377 1385 1386 1389 1389 1390 1392 1394 1397 1397 1398 1400 1401 1397 1395 1398 1401 1402 1401 1402 1404 1405 1402 1400 1403 1404 1405 1416 1416 1415 1420 1425 1427 1421 1424 1432 1438 1441 1439 1433 1431 1429 1424 1420 1421 1420 1420 1421 1421 1423 1427 1433 1443 1450 1452 1453 1456 1462 1469 1473 1480 1488 1495 1504 1514 1523 1535 1544 1552 1560 1570 1577 1587 1597 1604 1613 1625 1636 1648 1660 1672 1689 1709 1723 1733 1746 1754 1765 1775 1785 1800 1815 1827 1840 1853 1864 1876 1888 1898 1907 1919 1923 1921 1910 1894 1868 1845 1835 1826 1813 1800 1793 1794 1797 1800 1805 1815 1839 1874 1901 1918 1927 1937 1946 1955 1964 1953 1932 1917 1910 1907 1908 1909 1914 1918 1923 1926 1926 1928 1927 1926 1927 1928 1928 1928 1931 1932 1930 1928 1925 1924 1924 1924 1925 1925 1928 1931 1932 1932 1929 1929 1931 1934 1939 1941 1945 1946 1946 1946 1947 1948 1952 1959 1966 1974 1984 1991 1999 2006 2018 2033 2053 2071 2079 2082 2084 2088 2095 2097 2101 2103 2103 2094 2076 2067 2058 2046 2037 2030 2028 2024 2017 2021 2025 2030 2017 1997 1990 1995 2012 2033 2044 2043 2026 2016 2016 2014 2000 1989 1976 1955 1941 1932 1924 1913 1906 1906 1905 1905 1911 1911 1910 1915 1911 1901 1888 1881 1877 1859 1844 1831 1825 1822 1816 1815 1815 1816 1814 1809 1804 1804 1803 1805 1805 1817 1835 1835 1842 1856 1868 1885 1885 1885 1888 1877 1866 1858 1857 1868 1881 1894 1885 1875 1878 1885 1885 1888 1897 1911 1921 1906 1885 1857 1837 1831 1824 1819 1815 1819 1823 1837 1852 1863 1855 1841 1828 1824 1821 1809 1800 1793 1785 1777 1768 1765 1762 1757 1755 1749 1741 1735 1729 1719 1716 1710 1701 1692 1687 1681 1675 1669 1666 1664 1660 1659 1659 1658 1660 1660 1663 1666 1666 1666 1664 1662 1660 1659 1660 1658 1657 1657 1659 1660 1659 1662 1663 1668 1671 1667 1661 1652 1643 1632 1623 1618 1611 1604 1599 1593 1585 1580 1581 1582 1584 1583 1584 1582 1579 1577 1579 1581 1583 1585 1585 1583 1580 1578 1579 1580 1579 1579 1578 1576 1574 1572 1570 1571 1572 1571 1571 1577 1576 1571 1566 1564 1564 1566 1564 1558 1555 1557 1560 1560 1558 1555 1555 1558 1560 1564 1567 1570 1577 1586 1592 1595 1604 1610 1619 1630 1638 1649 1664 1680 1699 1717 1743 1778 1813 1835 1858 1876 1887 1905 1925 1928 1916 1897 1880 1861 1849 1838 1829 1819 1808 1805 1809 1809 1812 1823 1835 1848 1858 1859 1856 1851 1843 1833 1825 1824 1823 1822 1826 1844 1871 1890 1905 1929 1955 1992 2016 2030 2041 2059 2077 2098 2111 2123 2138 2158 2170 2176 2176 2177 2178 2176 2175 2174 2171 2167 2157 2141 2126 2112 2091 2070 2041 2012 1992 1979 1969 1964 1960 1956
 425 425 424 423 423 422 422 422 423 423 422 421 420 417 417 417 419 424 427 431 431 425 421 421 421 421 421 421 421 421 421 421 422 424 427 429 430 429 430 432 435 438 445 466 489 500 508 518 525 532 537 536 534 537 542 550 561 575 592 603 608 617 629 639 651 665 681 713 735 752 766 783 797 818 836 854 869 896 916 929 936 940 941 940 936 930 922 924 937 948 948 948 956 966 979 991 999 1010 1023 1032 1039 1044 1048 1049 1041 1026 1010 1004 1000 994 994 1000 1006 1008 1008 1011 1016 1023 1033 1042 1051 1065 1078 1090 1106 1123 1139 1162 1186 1203 1217 1237 1257 1276 1289 1294 1302 1310 1314 1316 1317 1315 1310 1304 1300 1296 1286 1274 1267 1254 1246 1241 1236 1230 1220 1209 1202 1194 1188 1182 1174 1172 1173 1166 1149 1134 1107 1092 1074 1044 1026 1014 1003 992 981 969 963 953 944 940 937 938 938 940 942 939 939 943 943 946 952 948 940 934 936 935 936 939 940 940 943 940 931 914 895 870 855 839 828 822 818 814 812 812 813 811 806 797 787 780 775 769 764 756 749 745 744 743 745 750 750 736 713 704 694 682 689 723 750 760 767 762 757 766 783 803 821 839 853 864 882 897 901 913 931 941 953 969 977 981 990 1001 1014 1025 1031 1039 1050 1065 1084 1100 1114 1131 1148 1162 1175 1187 1202 1230 1255 1267 1277 1285 1291 1297 1297 1294 1287 1275 1263 1248 1235 1225 1216 1204 1191 1176 1161 1148 1136 1127 1117 1101 1098 1099 1094 1072 1054 1042 1034 1028 1023 1017 1011 1004 998 994 989 985 978 971 970 968 962 955 951 949 945 944 941 940 937 931 926 924 924 925 921 919 917 917 915 910 908 909 907 903 902 900 897 895 894 900 902 905 908 911 911 912 912 914 915 916 921 922 921 922 923 921 922 925 928 931 932 932 930 929 930 932 933 937 938 937 937 941 944 946 951 954 957 961 965 972 980 988 991 992 993 998 1001 1006 1010 1013 1016 1018 1021 1025 1029 1032 1034 1035 1038 1043 1049 1052 1054 1056 1059 1063 1068 1072 1079 1084 1080 1077 1078 1084 1094 1105 1115 1120 1123 1131 1134 1137 1135 1135 1139 1141 1144 1148 1150 1152 1154 1160 1164 1171 1176 1180 1187 1193 1197 1204 1209 1212 1217 1224 1228 1235 1241 1245 1249 1255 1262 1267 1270 1272 1273 1276 1280 1283 1283 1286 1290 1292 1292 1293 1292 1291 1291 1292 1294 1297 1300 1303 1304 1306 1306 1307 1304 1298 1296 1294 1288 1283 1280 1279 1276 1274 1273 1268 1261 1256 1250 1249 1251 1258 1265 1273 1280 1289 1304 1316 1322 1326 1334 1341 1348 1354 1360 1366 1374 1379 1383 1385 1387 1389 1389 1390 1389 1389 1390 1390 1389 1388 1388 1390 1393 1391 1393 1392 1391 1391 1390 1389 1392 1390 1391 1397 1401 1402 1401 1406 1409 1406 1407 1411 1415 1418 1418 1418 1417 1417 1413 1409 1410 1411 1411 1410 1413 1419 1424 1430 1437 1444 1447 1453 1460 1468 1474 1480 1487 1494 1504 1516 1529 1536 1541 1547 1556 1564 1574 1584 1595 1606 1614 1623 1634 1643 1657 1670 1685 1702 1721 1737 1750 1761 1768 1778 1787 1796 1809 1823 1834 1848 1864 1874 1886 1899 1908 1919 1930 1938 1935 1922 1902 1881 1858 1847 1838 1825 1808 1799 1798 1801 1804 1812 1826 1851 1886 1914 1929 1941 1949 1960 1977 1982 1964 1940 1926 1917 1916 1915 1918 1924 1931 1943 1947 1942 1940 1936 1934 1934 1933 1934 1938 1942 1943 1941 1938 1935 1935 1933 1930 1928 1929 1931 1933 1935 1937 1936 1937 1939 1942 1944 1945 1951 1953 1956 1956 1955 1959 1965 1970 1976 1985 1996 2002 2008 2018 2032 2046 2069 2088 2093 2098 2099 2102 2105 2108 2114 2120 2122 2119 2103 2083 2071 2062 2059 2057 2053 2046 2035 2030 2025 2008 1987 1977 1970 1976 1996 2024 2037 2031 2001 1986 1978 1964 1950 1943 1935 1918 1910 1905 1895 1886 1880 1876 1873 1877 1884 1883 1879 1883 1876 1862 1847 1837 1826 1813 1801 1794 1791 1788 1783 1788 1794 1795 1791 1790 1790 1784 1772 1772 1775 1783 1794 1802 1809 1822 1831 1837 1834 1841 1847 1838 1835 1830 1833 1843 1851 1855 1851 1848 1855 1865 1866 1868 1879 1890 1898 1882 1859 1833 1816 1812 1808 1804 1798 1795 1793 1791 1797 1803 1809 1811 1809 1806 1800 1791 1785 1775 1762 1757 1755 1751 1746 1739 1735 1731 1725 1720 1714 1708 1702 1697 1688 1681 1675 1665 1659 1654 1650 1645 1642 1641 1640 1642 1644 1645 1646 1648 1651 1652 1651 1648 1646 1644 1645 1644 1643 1642 1644 1646 1645 1646 1649 1654 1657 1658 1654 1649 1641 1627 1620 1615 1609 1603 1597 1590 1585 1580 1579 1580 1583 1585 1585 1582 1576 1571 1569 1568 1570 1580 1581 1578 1575 1571 1571 1572 1570 1569 1570 1567 1563 1561 1563 1565 1567 1564 1564 1569 1572 1568 1563 1559 1557 1560 1559 1553 1551 1553 1555 1556 1553 1549 1544 1544 1547 1552 1556 1559 1567 1575 1579 1581 1586 1597 1608 1618 1627 1636 1651 1666 1683 1699 1720 1748 1781 1808 1841 1865 1873 1882 1905 1911 1897 1876 1862 1848 1836 1822 1814 1801 1792 1788 1790 1794 1796 1802 1812 1826 1838 1843 1839 1829 1825 1817 1806 1803 1803 1804 1802 1819 1844 1862 1873 1893 1915 1955 1982 1999 2016 2034 2054 2081 2101 2113 2124 2141 2155 2168 2171 2172 2173 2173 2172 2172 2169 2164 2154 2141 2130 2118 2101 2080 2045 2008 1985 1969 1960 1955 1950 1943
 425 426 425 424 422 422 422 422 422 423 423 424 424 421 418 417 418 422 426 429 429 426 422 422 421 421 421 422 422 422 422 424 426 426 428 429 429 429 432 434 439 447 462 486 504 512 518 523 526 529 529 522 517 525 537 553 568 582 596 608 615 623 635 644 658 673 690 716 737 754 770 785 799 819 836 855 872 896 908 917 922 925 925 920 915 917 916 917 925 929 934 940 955 961 970 983 995 1009 1019 1023 1025 1026 1027 1025 1014 1001 992 987 981 974 973 979 987 990 991 996 1005 1015 1027 1039 1049 1063 1079 1093 1110 1129 1149 1170 1189 1204 1222 1243 1261 1279 1293 1301 1308 1314 1319 1322 1321 1316 1306 1296 1290 1282 1272 1263 1252 1243 1238 1231 1221 1214 1209 1201 1191 1182 1173 1168 1161 1157 1153 1148 1145 1137 1113 1089 1066 1038 1022 1011 1000 979 969 958 950 944 937 928 924 919 923 927 931 928 926 928 926 927 920 919 921 921 925 927 922 919 917 916 920 931 932 920 904 881 860 840 826 820 810 803 802 803 801 790 785 784 783 779 775 769 761 752 746 743 738 739 740 739 734 713 696 686 679 674 681 703 728 733 735 735 744 763 787 804 821 839 856 871 885 894 897 907 928 936 944 957 967 975 986 996 1005 1015 1023 1032 1043 1058 1080 1100 1116 1134 1148 1160 1174 1189 1206 1234 1259 1269 1278 1285 1291 1295 1293 1285 1273 1260 1250 1235 1217 1206 1197 1188 1180 1168 1153 1140 1127 1115 1101 1081 1073 1079 1073 1051 1041 1033 1027 1023 1018 1008 999 994 989 983 976 967 963 963 966 960 950 945 941 937 933 934 933 928 925 924 921 919 918 915 914 913 911 909 908 905 903 902 901 900 898 894 891 889 889 893 897 902 903 904 906 909 911 911 912 913 914 914 916 918 919 914 914 916 915 910 912 919 921 919 920 922 925 932 934 935 936 939 942 944 947 950 953 957 963 967 973 980 986 986 988 994 999 1002 1009 1015 1018 1019 1021 1023 1026 1029 1031 1034 1039 1042 1044 1047 1050 1052 1053 1057 1063 1067 1070 1070 1069 1074 1080 1089 1095 1102 1108 1112 1116 1121 1127 1128 1133 1138 1142 1144 1145 1147 1148 1150 1155 1159 1164 1172 1178 1181 1187 1192 1197 1201 1207 1211 1216 1221 1225 1231 1236 1240 1246 1252 1257 1264 1267 1269 1270 1271 1274 1278 1278 1278 1282 1288 1290 1290 1288 1288 1292 1294 1295 1298 1300 1302 1303 1301 1299 1301 1298 1294 1292 1288 1284 1281 1279 1277 1275 1273 1272 1265 1254 1248 1245 1248 1258 1268 1282 1294 1299 1306 1314 1319 1324 1329 1337 1345 1349 1355 1362 1368 1373 1376 1378 1377 1377 1377 1375 1378 1379 1379 1378 1377 1377 1377 1377 1381 1382 1382 1382 1380 1381 1379 1378 1379 1379 1378 1378 1381 1384 1386 1388 1394 1396 1396 1398 1400 1400 1403 1404 1400 1399 1400 1397 1397 1399 1401 1403 1407 1414 1420 1425 1431 1437 1443 1452 1459 1466 1475 1485 1496 1506 1515 1522 1532 1542 1545 1549 1559 1568 1577 1588 1599 1610 1619 1623 1634 1645 1655 1668 1685 1704 1722 1741 1752 1763 1774 1784 1794 1802 1812 1822 1833 1844 1859 1874 1886 1901 1912 1920 1931 1947 1949 1943 1929 1909 1889 1870 1858 1850 1841 1827 1813 1807 1807 1812 1823 1842 1865 1902 1928 1943 1955 1964 1983 2005 2000 1978 1957 1939 1928 1926 1927 1931 1937 1941 1946 1950 1950 1946 1942 1940 1939 1939 1940 1942 1948 1951 1951 1946 1941 1939 1940 1939 1938 1936 1936 1936 1937 1937 1939 1943 1946 1949 1953 1954 1956 1959 1963 1965 1967 1972 1978 1985 1990 2000 2009 2016 2021 2034 2047 2062 2084 2103 2114 2119 2120 2118 2118 2120 2129 2139 2139 2130 2110 2092 2073 2065 2065 2066 2061 2051 2028 2007 1997 1985 1971 1956 1948 1952 1963 1990 1999 1987 1959 1943 1934 1919 1910 1901 1884 1874 1870 1866 1860 1853 1847 1840 1841 1841 1841 1844 1843 1841 1833 1823 1809 1796 1784 1773 1766 1765 1761 1755 1758 1763 1764 1765 1766 1766 1764 1755 1747 1744 1744 1751 1755 1761 1766 1777 1789 1793 1790 1793 1798 1797 1797 1796 1805 1816 1817 1819 1821 1823 1829 1833 1835 1842 1851 1859 1861 1840 1817 1798 1791 1789 1786 1782 1779 1774 1773 1770 1768 1771 1775 1779 1782 1783 1782 1780 1770 1759 1749 1743 1738 1731 1726 1720 1716 1713 1707 1703 1697 1693 1692 1686 1679 1671 1663 1654 1647 1642 1639 1635 1633 1629 1627 1628 1631 1634 1636 1635 1635 1636 1635 1634 1634 1636 1636 1637 1634 1634 1636 1637 1637 1637 1637 1639 1643 1647 1648 1645 1638 1629 1619 1611 1603 1600 1596 1590 1586 1580 1576 1575 1574 1577 1576 1566 1554 1541 1536 1540 1546 1558 1560 1564 1559 1555 1553 1548 1546 1547 1546 1545 1543 1545 1552 1556 1556 1553 1554 1557 1558 1556 1558 1555 1552 1551 1552 1549 1547 1547 1548 1549 1547 1541 1536 1536 1538 1541 1543 1547 1553 1561 1567 1571 1573 1584 1599 1608 1619 1632 1643 1654 1665 1676 1687 1703 1726 1750 1790 1830 1850 1862 1885 1888 1870 1857 1846 1831 1813 1799 1790 1778 1772 1767 1768 1772 1777 1782 1791 1804 1811 1810 1801 1794 1791 1787 1784 1782 1783 1786 1788 1795 1813 1825 1843 1873 1900 1930 1957 1980 1998 2017 2035 2058 2077 2090 2107 2128 2143 2157 2165 2168 2169 2170 2171 2171 2169 2166 2159 2151 2143 2130 2111 2085 2041 1999 1979 1965 1956 1950 1942 1931
 423 424 425 424 422 422 422 421 422 422 423 425 425 422 420 419 419 420 423 425 425 424 422 421 421 420 422 422 423 423 423 425 427 427 427 428 429 431 435 441 452 470 484 496 504 511 513 511 512 519 526 525 526 537 550 561 569 577 589 605 618 627 639 650 666 683 700 723 742 756 769 785 799 821 832 852 878 890 897 904 903 900 902 897 895 903 910 911 911 917 931 942 953 959 968 980 991 1002 1010 1014 1016 1014 1010 1001 990 981 972 964 958 955 959 965 974 981 986 994 1005 1016 1030 1043 1055 1072 1089 1103 1121 1144 1163 1178 1191 1203 1223 1247 1263 1280 1295 1304 1313 1320 1324 1327 1324 1316 1303 1290 1282 1270 1260 1251 1242 1236 1230 1218 1208 1202 1192 1183 1178 1171 1164 1159 1152 1144 1138 1135 1133 1125 1111 1090 1074 1052 1026 1010 994 975 966 953 939 931 926 920 916 907 909 914 913 908 907 910 911 908 900 901 902 906 911 919 918 914 913 913 914 922 926 919 905 890 871 849 832 820 809 800 796 793 790 786 783 779 777 776 781 785 771 754 749 740 732 731 732 731 723 707 688 679 673 669 675 684 692 701 709 721 740 763 780 795 812 829 850 870 879 890 898 911 932 936 937 946 953 964 978 990 994 1002 1014 1025 1037 1050 1073 1098 1116 1133 1147 1158 1173 1190 1210 1239 1259 1267 1273 1279 1285 1287 1280 1266 1250 1237 1224 1207 1191 1185 1178 1170 1161 1149 1136 1127 1112 1098 1084 1066 1058 1053 1047 1041 1036 1028 1022 1013 1006 997 991 985 976 971 965 959 955 953 950 943 941 937 933 930 928 927 924 918 916 914 914 913 910 908 907 906 904 902 902 900 898 896 892 891 889 885 883 883 886 889 890 893 896 898 901 905 907 908 907 907 906 907 910 905 901 899 900 901 904 906 906 907 911 913 914 916 919 923 928 931 935 939 939 939 943 947 952 957 960 962 965 972 978 982 983 988 996 1003 1009 1015 1019 1019 1020 1021 1023 1026 1031 1034 1036 1037 1038 1040 1044 1048 1052 1054 1058 1059 1059 1055 1059 1072 1077 1083 1087 1090 1095 1102 1107 1114 1120 1122 1124 1129 1135 1136 1135 1137 1139 1143 1150 1155 1160 1169 1175 1180 1184 1188 1193 1198 1204 1209 1213 1219 1222 1227 1233 1237 1242 1249 1254 1258 1261 1263 1266 1269 1270 1273 1275 1278 1282 1285 1286 1286 1288 1292 1301 1301 1298 1298 1298 1299 1299 1295 1294 1291 1289 1289 1287 1283 1279 1278 1276 1274 1273 1270 1269 1263 1251 1246 1247 1256 1271 1284 1294 1300 1304 1311 1316 1320 1326 1333 1338 1344 1348 1354 1360 1363 1365 1366 1362 1362 1361 1360 1360 1368 1370 1370 1370 1369 1369 1368 1366 1364 1362 1365 1372 1375 1370 1365 1367 1369 1369 1370 1371 1373 1375 1376 1379 1384 1388 1386 1386 1390 1393 1394 1387 1382 1385 1385 1387 1391 1397 1406 1411 1416 1424 1431 1437 1444 1450 1455 1459 1466 1474 1487 1499 1508 1518 1528 1535 1543 1548 1553 1562 1570 1578 1589 1601 1611 1622 1626 1633 1645 1657 1670 1687 1706 1721 1739 1753 1763 1776 1789 1798 1810 1821 1829 1838 1850 1858 1872 1885 1898 1912 1925 1935 1951 1966 1959 1946 1927 1911 1895 1877 1866 1860 1851 1840 1829 1822 1821 1826 1838 1856 1881 1921 1940 1953 1967 1979 2001 2017 2010 1989 1970 1955 1937 1933 1935 1938 1940 1941 1945 1950 1951 1948 1944 1942 1942 1940 1942 1947 1952 1959 1963 1954 1946 1940 1941 1942 1942 1941 1941 1941 1942 1942 1943 1947 1948 1948 1952 1955 1958 1964 1969 1972 1977 1982 1987 1994 2002 2012 2021 2027 2037 2052 2063 2076 2094 2119 2133 2136 2139 2141 2141 2138 2141 2147 2143 2124 2108 2096 2078 2065 2062 2061 2050 2027 2004 1986 1971 1956 1935 1914 1904 1916 1929 1937 1934 1930 1917 1906 1894 1882 1869 1855 1845 1840 1834 1834 1830 1824 1818 1811 1807 1806 1804 1806 1811 1808 1800 1788 1778 1770 1756 1745 1746 1744 1736 1730 1736 1737 1739 1746 1746 1748 1746 1738 1734 1725 1722 1728 1733 1736 1736 1740 1751 1758 1755 1761 1763 1761 1761 1766 1771 1778 1784 1789 1793 1799 1803 1806 1810 1818 1827 1825 1808 1787 1774 1769 1773 1771 1767 1762 1758 1754 1748 1746 1750 1754 1760 1763 1766 1766 1763 1761 1753 1747 1738 1729 1721 1715 1710 1704 1697 1693 1688 1685 1681 1678 1681 1678 1672 1665 1656 1643 1638 1636 1634 1632 1630 1626 1624 1623 1622 1622 1624 1625 1626 1626 1627 1629 1630 1631 1632 1632 1631 1631 1633 1635 1633 1632 1632 1632 1634 1639 1643 1641 1637 1629 1620 1612 1604 1599 1597 1596 1592 1583 1577 1573 1569 1564 1557 1543 1532 1524 1512 1510 1520 1534 1541 1543 1541 1537 1531 1529 1527 1523 1521 1520 1522 1525 1531 1536 1542 1543 1543 1542 1542 1542 1546 1547 1546 1545 1546 1546 1545 1542 1540 1539 1536 1532 1530 1532 1534 1534 1536 1538 1541 1548 1555 1560 1567 1578 1593 1601 1609 1620 1628 1635 1646 1658 1666 1686 1708 1733 1763 1791 1816 1845 1861 1861 1853 1843 1824 1807 1787 1777 1765 1754 1745 1737 1742 1749 1754 1760 1768 1776 1781 1777 1772 1769 1766 1761 1761 1763 1767 1769 1770 1778 1791 1804 1827 1870 1899 1923 1949 1976 1997 2010 2023 2037 2059 2078 2096 2116 2134 2150 2161 2166 2168 2169 2170 2171 2171 2170 2167 2163 2156 2140 2116 2086 2043 2003 1980 1966 1958 1951 1941 1929
 422 423 424 423 423 422 422 421 420 421 422 423 423 421 421 421 421 420 421 423 423 423 422 421 422 422 422 423 424 424 424 425 426 426 427 427 428 433 444 456 469 484 490 491 494 497 498 496 499 512 527 536 543 550 554 557 561 567 579 600 617 630 644 656 674 693 707 725 743 757 773 790 806 823 830 847 873 881 886 890 884 875 876 882 889 898 900 903 908 918 930 939 953 962 968 976 985 993 999 1004 1005 998 989 979 970 963 953 944 942 945 954 964 974 982 989 1000 1012 1023 1036 1050 1063 1083 1101 1116 1137 1156 1166 1178 1190 1203 1225 1247 1260 1276 1291 1302 1314 1321 1325 1327 1323 1314 1300 1287 1276 1263 1251 1244 1235 1227 1217 1208 1200 1192 1178 1173 1170 1164 1158 1151 1139 1128 1121 1117 1112 1109 1102 1081 1070 1060 1039 1018 1000 981 966 950 932 920 915 912 908 899 898 904 907 904 900 896 898 894 888 889 893 897 900 907 912 907 904 907 908 912 917 911 900 891 880 865 849 833 816 801 795 792 794 796 793 785 779 779 786 788 782 765 755 742 730 727 727 726 725 708 689 677 669 664 668 677 690 708 720 733 749 763 776 788 807 825 847 870 877 883 894 909 927 933 934 939 948 960 973 980 982 983 1000 1015 1027 1041 1065 1092 1113 1131 1147 1159 1171 1190 1214 1239 1256 1262 1266 1268 1270 1267 1256 1243 1227 1213 1198 1183 1174 1168 1159 1150 1140 1128 1117 1106 1091 1077 1063 1051 1045 1044 1042 1035 1029 1028 1023 1011 1000 989 985 980 969 962 954 950 948 945 940 937 932 930 928 924 921 920 916 912 912 910 908 907 905 903 900 900 898 898 894 892 892 890 888 885 881 878 875 878 877 876 877 883 891 896 899 901 900 900 898 899 902 903 902 896 893 893 894 897 899 901 901 902 906 909 911 914 918 921 926 928 934 936 936 938 940 944 950 952 955 959 963 968 975 983 986 989 997 1002 1007 1011 1015 1016 1017 1019 1021 1024 1030 1030 1029 1028 1029 1031 1030 1034 1038 1044 1051 1052 1051 1044 1055 1070 1074 1077 1084 1089 1094 1098 1103 1110 1113 1118 1118 1121 1125 1127 1130 1136 1142 1145 1149 1155 1161 1169 1175 1180 1185 1190 1191 1195 1200 1207 1211 1216 1220 1225 1230 1235 1239 1245 1250 1254 1256 1260 1263 1265 1268 1273 1277 1279 1282 1283 1284 1286 1290 1295 1302 1301 1298 1297 1294 1293 1292 1290 1288 1285 1285 1284 1283 1280 1278 1276 1274 1273 1272 1269 1265 1255 1248 1245 1248 1261 1272 1282 1289 1294 1301 1306 1313 1320 1327 1333 1337 1340 1344 1350 1353 1355 1356 1356 1352 1349 1349 1350 1353 1358 1361 1361 1360 1357 1357 1358 1357 1354 1353 1353 1354 1357 1358 1357 1359 1362 1362 1366 1366 1366 1367 1370 1376 1378 1377 1372 1372 1376 1383 1380 1373 1374 1379 1385 1394 1405 1413 1420 1423 1425 1432 1438 1446 1451 1458 1463 1468 1478 1489 1501 1512 1520 1529 1536 1542 1551 1559 1566 1573 1582 1592 1604 1615 1622 1630 1638 1645 1654 1667 1688 1708 1719 1731 1746 1761 1775 1788 1800 1811 1821 1832 1842 1854 1865 1874 1885 1898 1909 1922 1936 1946 1969 1975 1966 1952 1931 1916 1900 1883 1873 1867 1860 1848 1836 1830 1831 1837 1851 1867 1902 1934 1949 1964 1978 1990 2008 2022 2022 2005 1984 1961 1943 1938 1939 1939 1939 1940 1943 1948 1950 1948 1945 1945 1947 1946 1946 1950 1954 1962 1967 1960 1948 1941 1940 1941 1941 1941 1942 1945 1950 1951 1952 1952 1951 1949 1952 1955 1961 1969 1976 1982 1986 1989 1994 2001 2011 2021 2030 2040 2051 2064 2077 2091 2109 2135 2148 2151 2153 2155 2152 2142 2134 2135 2126 2109 2097 2084 2068 2048 2044 2042 2023 1999 1975 1952 1930 1901 1880 1871 1874 1887 1900 1900 1887 1880 1875 1868 1858 1845 1832 1820 1813 1806 1803 1806 1807 1803 1798 1789 1781 1776 1778 1782 1787 1784 1775 1763 1757 1751 1738 1732 1729 1726 1718 1714 1717 1715 1719 1726 1726 1726 1724 1716 1714 1710 1707 1710 1713 1718 1720 1721 1728 1730 1732 1733 1732 1732 1732 1737 1744 1753 1757 1765 1768 1774 1783 1786 1793 1803 1809 1801 1780 1760 1752 1751 1756 1752 1748 1746 1743 1738 1732 1729 1738 1748 1754 1757 1757 1753 1748 1745 1741 1734 1725 1717 1710 1705 1699 1692 1686 1681 1675 1672 1669 1665 1667 1669 1666 1660 1653 1643 1639 1636 1633 1631 1629 1627 1626 1622 1619 1619 1621 1623 1624 1626 1629 1630 1630 1629 1627 1625 1620 1620 1625 1628 1627 1629 1630 1629 1631 1637 1642 1641 1638 1631 1624 1616 1610 1605 1598 1595 1593 1587 1582 1576 1567 1555 1541 1525 1516 1510 1497 1490 1500 1518 1525 1528 1529 1524 1519 1514 1508 1503 1500 1502 1505 1507 1509 1513 1522 1528 1534 1535 1535 1535 1537 1538 1536 1534 1538 1542 1543 1537 1533 1532 1530 1528 1524 1525 1527 1529 1531 1531 1534 1541 1547 1554 1563 1572 1583 1592 1599 1609 1615 1621 1633 1646 1655 1678 1706 1728 1754 1786 1817 1836 1841 1838 1839 1825 1805 1787 1768 1758 1746 1738 1730 1720 1719 1723 1736 1743 1750 1754 1758 1758 1754 1751 1750 1746 1747 1747 1750 1750 1753 1765 1779 1797 1817 1856 1880 1898 1921 1945 1971 1987 2003 2020 2042 2064 2086 2109 2131 2150 2161 2166 2168 2170 2172 2174 2175 2175 2173 2170 2163 2145 2119 2091 2055 2021 1994 1974 1963 1955 1946 1936
 420 421 423 423 423 423 422 421 420 419 420 420 420 420 420 421 421 421 421 423 423 424 423 424 425 424 423 424 425 425 426 426 426 426 425 425 429 442 461 470 474 479 482 484 485 486 489 494 501 513 529 539 546 548 548 549 554 562 578 605 623 637 652 665 682 696 707 724 744 761 779 797 810 826 836 845 856 863 866 865 858 858 863 875 879 882 895 904 907 916 931 943 956 963 967 969 975 987 991 990 983 972 963 954 946 940 931 928 933 944 956 968 980 990 999 1009 1020 1031 1044 1058 1071 1092 1114 1132 1148 1157 1163 1172 1187 1205 1228 1243 1250 1265 1282 1293 1305 1314 1319 1321 1316 1307 1292 1278 1266 1252 1237 1230 1220 1209 1201 1194 1182 1178 1171 1165 1159 1148 1136 1127 1119 1113 1108 1104 1099 1094 1083 1071 1067 1057 1043 1030 1012 998 978 947 930 918 911 909 906 897 892 890 889 886 886 884 881 880 881 880 884 888 886 885 884 883 885 886 887 891 902 901 893 887 878 869 861 846 829 811 803 796 795 796 796 791 788 786 784 783 781 769 754 744 735 732 730 729 723 706 690 671 661 655 661 681 711 730 740 747 754 766 778 793 807 822 842 862 871 875 885 900 902 908 918 924 940 956 962 959 968 976 988 1007 1018 1033 1054 1079 1103 1126 1144 1155 1164 1183 1209 1231 1242 1246 1248 1247 1242 1234 1225 1215 1203 1188 1177 1166 1156 1146 1134 1123 1114 1105 1093 1081 1068 1056 1047 1039 1035 1034 1031 1027 1027 1024 1017 1002 986 979 972 964 955 948 944 943 941 936 931 928 924 923 920 917 915 912 909 907 905 902 900 899 897 894 893 892 891 891 887 884 882 882 880 877 875 870 868 868 868 863 863 872 883 891 892 893 891 893 895 894 894 896 892 888 885 879 883 888 889 892 895 899 900 903 908 914 917 919 922 925 929 931 931 934 939 944 946 950 954 958 962 966 974 980 984 988 993 998 1004 1007 1009 1012 1012 1015 1018 1020 1024 1021 1020 1020 1019 1015 1011 1012 1018 1029 1035 1038 1047 1050 1059 1066 1072 1075 1078 1089 1096 1100 1102 1107 1111 1113 1117 1120 1129 1135 1137 1143 1149 1154 1158 1160 1163 1168 1174 1178 1183 1190 1193 1198 1206 1211 1214 1217 1220 1224 1229 1232 1237 1239 1243 1248 1253 1259 1262 1264 1268 1274 1276 1277 1278 1278 1281 1285 1289 1290 1292 1291 1290 1290 1287 1287 1286 1285 1284 1284 1283 1280 1278 1277 1274 1272 1270 1269 1269 1267 1261 1250 1243 1244 1251 1263 1272 1278 1283 1290 1297 1302 1310 1318 1320 1324 1330 1332 1336 1339 1341 1342 1343 1343 1340 1338 1337 1340 1345 1347 1346 1347 1345 1345 1344 1345 1344 1341 1339 1343 1343 1346 1347 1345 1347 1351 1352 1357 1358 1356 1355 1356 1361 1362 1359 1355 1356 1359 1364 1367 1370 1379 1391 1397 1408 1418 1423 1429 1434 1439 1443 1450 1454 1459 1467 1472 1482 1495 1505 1515 1522 1529 1536 1544 1551 1562 1575 1582 1590 1600 1607 1617 1625 1631 1639 1648 1655 1666 1682 1710 1728 1738 1744 1757 1774 1788 1800 1812 1821 1832 1844 1857 1872 1884 1893 1904 1916 1925 1937 1950 1961 1980 1985 1975 1958 1939 1925 1906 1894 1885 1875 1868 1859 1851 1846 1848 1853 1869 1894 1926 1946 1964 1976 1991 2003 2020 2026 2028 2021 1995 1971 1951 1941 1940 1939 1938 1939 1940 1943 1945 1946 1944 1944 1946 1949 1951 1953 1958 1964 1966 1961 1952 1946 1943 1942 1940 1940 1943 1949 1957 1959 1960 1962 1958 1955 1956 1959 1966 1976 1985 1992 1996 1999 2005 2013 2023 2033 2047 2057 2067 2081 2092 2106 2130 2153 2161 2167 2171 2173 2169 2155 2134 2117 2097 2080 2063 2046 2030 2019 2003 1995 1972 1941 1912 1894 1875 1856 1839 1834 1833 1838 1844 1846 1845 1840 1833 1827 1822 1812 1800 1788 1782 1780 1779 1784 1784 1782 1778 1765 1754 1746 1748 1760 1769 1769 1760 1743 1735 1728 1718 1715 1712 1706 1699 1697 1696 1698 1699 1698 1694 1691 1693 1689 1687 1684 1682 1683 1683 1680 1686 1685 1686 1689 1690 1695 1702 1701 1705 1707 1713 1725 1731 1745 1751 1751 1759 1767 1772 1778 1778 1766 1751 1741 1738 1736 1734 1731 1729 1728 1726 1721 1718 1719 1728 1740 1748 1752 1748 1742 1735 1730 1727 1721 1713 1706 1701 1695 1688 1681 1675 1670 1667 1665 1664 1661 1661 1664 1665 1662 1659 1655 1652 1651 1647 1642 1640 1637 1633 1628 1622 1620 1621 1622 1625 1631 1634 1632 1628 1618 1608 1604 1599 1600 1606 1612 1616 1619 1624 1627 1629 1634 1641 1641 1638 1634 1630 1627 1623 1616 1606 1595 1590 1584 1580 1574 1562 1549 1533 1514 1500 1489 1475 1468 1471 1483 1494 1505 1511 1509 1507 1497 1491 1488 1490 1491 1492 1493 1494 1497 1507 1516 1521 1527 1530 1530 1527 1526 1524 1523 1525 1530 1534 1529 1526 1525 1523 1519 1515 1513 1514 1515 1514 1516 1524 1531 1538 1545 1553 1561 1568 1578 1584 1590 1599 1607 1619 1632 1643 1667 1701 1728 1754 1790 1817 1826 1820 1809 1805 1799 1786 1768 1754 1741 1726 1716 1709 1703 1702 1706 1718 1730 1742 1744 1741 1738 1734 1732 1728 1727 1726 1727 1730 1734 1742 1755 1769 1790 1808 1835 1858 1876 1902 1929 1956 1975 1995 2022 2042 2065 2095 2119 2136 2153 2165 2169 2172 2174 2176 2178 2180 2181 2181 2179 2173 2155 2130 2110 2086 2062 2033 2004 1986 1975 1966 1958
 420 419 420 422 423 423 423 422 420 419 419 419 419 420 421 422 421 421 422 423 424 425 425 425 424 424 424 424 425 425 425 426 427 425 423 424 432 452 470 471 468 471 477 484 491 496 504 511 517 522 526 531 537 541 545 553 564 576 595 620 634 647 660 670 684 696 706 724 746 764 782 798 808 821 825 826 833 839 835 831 835 846 856 863 868 880 896 902 906 915 931 945 955 961 960 958 964 976 978 971 958 945 937 932 927 921 917 920 930 945 959 972 987 1001 1010 1018 1029 1040 1052 1066 1082 1102 1121 1132 1142 1151 1158 1168 1185 1203 1223 1234 1240 1254 1272 1280 1288 1296 1301 1300 1294 1285 1272 1259 1249 1236 1226 1218 1206 1197 1189 1179 1176 1173 1156 1140 1134 1125 1119 1116 1114 1110 1104 1097 1081 1071 1062 1054 1049 1045 1040 1032 1017 997 977 939 926 915 907 905 904 897 891 884 872 870 872 871 869 870 871 872 873 877 878 876 872 873 874 874 870 869 878 886 877 868 868 868 865 856 841 820 810 801 790 782 781 779 772 768 773 772 771 761 743 733 730 731 729 719 707 694 683 666 651 650 660 691 708 718 729 737 749 765 778 788 794 803 816 836 864 873 878 889 893 894 896 903 914 931 946 953 961 971 983 998 1009 1019 1032 1051 1078 1109 1130 1143 1152 1168 1191 1212 1220 1222 1223 1220 1213 1204 1194 1186 1180 1171 1163 1151 1133 1119 1107 1100 1093 1085 1070 1059 1049 1042 1037 1033 1030 1030 1029 1027 1022 1011 997 980 970 965 960 955 949 944 938 934 932 927 925 923 920 916 913 912 908 904 902 900 898 894 891 890 890 888 886 884 883 882 879 877 874 871 870 871 871 864 862 861 858 859 860 865 879 885 886 887 887 887 889 884 884 882 877 868 861 863 876 881 884 886 889 894 897 899 902 907 911 915 918 921 924 926 927 931 936 941 945 949 951 956 960 966 972 975 979 985 991 996 1000 1002 1004 1007 1007 1007 1009 1012 1014 1013 1013 1014 1017 1015 1008 1012 1030 1040 1046 1048 1054 1058 1061 1064 1069 1072 1076 1084 1092 1097 1102 1105 1109 1114 1120 1126 1140 1151 1151 1148 1151 1154 1158 1160 1165 1174 1180 1182 1188 1195 1197 1205 1217 1218 1221 1222 1224 1229 1231 1233 1235 1237 1240 1245 1248 1254 1260 1262 1265 1268 1271 1274 1275 1276 1278 1280 1282 1284 1285 1285 1285 1285 1284 1284 1283 1283 1283 1280 1278 1276 1274 1273 1271 1268 1266 1265 1265 1263 1259 1248 1244 1245 1254 1261 1268 1274 1280 1286 1288 1289 1298 1305 1304 1306 1313 1319 1323 1328 1331 1330 1332 1331 1329 1328 1330 1332 1334 1336 1335 1335 1335 1337 1334 1333 1334 1331 1327 1331 1334 1334 1334 1334 1335 1337 1337 1342 1342 1341 1342 1343 1345 1347 1347 1349 1355 1362 1369 1374 1382 1392 1399 1402 1411 1421 1431 1444 1449 1453 1457 1464 1468 1475 1482 1487 1497 1509 1516 1520 1528 1536 1546 1554 1563 1574 1585 1593 1604 1613 1619 1627 1635 1644 1655 1663 1669 1678 1698 1724 1741 1758 1770 1781 1791 1799 1810 1821 1831 1844 1860 1874 1889 1901 1911 1922 1934 1943 1955 1967 1978 1992 1996 1985 1966 1946 1933 1916 1905 1897 1883 1876 1872 1868 1864 1865 1877 1898 1920 1942 1963 1981 1991 2001 2016 2035 2033 2031 2020 1994 1979 1959 1943 1940 1938 1937 1937 1937 1938 1939 1937 1938 1940 1945 1950 1954 1955 1959 1964 1965 1966 1964 1959 1954 1950 1946 1947 1948 1951 1955 1960 1967 1970 1968 1965 1964 1968 1973 1982 1990 1999 2006 2011 2018 2028 2038 2051 2067 2077 2087 2101 2116 2134 2157 2168 2175 2182 2184 2178 2169 2154 2130 2100 2069 2042 2013 1992 1984 1974 1961 1946 1913 1884 1858 1849 1842 1825 1799 1783 1772 1771 1769 1777 1792 1797 1798 1798 1795 1787 1774 1765 1755 1754 1751 1751 1755 1758 1754 1740 1729 1723 1728 1738 1746 1742 1730 1719 1711 1703 1695 1691 1690 1685 1678 1673 1671 1672 1674 1671 1668 1667 1666 1665 1661 1653 1651 1650 1648 1649 1651 1657 1661 1665 1666 1672 1681 1687 1690 1695 1699 1708 1713 1722 1733 1736 1738 1741 1739 1738 1737 1734 1735 1733 1729 1726 1721 1719 1717 1715 1711 1711 1714 1717 1724 1733 1737 1742 1738 1734 1728 1722 1718 1715 1709 1703 1696 1688 1681 1673 1667 1663 1661 1661 1663 1664 1667 1673 1676 1672 1671 1670 1667 1665 1664 1661 1652 1647 1642 1636 1628 1620 1615 1614 1619 1628 1631 1624 1613 1602 1588 1582 1579 1581 1587 1593 1600 1603 1612 1622 1627 1634 1638 1638 1636 1632 1629 1629 1627 1620 1612 1601 1586 1572 1563 1557 1547 1532 1523 1510 1490 1476 1460 1446 1440 1445 1461 1479 1491 1493 1490 1482 1479 1478 1478 1479 1480 1483 1486 1488 1495 1504 1513 1521 1523 1518 1515 1507 1500 1500 1507 1515 1523 1523 1519 1516 1510 1504 1498 1493 1489 1490 1491 1498 1506 1514 1524 1535 1542 1548 1556 1562 1567 1572 1584 1591 1602 1614 1626 1648 1684 1723 1764 1794 1805 1800 1789 1781 1776 1781 1773 1758 1737 1723 1711 1698 1690 1682 1684 1693 1711 1727 1735 1738 1729 1723 1717 1715 1713 1710 1710 1711 1713 1720 1731 1746 1763 1783 1803 1823 1852 1878 1920 1954 1978 1994 2012 2033 2053 2073 2095 2116 2134 2155 2167 2172 2176 2180 2182 2184 2186 2187 2188 2187 2184 2173 2157 2145 2129 2110 2087 2055 2032 2024 2018 2012
 421 420 419 420 421 422 423 422 421 419 419 419 419 420 422 423 423 422 422 423 424 425 425 424 423 424 425 425 425 425 425 426 427 426 423 426 436 457 471 471 471 476 482 492 504 513 519 523 525 524 523 525 530 542 556 571 585 597 614 631 641 653 662 671 684 695 706 724 745 763 780 794 801 806 804 798 795 805 814 819 826 831 842 858 867 885 892 895 897 914 927 942 953 956 952 950 953 961 961 952 940 926 919 916 912 908 910 918 930 946 961 977 994 1009 1017 1024 1034 1045 1060 1078 1092 1104 1116 1125 1135 1146 1154 1165 1179 1194 1209 1220 1229 1245 1261 1267 1271 1277 1279 1277 1272 1268 1259 1250 1243 1233 1223 1214 1203 1197 1188 1176 1167 1152 1135 1127 1125 1121 1116 1111 1109 1102 1097 1087 1069 1064 1056 1043 1037 1034 1027 1022 1012 993 975 941 922 909 900 902 903 897 886 875 867 867 869 867 862 862 860 861 864 869 873 870 868 869 869 865 861 858 860 871 867 860 862 865 863 852 840 827 818 810 797 780 771 767 758 752 757 761 758 748 743 736 727 723 716 703 689 685 678 656 645 648 662 687 693 700 716 733 749 761 774 781 784 790 801 817 850 869 876 883 886 888 891 899 909 924 939 946 953 964 975 986 992 998 1009 1027 1053 1087 1111 1128 1143 1155 1171 1190 1199 1201 1200 1197 1190 1180 1169 1165 1161 1150 1142 1129 1113 1102 1094 1088 1082 1068 1054 1044 1038 1036 1033 1028 1026 1026 1024 1018 1006 982 966 962 959 957 955 948 944 939 932 927 923 922 922 919 914 910 906 901 899 900 899 896 890 885 882 880 880 880 880 877 875 874 874 872 869 866 865 864 861 859 858 855 850 850 857 863 875 881 882 883 882 881 881 879 875 862 840 838 845 858 872 876 879 882 885 893 898 899 901 905 908 911 914 918 920 923 924 929 932 936 944 948 950 952 955 960 964 967 972 980 986 989 990 993 997 1000 1002 1002 1002 1003 1006 1007 1009 1012 1015 1016 1012 1020 1033 1042 1049 1051 1056 1059 1059 1062 1068 1072 1076 1082 1089 1094 1100 1105 1110 1119 1125 1130 1139 1153 1161 1164 1162 1160 1160 1163 1168 1182 1186 1188 1192 1198 1201 1211 1218 1221 1222 1223 1226 1234 1234 1233 1236 1238 1241 1244 1246 1250 1255 1259 1262 1265 1268 1273 1274 1274 1275 1276 1278 1281 1282 1282 1283 1283 1283 1283 1282 1280 1281 1278 1277 1275 1272 1271 1269 1266 1264 1262 1261 1260 1259 1250 1244 1244 1249 1257 1264 1269 1272 1275 1276 1279 1286 1294 1297 1300 1305 1311 1314 1318 1322 1322 1322 1322 1323 1323 1324 1326 1326 1327 1327 1329 1329 1329 1327 1320 1322 1320 1319 1321 1325 1324 1324 1324 1323 1323 1325 1327 1329 1335 1342 1344 1345 1348 1350 1359 1369 1375 1378 1384 1394 1402 1408 1412 1418 1426 1435 1448 1460 1465 1470 1475 1480 1487 1494 1502 1510 1517 1523 1530 1539 1546 1554 1565 1577 1589 1599 1609 1618 1627 1633 1640 1650 1662 1672 1681 1688 1694 1709 1729 1750 1773 1787 1798 1805 1812 1820 1830 1841 1856 1873 1886 1902 1915 1926 1938 1950 1960 1972 1986 1996 2009 2009 1995 1975 1956 1940 1927 1916 1909 1895 1884 1882 1880 1881 1888 1902 1918 1935 1954 1979 1992 2004 2016 2033 2047 2041 2031 2015 1995 1975 1961 1943 1937 1936 1934 1934 1933 1932 1932 1933 1935 1940 1947 1953 1955 1956 1957 1960 1965 1978 1981 1979 1975 1968 1959 1958 1958 1957 1959 1964 1970 1972 1972 1971 1971 1973 1982 1993 1997 2004 2013 2019 2028 2040 2050 2067 2082 2093 2106 2124 2137 2153 2164 2168 2170 2173 2169 2156 2137 2118 2102 2071 2039 2005 1977 1955 1944 1937 1922 1893 1860 1839 1819 1811 1805 1782 1762 1746 1727 1720 1724 1742 1759 1773 1781 1777 1773 1765 1755 1751 1740 1734 1732 1733 1733 1729 1722 1716 1711 1705 1708 1715 1717 1712 1706 1697 1686 1681 1677 1673 1670 1665 1660 1656 1652 1652 1651 1645 1644 1641 1635 1632 1634 1630 1630 1634 1636 1633 1631 1637 1644 1648 1653 1657 1664 1670 1674 1680 1689 1699 1705 1708 1716 1723 1724 1720 1719 1720 1719 1716 1719 1719 1719 1718 1715 1712 1711 1709 1707 1712 1719 1720 1723 1726 1727 1731 1731 1728 1716 1710 1709 1708 1701 1694 1686 1678 1667 1658 1654 1651 1649 1651 1655 1661 1670 1677 1678 1676 1675 1673 1670 1670 1670 1668 1659 1650 1643 1635 1622 1606 1597 1596 1599 1608 1616 1608 1596 1586 1571 1565 1560 1561 1567 1574 1580 1584 1597 1610 1622 1631 1633 1631 1628 1624 1625 1627 1624 1616 1608 1593 1576 1562 1551 1541 1526 1517 1512 1500 1486 1473 1457 1439 1426 1421 1435 1462 1481 1483 1478 1474 1468 1465 1467 1469 1470 1470 1471 1477 1486 1494 1500 1510 1507 1502 1497 1490 1487 1486 1492 1499 1508 1512 1509 1503 1497 1491 1479 1475 1475 1474 1477 1483 1495 1507 1516 1524 1531 1536 1540 1541 1547 1558 1573 1582 1592 1603 1613 1629 1656 1693 1739 1771 1780 1775 1764 1757 1752 1757 1753 1735 1711 1701 1691 1684 1673 1664 1667 1677 1705 1729 1735 1730 1719 1708 1692 1690 1690 1690 1691 1691 1700 1709 1720 1738 1760 1776 1795 1810 1833 1872 1927 1954 1974 1991 2009 2030 2045 2059 2078 2098 2117 2140 2158 2167 2176 2181 2185 2187 2190 2192 2193 2192 2191 2187 2181 2172 2157 2138 2121 2098 2076 2069 2068 2065
 422 421 420 419 419 420 421 422 422 420 419 419 420 421 422 423 423 424 424 424 424 424 424 424 423 424 425 425 424 425 425 426 427 427 427 431 442 461 472 477 484 492 499 508 517 521 521 521 522 521 521 524 534 553 574 590 602 612 624 635 644 654 662 671 681 689 699 719 743 759 772 783 789 793 793 790 781 789 802 810 814 813 830 860 871 881 887 888 892 909 919 932 943 946 942 940 942 944 938 930 921 909 902 898 898 900 907 920 935 951 965 981 997 1012 1020 1027 1038 1052 1073 1091 1095 1098 1106 1116 1128 1140 1150 1160 1172 1181 1192 1204 1217 1232 1245 1251 1254 1256 1258 1260 1262 1261 1256 1248 1244 1237 1222 1212 1201 1194 1185 1168 1146 1135 1127 1122 1119 1115 1109 1104 1099 1087 1079 1070 1059 1056 1046 1028 1017 1007 1000 998 994 983 970 949 920 904 893 893 894 886 879 873 863 864 867 864 856 853 852 858 864 865 863 860 856 857 856 855 855 850 843 846 848 851 852 853 858 855 851 851 841 828 806 783 767 757 753 752 750 746 739 736 741 740 727 711 694 688 680 671 657 641 638 647 664 677 685 699 716 731 742 750 753 756 758 771 789 808 840 860 868 870 872 876 883 892 904 919 932 936 942 952 961 967 970 974 987 1011 1039 1073 1098 1112 1128 1144 1156 1169 1177 1178 1177 1172 1165 1156 1151 1147 1136 1124 1117 1108 1101 1094 1085 1076 1065 1050 1040 1035 1030 1025 1019 1014 1007 1000 994 988 980 967 956 958 955 950 946 939 932 928 922 918 916 915 914 910 905 897 891 889 889 890 887 883 880 877 873 870 869 869 869 867 866 865 865 863 862 861 859 854 851 853 850 840 826 830 846 854 862 873 877 878 878 879 878 875 868 845 817 820 828 848 864 870 877 880 885 894 899 899 901 902 903 906 908 911 916 919 921 926 931 934 938 943 948 949 951 954 959 964 968 973 978 981 983 984 986 989 991 995 997 997 999 1001 1005 1007 1008 1011 1015 1024 1032 1038 1048 1049 1054 1058 1060 1064 1070 1073 1076 1080 1090 1098 1103 1109 1117 1123 1128 1134 1139 1148 1167 1180 1184 1179 1168 1169 1174 1186 1192 1193 1200 1202 1205 1211 1219 1224 1223 1226 1229 1232 1234 1235 1237 1241 1244 1244 1245 1249 1254 1258 1261 1264 1266 1270 1272 1271 1272 1273 1275 1276 1278 1280 1281 1282 1281 1280 1279 1279 1279 1278 1276 1273 1271 1268 1267 1265 1262 1260 1257 1256 1256 1250 1243 1242 1246 1253 1259 1265 1268 1269 1271 1274 1277 1283 1289 1293 1298 1302 1305 1309 1312 1313 1314 1315 1316 1317 1317 1318 1319 1319 1318 1317 1317 1315 1313 1310 1310 1311 1312 1312 1312 1311 1313 1316 1321 1327 1331 1331 1333 1342 1351 1356 1363 1371 1373 1379 1381 1384 1387 1394 1401 1409 1417 1425 1432 1438 1444 1455 1465 1474 1484 1489 1494 1502 1508 1513 1520 1527 1535 1545 1553 1557 1566 1580 1594 1607 1619 1634 1645 1651 1655 1665 1682 1695 1707 1722 1731 1732 1732 1748 1771 1791 1805 1813 1820 1824 1832 1842 1855 1870 1885 1901 1914 1928 1941 1955 1967 1980 1995 2009 2019 2030 2023 2008 1989 1972 1952 1936 1925 1919 1910 1901 1897 1899 1903 1912 1923 1940 1956 1974 1993 2004 2018 2034 2045 2057 2049 2034 2015 1994 1971 1958 1941 1932 1932 1930 1930 1930 1930 1930 1933 1937 1944 1949 1953 1955 1957 1958 1959 1965 1987 1997 2002 2000 1993 1981 1974 1971 1969 1970 1971 1973 1973 1975 1977 1980 1988 2002 2008 2011 2013 2021 2031 2044 2055 2068 2085 2103 2114 2125 2134 2140 2146 2141 2131 2121 2120 2106 2086 2071 2060 2043 2019 1991 1965 1934 1915 1903 1878 1852 1812 1791 1774 1758 1762 1751 1739 1725 1710 1689 1679 1687 1706 1730 1750 1761 1754 1748 1740 1731 1725 1716 1711 1709 1709 1707 1699 1690 1688 1688 1681 1679 1681 1681 1677 1676 1668 1661 1655 1651 1649 1644 1639 1636 1634 1626 1619 1619 1616 1613 1612 1606 1605 1605 1607 1615 1622 1622 1618 1617 1622 1626 1626 1632 1639 1645 1649 1654 1660 1669 1685 1693 1697 1701 1706 1710 1713 1711 1705 1698 1694 1698 1706 1708 1707 1703 1698 1695 1699 1703 1712 1720 1721 1721 1720 1721 1725 1721 1712 1700 1692 1689 1686 1674 1667 1661 1654 1645 1633 1624 1620 1619 1622 1628 1640 1654 1666 1670 1663 1660 1653 1653 1657 1659 1657 1651 1639 1627 1614 1597 1584 1570 1562 1567 1575 1586 1589 1583 1570 1557 1548 1539 1538 1542 1551 1560 1567 1583 1597 1609 1618 1619 1613 1607 1606 1609 1613 1612 1606 1594 1579 1567 1552 1542 1530 1512 1501 1496 1490 1482 1472 1460 1440 1417 1398 1406 1439 1464 1469 1465 1460 1455 1453 1452 1443 1442 1447 1461 1471 1480 1487 1491 1492 1488 1484 1479 1477 1472 1467 1474 1483 1490 1495 1495 1488 1480 1471 1457 1451 1451 1455 1462 1476 1495 1505 1509 1512 1518 1517 1513 1520 1531 1545 1564 1574 1583 1591 1598 1608 1628 1653 1682 1719 1741 1738 1728 1722 1720 1723 1721 1709 1691 1678 1671 1665 1656 1651 1654 1662 1688 1728 1732 1723 1707 1690 1677 1667 1665 1669 1669 1673 1682 1697 1709 1725 1745 1763 1779 1795 1811 1841 1885 1919 1936 1946 1965 1983 1996 2007 2023 2050 2068 2090 2112 2128 2146 2162 2174 2185 2193 2197 2199 2198 2197 2196 2195 2190 2177 2164 2153 2136 2118 2110 2112 2112
 421 422 422 421 420 420 421 422 422 422 422 421 422 422 422 422 423 425 425 425 425 425 425 424 423 423 424 424 424 426 427 427 427 427 429 436 450 466 478 487 497 504 508 511 512 513 515 517 520 522 530 540 552 571 586 596 607 615 625 634 643 653 660 666 676 685 694 711 731 747 760 768 774 780 784 787 791 798 801 802 804 816 842 857 866 875 882 885 887 896 907 913 920 924 926 928 930 926 916 909 900 890 886 887 892 900 912 927 940 951 964 979 993 1006 1017 1029 1045 1060 1078 1090 1094 1096 1100 1108 1120 1132 1141 1150 1160 1169 1179 1190 1202 1215 1225 1232 1239 1243 1246 1251 1255 1256 1252 1245 1239 1228 1216 1205 1193 1183 1176 1153 1135 1130 1121 1107 1097 1093 1092 1088 1076 1061 1054 1048 1042 1039 1030 1013 999 989 980 975 964 953 950 943 926 910 890 879 873 873 875 869 856 852 856 864 859 850 848 850 856 861 859 854 846 844 843 843 847 842 829 825 827 836 841 841 849 854 859 861 853 841 812 773 748 730 727 733 740 731 723 720 725 729 718 695 679 676 670 659 645 632 630 645 659 669 688 704 713 721 728 732 732 735 748 770 797 820 842 852 855 857 863 870 875 888 901 912 919 922 923 929 935 940 947 957 972 1002 1036 1071 1093 1101 1104 1117 1139 1156 1162 1162 1158 1151 1144 1140 1134 1124 1109 1101 1098 1094 1086 1080 1072 1064 1051 1038 1030 1022 1016 1006 1000 995 989 985 977 972 969 962 958 955 949 940 937 935 929 922 916 912 910 907 903 900 894 889 885 882 878 876 874 872 869 866 865 867 867 866 866 865 863 860 859 856 854 854 851 848 848 847 841 818 807 815 836 848 857 869 875 876 876 875 873 870 862 842 820 815 819 839 859 866 872 878 887 892 895 896 896 898 899 898 898 902 912 916 918 922 928 931 933 936 939 943 949 951 954 961 966 970 973 975 976 978 979 982 985 988 992 992 994 997 1002 1003 1005 1013 1020 1026 1031 1036 1043 1047 1051 1054 1060 1066 1070 1076 1079 1083 1098 1109 1111 1113 1118 1126 1134 1137 1141 1150 1163 1173 1178 1176 1172 1172 1177 1187 1193 1197 1203 1206 1210 1214 1218 1221 1224 1233 1233 1231 1233 1234 1237 1241 1245 1247 1250 1252 1255 1258 1259 1260 1261 1263 1265 1267 1269 1270 1272 1272 1273 1275 1276 1278 1277 1277 1277 1276 1277 1276 1271 1269 1269 1267 1265 1262 1259 1257 1252 1248 1248 1244 1241 1242 1245 1252 1256 1261 1264 1265 1267 1270 1272 1275 1283 1287 1290 1294 1298 1301 1304 1306 1307 1309 1309 1309 1310 1312 1311 1308 1306 1302 1302 1303 1304 1304 1303 1304 1308 1312 1319 1327 1330 1336 1341 1346 1349 1348 1349 1352 1360 1369 1379 1387 1392 1392 1392 1394 1398 1407 1412 1418 1428 1434 1442 1448 1455 1465 1476 1484 1491 1499 1507 1514 1521 1526 1533 1540 1547 1556 1565 1571 1582 1599 1616 1635 1655 1665 1672 1677 1683 1699 1714 1724 1737 1749 1761 1769 1777 1789 1800 1812 1821 1829 1836 1841 1846 1858 1872 1886 1904 1918 1930 1944 1956 1970 1986 2002 2017 2027 2037 2044 2037 2019 1999 1988 1968 1948 1936 1931 1926 1922 1920 1919 1925 1931 1942 1958 1974 1989 2002 2011 2026 2046 2063 2072 2057 2038 2011 1991 1972 1952 1936 1929 1929 1928 1928 1928 1931 1935 1939 1945 1951 1954 1957 1960 1961 1963 1963 1968 1983 2001 2025 2028 2016 2006 1996 1990 1987 1983 1983 1982 1984 1984 1988 1994 2006 2017 2024 2024 2026 2035 2048 2064 2075 2087 2106 2119 2124 2123 2111 2096 2093 2085 2077 2063 2041 2026 2013 1997 1984 1972 1957 1941 1918 1894 1880 1851 1820 1789 1754 1732 1719 1709 1711 1721 1718 1704 1682 1656 1651 1656 1671 1698 1721 1731 1725 1717 1711 1700 1696 1691 1685 1683 1678 1675 1671 1669 1666 1662 1657 1654 1649 1645 1644 1644 1642 1632 1629 1628 1625 1620 1616 1617 1613 1608 1602 1595 1592 1597 1595 1593 1594 1593 1588 1592 1597 1599 1600 1600 1602 1607 1609 1614 1620 1627 1637 1648 1655 1661 1670 1678 1684 1688 1695 1698 1698 1692 1681 1671 1670 1674 1683 1689 1686 1675 1669 1671 1676 1684 1698 1708 1711 1705 1702 1705 1704 1697 1687 1672 1658 1653 1650 1645 1642 1637 1631 1625 1614 1602 1596 1592 1594 1599 1609 1623 1635 1645 1638 1628 1620 1619 1621 1624 1627 1621 1612 1603 1593 1581 1567 1551 1538 1534 1542 1561 1568 1565 1555 1541 1530 1518 1513 1519 1532 1544 1555 1574 1590 1600 1605 1597 1585 1577 1580 1584 1590 1595 1592 1581 1567 1556 1542 1530 1517 1503 1489 1478 1468 1461 1456 1442 1419 1395 1365 1365 1396 1436 1451 1451 1446 1441 1438 1433 1425 1425 1436 1454 1462 1469 1476 1480 1479 1475 1470 1465 1458 1452 1451 1455 1461 1466 1468 1471 1468 1462 1454 1442 1430 1426 1443 1459 1475 1489 1495 1490 1490 1491 1486 1490 1505 1522 1539 1553 1564 1570 1580 1586 1591 1606 1626 1657 1686 1704 1709 1701 1690 1685 1685 1688 1685 1670 1660 1650 1643 1636 1634 1643 1657 1683 1722 1726 1711 1691 1670 1654 1644 1640 1642 1649 1654 1664 1679 1695 1711 1727 1744 1767 1786 1800 1819 1841 1863 1884 1896 1904 1919 1937 1951 1973 1998 2012 2028 2049 2068 2088 2116 2145 2171 2188 2197 2200 2200 2200 2202 2201 2198 2190 2182 2175 2164 2148 2143 2143 2139
 421 422 422 422 422 421 422 423 423 422 423 423 423 423 422 421 422 424 424 424 425 426 425 425 423 423 423 424 425 427 427 426 427 428 430 442 459 475 486 494 500 504 504 501 501 505 514 523 529 537 548 558 569 582 591 600 609 616 625 632 640 650 657 664 677 689 699 708 717 729 741 749 756 765 774 781 789 793 790 792 801 821 838 852 863 873 879 881 879 882 889 895 902 908 914 918 919 914 904 895 884 878 878 883 894 905 919 931 940 947 958 972 985 999 1013 1033 1050 1061 1072 1084 1091 1095 1099 1104 1114 1125 1134 1143 1151 1158 1169 1181 1190 1201 1209 1215 1223 1230 1234 1239 1243 1244 1241 1233 1224 1214 1207 1199 1184 1171 1164 1150 1133 1122 1102 1090 1085 1076 1072 1068 1059 1052 1047 1041 1031 1021 1008 992 979 968 964 964 949 927 923 926 915 904 886 876 869 865 862 855 849 846 845 857 860 852 847 846 850 857 859 854 840 834 831 831 832 826 819 817 820 828 832 833 836 841 846 849 847 836 805 761 730 715 714 717 725 725 716 712 712 710 695 680 671 669 667 661 647 630 624 634 655 668 689 700 699 698 704 713 727 739 757 777 804 824 838 846 849 851 856 865 872 881 890 896 901 904 904 909 914 918 926 939 958 990 1027 1062 1082 1088 1085 1092 1116 1142 1148 1148 1143 1136 1131 1126 1116 1104 1092 1084 1082 1078 1072 1068 1064 1055 1043 1031 1022 1016 1008 998 992 988 983 975 966 961 956 952 948 943 937 934 933 932 924 917 911 908 904 898 892 889 884 879 878 876 873 873 872 869 863 860 856 857 860 861 860 860 858 857 856 850 847 846 845 845 844 836 821 806 805 816 833 845 854 864 870 872 870 866 863 862 854 840 824 818 817 832 852 862 867 877 884 889 890 890 890 891 890 887 890 897 910 914 914 916 922 926 927 930 934 938 946 947 949 954 960 964 968 969 971 975 976 977 983 985 988 992 995 996 998 1001 1009 1017 1021 1025 1029 1037 1042 1048 1052 1056 1067 1071 1074 1079 1082 1090 1117 1133 1135 1132 1129 1134 1140 1142 1145 1153 1160 1169 1174 1176 1180 1183 1184 1189 1195 1200 1204 1208 1212 1214 1217 1221 1224 1227 1228 1229 1232 1233 1237 1239 1242 1244 1247 1249 1251 1253 1255 1256 1259 1262 1263 1264 1267 1268 1271 1272 1273 1273 1274 1275 1274 1274 1274 1273 1274 1273 1269 1267 1266 1265 1263 1260 1257 1255 1249 1245 1242 1241 1240 1241 1244 1249 1252 1255 1259 1261 1264 1267 1268 1271 1276 1281 1284 1289 1293 1296 1299 1301 1303 1303 1304 1304 1303 1302 1300 1299 1296 1295 1296 1298 1300 1302 1306 1312 1316 1323 1334 1344 1345 1348 1353 1357 1362 1364 1365 1368 1377 1384 1392 1396 1400 1399 1398 1403 1409 1416 1421 1428 1436 1444 1453 1460 1469 1479 1489 1495 1502 1512 1521 1528 1534 1540 1546 1552 1557 1565 1575 1585 1601 1616 1633 1660 1676 1683 1693 1702 1710 1720 1731 1740 1754 1770 1780 1789 1800 1810 1819 1827 1835 1843 1851 1855 1861 1874 1889 1905 1920 1933 1946 1959 1971 1985 2000 2019 2031 2043 2057 2063 2055 2040 2016 2001 1987 1964 1952 1948 1947 1944 1942 1942 1944 1947 1956 1968 1981 1993 2005 2014 2038 2059 2071 2081 2066 2036 2010 1985 1968 1948 1933 1928 1927 1928 1930 1931 1935 1940 1944 1952 1956 1960 1963 1965 1967 1969 1970 1974 1985 2005 2034 2040 2034 2022 2016 2009 2005 2000 1997 1995 1994 1995 1999 2009 2020 2032 2035 2037 2046 2058 2071 2080 2091 2103 2116 2117 2105 2081 2057 2043 2039 2028 2013 1989 1962 1948 1933 1912 1905 1897 1895 1892 1878 1857 1828 1793 1771 1748 1715 1684 1672 1663 1666 1684 1699 1681 1652 1631 1628 1632 1641 1659 1685 1702 1700 1691 1683 1677 1675 1666 1658 1656 1654 1652 1650 1647 1642 1640 1637 1633 1626 1625 1621 1622 1619 1611 1607 1605 1603 1598 1597 1603 1606 1602 1593 1586 1577 1576 1574 1576 1578 1578 1576 1579 1583 1585 1586 1585 1590 1597 1599 1603 1606 1611 1621 1634 1645 1652 1657 1663 1670 1673 1675 1676 1673 1670 1659 1651 1648 1654 1665 1673 1670 1656 1651 1652 1659 1668 1682 1692 1692 1678 1670 1674 1668 1664 1658 1647 1637 1633 1631 1627 1625 1617 1612 1602 1590 1583 1579 1573 1575 1580 1593 1609 1618 1619 1612 1603 1598 1597 1596 1598 1602 1601 1595 1585 1573 1562 1553 1541 1526 1515 1516 1532 1548 1550 1542 1530 1519 1505 1498 1506 1522 1537 1548 1568 1584 1593 1593 1584 1570 1560 1562 1567 1570 1575 1574 1567 1559 1547 1531 1518 1508 1496 1483 1469 1457 1447 1431 1396 1365 1338 1317 1331 1370 1416 1434 1435 1429 1426 1423 1419 1412 1415 1426 1443 1454 1459 1462 1466 1466 1460 1455 1449 1442 1436 1436 1441 1447 1451 1450 1450 1449 1447 1442 1429 1411 1414 1439 1456 1469 1476 1482 1475 1469 1462 1458 1467 1486 1506 1527 1544 1555 1561 1567 1573 1576 1589 1610 1636 1665 1680 1685 1675 1669 1665 1662 1663 1661 1649 1643 1634 1629 1624 1621 1626 1645 1690 1719 1717 1702 1681 1650 1638 1627 1622 1622 1627 1637 1651 1668 1686 1704 1720 1739 1761 1782 1792 1806 1816 1818 1824 1833 1846 1863 1886 1902 1927 1954 1974 1993 2012 2028 2044 2071 2105 2146 2174 2188 2194 2194 2196 2199 2198 2195 2189 2184 2180 2171 2161 2156 2154 2151
 420 421 422 422 422 423 423 424 424 423 423 423 423 423 422 421 422 422 423 423 424 426 426 425 423 423 423 423 424 426 426 426 428 430 432 450 471 484 488 490 491 491 491 490 493 505 526 539 545 553 562 568 577 587 595 603 610 617 624 628 634 646 659 669 682 693 701 705 706 710 718 724 729 739 752 762 771 778 784 791 804 821 835 847 857 867 873 875 870 873 876 882 889 896 904 910 912 906 894 882 869 866 871 881 895 908 920 932 940 947 957 966 977 992 1011 1032 1044 1052 1063 1075 1082 1087 1093 1099 1107 1118 1125 1133 1142 1148 1158 1168 1175 1183 1190 1195 1203 1210 1215 1219 1223 1225 1223 1213 1205 1195 1187 1181 1172 1155 1144 1138 1124 1105 1084 1081 1080 1068 1063 1059 1052 1042 1032 1018 1002 986 973 966 961 952 951 950 937 916 907 905 897 887 878 873 869 862 853 848 846 841 839 841 846 846 847 843 842 846 850 845 834 828 825 824 825 821 814 813 813 821 824 819 818 809 797 788 795 808 797 762 721 704 700 707 717 710 700 698 695 687 678 670 667 667 667 663 649 624 618 620 639 656 679 686 677 681 697 711 729 746 764 784 807 817 824 828 830 837 843 849 851 851 858 868 876 880 884 887 894 902 909 921 940 967 999 1029 1047 1057 1064 1075 1096 1125 1134 1132 1128 1124 1118 1108 1095 1085 1073 1066 1065 1065 1061 1058 1051 1043 1034 1021 1010 1005 992 976 970 967 965 963 957 949 947 947 943 937 933 932 931 925 918 911 903 896 891 883 877 873 867 866 868 866 865 864 862 859 855 852 849 847 849 850 848 849 851 850 848 844 840 838 838 836 830 815 798 796 802 813 831 843 850 859 862 862 860 857 855 852 844 830 820 818 817 828 841 854 862 869 876 881 878 875 874 873 874 876 885 895 905 907 908 910 911 916 919 923 929 935 939 941 944 948 953 956 959 961 961 964 968 974 978 981 985 990 991 995 1001 1007 1013 1019 1023 1027 1032 1039 1043 1050 1055 1064 1074 1077 1083 1091 1097 1108 1123 1134 1145 1148 1145 1143 1145 1148 1150 1156 1163 1182 1189 1183 1185 1187 1190 1196 1203 1206 1208 1211 1213 1215 1220 1224 1226 1227 1229 1231 1233 1236 1238 1241 1243 1245 1246 1248 1250 1253 1255 1258 1262 1266 1269 1268 1266 1268 1275 1279 1278 1275 1273 1271 1271 1271 1271 1271 1271 1271 1268 1266 1264 1261 1259 1255 1252 1249 1245 1242 1240 1239 1238 1240 1244 1247 1249 1254 1257 1258 1260 1263 1265 1269 1271 1273 1277 1281 1286 1288 1285 1288 1294 1295 1296 1294 1291 1290 1289 1290 1291 1294 1300 1304 1311 1318 1323 1329 1337 1336 1338 1345 1351 1357 1359 1365 1370 1375 1377 1381 1386 1391 1396 1402 1406 1409 1411 1416 1421 1428 1435 1442 1450 1459 1470 1479 1488 1497 1503 1511 1518 1529 1538 1545 1550 1554 1559 1566 1574 1585 1597 1612 1630 1647 1663 1679 1693 1706 1719 1728 1733 1741 1753 1767 1782 1795 1804 1813 1820 1827 1835 1846 1855 1865 1871 1876 1882 1896 1911 1931 1945 1955 1966 1980 1991 2005 2023 2038 2055 2069 2080 2079 2067 2055 2037 2021 2001 1984 1974 1974 1979 1981 1980 1975 1972 1973 1976 1982 1989 1998 2008 2021 2047 2064 2076 2088 2072 2039 2009 1977 1963 1947 1938 1931 1928 1931 1935 1938 1943 1948 1954 1961 1966 1969 1971 1973 1976 1978 1979 1982 1990 2008 2039 2052 2047 2037 2032 2028 2024 2020 2018 2015 2012 2014 2019 2029 2040 2048 2055 2067 2077 2087 2093 2101 2105 2109 2107 2083 2052 2025 2010 1999 1978 1955 1937 1922 1904 1889 1856 1831 1819 1807 1810 1814 1813 1790 1757 1731 1725 1709 1670 1642 1634 1627 1625 1629 1635 1629 1616 1602 1602 1606 1613 1620 1628 1646 1661 1657 1649 1646 1643 1635 1628 1628 1632 1631 1625 1619 1612 1610 1606 1599 1595 1595 1591 1593 1597 1595 1584 1576 1576 1575 1574 1581 1588 1584 1576 1567 1558 1552 1549 1549 1554 1559 1563 1566 1570 1574 1574 1574 1575 1578 1579 1584 1588 1594 1603 1616 1628 1637 1643 1646 1650 1652 1652 1651 1648 1644 1637 1627 1625 1633 1649 1659 1657 1640 1633 1631 1642 1656 1671 1678 1673 1655 1638 1634 1638 1639 1637 1626 1612 1605 1606 1607 1603 1596 1583 1574 1564 1563 1560 1552 1555 1563 1575 1594 1602 1600 1587 1572 1564 1567 1572 1575 1579 1580 1575 1566 1556 1545 1532 1522 1513 1500 1493 1508 1526 1529 1519 1502 1485 1480 1484 1496 1517 1532 1544 1560 1572 1577 1575 1564 1553 1540 1533 1537 1542 1550 1550 1549 1543 1533 1521 1510 1499 1487 1470 1448 1433 1419 1381 1342 1314 1291 1281 1301 1342 1388 1409 1409 1409 1408 1401 1386 1382 1397 1410 1426 1445 1453 1452 1450 1447 1441 1436 1433 1432 1427 1423 1424 1428 1433 1433 1433 1431 1433 1430 1411 1395 1406 1433 1447 1457 1461 1461 1455 1438 1429 1436 1452 1475 1498 1520 1528 1536 1545 1551 1555 1561 1574 1595 1619 1646 1656 1656 1647 1642 1635 1626 1627 1628 1624 1616 1612 1609 1604 1603 1617 1639 1686 1705 1701 1687 1654 1631 1616 1609 1606 1601 1605 1619 1634 1653 1675 1698 1718 1742 1762 1781 1787 1788 1783 1779 1777 1776 1780 1794 1815 1844 1872 1902 1933 1959 1975 1988 2004 2024 2051 2086 2127 2156 2173 2179 2184 2186 2184 2182 2178 2175 2172 2163 2156 2151 2148 2146
 420 420 421 422 423 423 423 424 425 426 424 423 423 423 422 423 424 424 423 423 423 425 426 424 423 423 423 424 425 425 425 426 428 430 437 460 477 481 479 478 477 478 482 488 501 519 536 544 549 558 568 576 585 592 598 604 611 617 625 631 639 654 666 674 682 689 696 698 695 693 697 704 710 719 730 740 754 771 788 799 809 818 829 839 850 855 857 864 867 870 873 877 881 886 891 896 897 891 879 868 857 856 862 875 890 902 915 928 938 948 956 964 974 985 1001 1019 1030 1039 1055 1070 1077 1081 1086 1093 1102 1110 1117 1123 1132 1140 1148 1153 1158 1163 1170 1176 1184 1190 1195 1199 1203 1205 1200 1191 1179 1165 1155 1148 1143 1135 1129 1123 1113 1096 1078 1075 1070 1059 1051 1043 1028 1010 996 981 967 955 950 948 945 942 938 935 925 901 886 880 878 874 869 866 862 855 849 846 841 836 834 833 832 831 834 831 823 822 826 829 827 824 818 814 811 810 809 808 806 808 809 806 804 795 782 765 749 753 775 765 733 703 692 693 698 690 682 679 682 680 676 669 661 658 661 652 628 614 612 619 635 649 664 666 667 684 715 729 741 759 774 792 803 806 806 809 812 812 820 823 824 828 833 839 845 849 853 860 872 890 901 909 923 947 974 996 1010 1024 1044 1069 1095 1118 1125 1124 1119 1111 1102 1088 1074 1065 1057 1052 1050 1049 1045 1039 1029 1019 1010 997 988 981 974 966 960 958 958 951 940 936 936 935 932 929 927 926 923 914 906 895 887 884 880 874 869 860 846 847 853 854 854 854 852 850 849 847 844 842 842 843 843 843 844 847 845 837 834 829 830 827 818 805 793 793 802 809 823 838 843 852 854 852 850 846 845 843 831 819 817 815 814 824 834 842 854 859 862 865 865 863 861 862 864 873 887 899 904 904 904 905 905 908 914 920 925 930 933 935 938 943 947 950 953 956 958 961 967 975 978 980 980 983 989 997 1001 1006 1011 1019 1022 1029 1037 1045 1051 1057 1064 1072 1078 1086 1097 1109 1112 1118 1126 1132 1138 1142 1146 1151 1154 1158 1164 1171 1175 1195 1205 1198 1199 1199 1197 1201 1206 1209 1212 1214 1214 1218 1223 1226 1227 1229 1231 1235 1238 1240 1242 1245 1247 1248 1249 1251 1253 1257 1260 1263 1268 1271 1270 1267 1267 1269 1274 1280 1285 1281 1273 1270 1270 1270 1270 1270 1269 1268 1265 1264 1262 1258 1255 1252 1250 1246 1241 1240 1239 1238 1238 1241 1245 1247 1248 1251 1254 1256 1257 1258 1260 1263 1267 1269 1270 1274 1276 1273 1273 1274 1279 1280 1281 1282 1283 1285 1289 1294 1301 1312 1316 1319 1324 1330 1333 1337 1341 1344 1345 1346 1352 1363 1369 1373 1375 1377 1381 1385 1390 1394 1402 1408 1413 1416 1419 1424 1433 1441 1449 1460 1470 1479 1490 1499 1505 1513 1520 1527 1535 1545 1555 1565 1574 1579 1585 1593 1603 1616 1635 1650 1663 1679 1693 1706 1719 1732 1744 1755 1766 1775 1785 1794 1805 1813 1822 1832 1840 1845 1854 1865 1874 1885 1893 1899 1906 1923 1942 1958 1967 1979 1989 2002 2015 2029 2045 2062 2081 2090 2095 2093 2081 2069 2054 2040 2024 2006 1999 1997 1998 2003 2010 2017 2017 2017 2017 2010 2008 2010 2017 2029 2050 2067 2080 2087 2069 2040 2015 1978 1964 1955 1946 1940 1937 1940 1944 1950 1957 1963 1970 1975 1980 1982 1984 1984 1985 1987 1988 1991 2000 2012 2036 2059 2065 2055 2048 2046 2044 2040 2039 2037 2036 2041 2050 2056 2061 2069 2080 2093 2104 2111 2115 2112 2101 2080 2053 2016 1987 1958 1933 1920 1897 1881 1888 1888 1865 1839 1806 1792 1786 1772 1767 1761 1750 1723 1687 1664 1650 1639 1625 1611 1605 1592 1587 1590 1594 1592 1585 1573 1573 1579 1580 1585 1593 1606 1621 1625 1622 1616 1616 1610 1596 1592 1597 1592 1582 1576 1574 1574 1574 1574 1572 1574 1577 1577 1577 1572 1561 1558 1563 1562 1560 1561 1562 1563 1561 1556 1549 1538 1527 1528 1536 1542 1548 1549 1552 1554 1554 1556 1558 1556 1559 1565 1573 1583 1593 1605 1615 1628 1632 1628 1626 1630 1630 1623 1620 1620 1614 1602 1610 1622 1637 1647 1642 1626 1619 1616 1628 1646 1661 1664 1656 1639 1620 1608 1610 1616 1622 1616 1593 1578 1574 1580 1578 1570 1563 1554 1538 1531 1530 1516 1525 1539 1551 1564 1573 1576 1569 1555 1545 1544 1548 1547 1548 1548 1544 1538 1533 1519 1500 1489 1475 1460 1454 1466 1490 1495 1485 1467 1452 1451 1464 1478 1498 1518 1530 1540 1549 1551 1548 1547 1542 1527 1509 1498 1497 1507 1510 1514 1517 1515 1510 1500 1489 1470 1448 1426 1403 1383 1359 1340 1313 1277 1259 1275 1315 1357 1384 1394 1393 1383 1371 1358 1351 1360 1383 1405 1423 1438 1440 1436 1430 1424 1424 1425 1420 1403 1397 1401 1403 1412 1416 1417 1418 1418 1408 1378 1375 1393 1425 1437 1441 1441 1436 1424 1411 1407 1417 1440 1468 1485 1503 1514 1515 1523 1535 1542 1548 1560 1578 1600 1628 1632 1626 1619 1612 1595 1585 1583 1582 1584 1588 1590 1588 1584 1589 1605 1615 1630 1639 1638 1630 1617 1606 1597 1589 1584 1580 1587 1606 1624 1646 1668 1698 1722 1737 1754 1769 1774 1764 1750 1744 1739 1736 1737 1745 1762 1782 1814 1847 1879 1907 1925 1941 1957 1976 1999 2029 2061 2087 2114 2135 2151 2160 2163 2163 2161 2157 2151 2142 2134 2128 2127 2128
 420 420 420 422 423 423 423 423 424 425 425 424 423 423 423 424 425 425 424 423 423 424 424 424 423 423 424 425 425 425 425 425 427 431 443 466 476 472 467 467 470 474 480 495 515 529 535 539 545 559 573 581 589 595 601 605 611 620 630 641 650 659 667 672 677 682 685 683 680 680 685 695 704 712 721 731 749 774 792 804 812 814 819 825 830 836 847 855 862 866 870 873 875 878 880 882 882 876 865 855 848 848 856 870 885 896 909 923 933 943 954 965 975 980 987 1001 1015 1029 1047 1063 1073 1080 1085 1088 1094 1100 1108 1117 1124 1131 1136 1139 1142 1148 1155 1160 1167 1173 1177 1182 1186 1188 1184 1177 1164 1149 1141 1134 1128 1125 1123 1117 1102 1083 1072 1064 1054 1040 1026 1013 994 978 966 954 945 940 940 939 937 935 926 920 909 892 881 875 871 864 858 856 854 850 846 842 835 829 825 825 827 829 830 823 813 812 816 821 826 821 812 804 803 804 805 804 803 805 804 800 798 792 781 763 741 734 753 753 733 703 688 687 686 678 673 675 677 672 665 661 652 643 639 627 610 606 613 634 648 653 657 657 662 689 726 737 751 771 787 797 799 794 791 794 796 798 801 804 800 807 813 815 816 820 829 841 856 878 893 900 913 937 964 988 1002 1017 1044 1075 1099 1114 1116 1113 1106 1096 1084 1068 1055 1049 1044 1038 1035 1030 1023 1015 1003 992 983 978 976 970 961 956 954 951 941 932 926 923 921 920 919 916 910 903 900 894 886 881 878 874 871 870 865 856 848 848 851 853 852 849 848 844 842 839 837 836 837 840 841 840 842 844 841 833 829 823 822 819 809 799 794 798 803 809 818 832 837 843 844 845 842 839 839 833 816 807 809 810 808 814 826 836 847 854 854 854 852 848 852 857 861 874 887 898 903 902 902 900 902 906 912 918 922 925 928 931 936 941 947 950 951 954 958 962 969 974 976 976 977 982 986 994 1000 1005 1011 1020 1025 1034 1044 1051 1057 1064 1072 1082 1096 1109 1121 1125 1122 1129 1138 1142 1148 1150 1153 1159 1163 1169 1175 1179 1182 1191 1204 1207 1205 1205 1202 1205 1209 1210 1212 1215 1217 1221 1222 1224 1226 1230 1236 1238 1240 1242 1243 1246 1248 1249 1253 1254 1258 1262 1265 1267 1268 1269 1267 1265 1266 1269 1272 1275 1284 1284 1274 1270 1269 1269 1268 1267 1267 1266 1264 1262 1260 1256 1253 1251 1246 1242 1240 1239 1238 1239 1239 1242 1247 1247 1248 1250 1251 1254 1256 1257 1259 1261 1264 1266 1267 1269 1272 1272 1274 1275 1276 1279 1282 1287 1289 1294 1303 1313 1320 1326 1326 1328 1331 1337 1339 1344 1348 1353 1356 1354 1356 1363 1371 1374 1376 1377 1381 1387 1394 1400 1408 1418 1423 1424 1428 1436 1446 1454 1464 1475 1484 1492 1501 1510 1518 1527 1533 1540 1551 1563 1572 1583 1595 1610 1619 1626 1636 1649 1665 1675 1689 1703 1713 1725 1738 1748 1762 1780 1790 1799 1810 1817 1822 1831 1839 1850 1858 1865 1873 1883 1891 1901 1912 1919 1929 1951 1969 1979 1992 2001 2009 2020 2031 2044 2057 2069 2082 2087 2085 2079 2072 2065 2055 2043 2034 2026 2020 2020 2021 2027 2037 2043 2044 2043 2046 2038 2032 2029 2032 2039 2053 2068 2082 2084 2062 2041 2016 1983 1970 1962 1954 1948 1947 1949 1952 1959 1969 1977 1982 1985 1990 1991 1994 1995 1998 1998 2000 2002 2009 2019 2034 2062 2078 2079 2074 2070 2069 2065 2063 2063 2073 2079 2078 2078 2080 2088 2098 2109 2118 2117 2108 2089 2057 2028 1992 1956 1925 1897 1884 1864 1832 1825 1825 1820 1799 1781 1758 1754 1750 1737 1733 1724 1701 1670 1644 1616 1598 1592 1586 1579 1574 1563 1562 1562 1564 1564 1558 1548 1547 1548 1548 1551 1560 1574 1590 1599 1597 1589 1581 1578 1573 1570 1568 1560 1557 1554 1551 1551 1555 1555 1552 1550 1554 1555 1550 1545 1545 1547 1548 1552 1553 1552 1552 1552 1551 1548 1538 1522 1512 1513 1522 1525 1528 1530 1536 1539 1539 1540 1538 1538 1544 1555 1563 1570 1583 1595 1602 1610 1610 1606 1610 1613 1609 1597 1580 1579 1583 1577 1582 1602 1621 1632 1629 1617 1608 1611 1622 1635 1646 1644 1641 1627 1601 1585 1587 1596 1601 1598 1580 1565 1547 1550 1548 1544 1541 1530 1513 1503 1498 1489 1495 1501 1514 1524 1527 1529 1531 1529 1520 1512 1512 1513 1514 1513 1513 1512 1510 1501 1488 1474 1453 1434 1427 1439 1459 1472 1465 1445 1427 1426 1446 1462 1479 1499 1511 1517 1517 1517 1515 1519 1520 1508 1483 1458 1448 1455 1461 1470 1480 1484 1486 1483 1474 1450 1425 1406 1383 1359 1344 1328 1304 1269 1241 1242 1274 1326 1362 1374 1373 1361 1343 1332 1328 1328 1351 1381 1397 1410 1414 1418 1419 1417 1419 1417 1403 1376 1367 1375 1374 1387 1397 1404 1408 1404 1381 1358 1357 1378 1412 1423 1423 1419 1413 1399 1392 1388 1398 1420 1446 1465 1475 1493 1503 1511 1522 1530 1540 1549 1563 1581 1600 1604 1599 1587 1573 1561 1557 1558 1556 1552 1551 1554 1554 1554 1567 1588 1593 1590 1590 1593 1599 1595 1590 1584 1576 1570 1563 1571 1589 1612 1638 1664 1699 1718 1726 1736 1746 1751 1740 1729 1724 1718 1713 1711 1719 1737 1751 1774 1806 1832 1854 1871 1890 1912 1928 1945 1973 2007 2031 2050 2065 2083 2099 2109 2121 2128 2122 2113 2103 2093 2087 2088 2104
 420 420 420 421 421 422 423 424 423 424 424 424 424 423 423 424 425 426 425 424 424 425 424 423 422 422 424 425 425 425 425 426 429 436 447 460 463 458 459 465 474 483 495 513 527 530 530 532 538 556 575 584 591 597 603 609 618 628 639 648 654 659 662 664 665 667 666 664 666 671 679 688 697 705 717 731 752 777 791 802 810 811 810 813 819 827 838 848 854 861 863 863 864 869 875 876 871 861 848 838 834 840 851 866 878 887 902 918 928 936 947 961 973 976 975 983 1000 1018 1036 1051 1062 1074 1081 1082 1085 1092 1099 1107 1112 1114 1117 1121 1128 1137 1143 1147 1151 1155 1158 1162 1166 1168 1159 1149 1143 1140 1137 1131 1123 1111 1105 1094 1073 1062 1055 1046 1033 1019 1006 994 977 965 955 944 938 933 927 926 924 916 894 885 884 877 873 871 864 858 852 848 845 840 835 830 825 818 815 817 821 824 823 812 805 803 804 806 815 807 798 795 795 796 797 798 798 799 797 795 792 788 780 757 736 728 738 737 720 686 671 668 670 669 667 667 657 650 648 644 638 635 629 617 601 608 628 643 651 651 645 647 660 691 729 745 765 779 788 791 786 776 775 783 785 785 779 782 786 787 789 791 794 803 818 835 851 870 886 896 913 938 962 985 1006 1025 1051 1075 1090 1098 1094 1088 1079 1068 1056 1041 1034 1032 1028 1021 1014 1004 994 985 976 968 963 959 956 945 937 934 934 931 925 918 912 907 904 903 901 901 899 891 885 880 876 872 868 869 868 864 855 850 846 845 845 846 841 838 835 831 829 829 829 828 828 834 835 832 834 836 834 828 825 820 814 810 801 793 791 794 797 805 816 826 830 834 835 834 832 831 830 821 807 801 803 803 800 807 814 824 833 839 842 844 841 844 851 856 863 874 883 888 895 897 896 895 897 904 912 915 919 922 925 927 932 942 952 950 945 945 951 956 962 967 969 973 977 981 986 994 998 1005 1012 1022 1029 1041 1054 1067 1077 1090 1100 1111 1121 1128 1133 1138 1142 1158 1169 1173 1178 1176 1170 1170 1175 1179 1184 1186 1188 1192 1196 1199 1201 1208 1208 1212 1216 1218 1219 1223 1227 1229 1226 1225 1227 1236 1239 1240 1243 1245 1245 1246 1245 1246 1252 1256 1262 1267 1268 1269 1268 1267 1267 1267 1270 1271 1272 1276 1281 1282 1274 1268 1267 1266 1262 1264 1266 1263 1262 1261 1259 1257 1255 1252 1244 1239 1237 1236 1237 1238 1239 1241 1245 1246 1247 1251 1254 1257 1259 1262 1264 1267 1270 1272 1273 1276 1279 1281 1283 1283 1285 1290 1296 1300 1305 1308 1314 1320 1324 1329 1331 1333 1337 1342 1347 1352 1359 1363 1366 1368 1369 1370 1372 1373 1376 1380 1386 1394 1402 1410 1418 1427 1430 1436 1444 1452 1461 1471 1482 1493 1500 1504 1509 1517 1526 1534 1544 1554 1566 1579 1597 1611 1626 1637 1644 1653 1662 1674 1687 1699 1714 1727 1735 1748 1763 1775 1789 1799 1811 1823 1832 1836 1847 1859 1864 1871 1882 1891 1899 1907 1914 1925 1938 1950 1966 1979 1983 1983 1985 1989 1983 1985 1998 2015 2022 2030 2035 2025 2016 2007 2004 2003 2005 2006 2004 2003 2009 2016 2023 2030 2037 2047 2055 2058 2058 2052 2047 2043 2044 2049 2061 2072 2080 2077 2060 2044 2023 1997 1981 1971 1962 1955 1950 1948 1950 1958 1971 1982 1990 1999 2004 2006 2008 2010 2010 2010 2013 2014 2021 2029 2044 2063 2086 2103 2107 2103 2098 2101 2103 2104 2106 2104 2094 2085 2086 2098 2107 2111 2106 2079 2046 2021 1982 1948 1913 1880 1851 1855 1851 1821 1793 1778 1768 1757 1749 1740 1720 1701 1688 1670 1659 1649 1633 1614 1598 1577 1560 1547 1539 1536 1533 1526 1520 1520 1521 1527 1524 1515 1510 1508 1507 1511 1518 1529 1545 1560 1554 1546 1543 1546 1551 1552 1550 1540 1539 1537 1532 1530 1535 1537 1534 1533 1537 1540 1540 1532 1533 1535 1531 1531 1533 1535 1538 1540 1537 1530 1519 1509 1501 1497 1498 1501 1508 1509 1511 1514 1516 1518 1520 1521 1529 1540 1551 1557 1566 1578 1587 1587 1584 1582 1586 1583 1574 1557 1541 1537 1549 1552 1550 1554 1578 1592 1590 1588 1591 1601 1614 1616 1610 1612 1611 1594 1575 1559 1555 1558 1559 1558 1554 1540 1527 1517 1514 1513 1503 1491 1480 1470 1457 1447 1450 1453 1458 1463 1469 1473 1473 1480 1482 1476 1474 1479 1478 1472 1474 1477 1479 1472 1457 1447 1425 1407 1409 1428 1449 1461 1455 1431 1409 1400 1421 1447 1466 1481 1488 1489 1480 1478 1478 1476 1474 1461 1439 1426 1419 1410 1417 1432 1442 1448 1447 1448 1442 1425 1406 1391 1372 1342 1324 1294 1261 1238 1221 1213 1226 1263 1308 1323 1326 1307 1293 1285 1285 1288 1307 1341 1358 1363 1364 1374 1384 1393 1402 1402 1386 1358 1345 1348 1356 1365 1375 1380 1379 1374 1360 1341 1338 1355 1391 1397 1400 1396 1383 1373 1369 1366 1372 1387 1411 1438 1459 1472 1488 1499 1508 1516 1527 1535 1546 1561 1574 1576 1570 1555 1545 1538 1537 1538 1539 1533 1530 1527 1521 1519 1529 1547 1562 1564 1561 1563 1569 1573 1574 1568 1559 1549 1543 1550 1567 1592 1627 1660 1693 1706 1710 1714 1721 1728 1726 1709 1696 1684 1677 1678 1692 1715 1730 1745 1767 1787 1804 1821 1843 1869 1883 1892 1907 1937 1961 1979 1991 2003 2016 2029 2041 2053 2052 2045 2036 2029 2027 2031 2055
 420 420 420 421 421 421 422 423 424 423 423 423 424 424 423 423 424 425 425 424 424 425 424 422 422 422 423 424 424 424 425 426 432 437 441 445 449 455 466 480 493 501 509 518 523 524 525 530 537 554 572 580 589 598 607 618 628 637 645 650 652 653 650 648 647 648 650 652 658 666 675 683 691 703 720 735 754 774 786 796 801 800 797 800 807 820 830 837 843 848 851 854 860 866 871 867 858 845 829 820 825 837 848 858 869 878 893 912 922 931 940 951 962 966 967 972 989 1008 1023 1036 1046 1057 1069 1075 1081 1088 1091 1092 1093 1093 1099 1109 1117 1127 1135 1138 1139 1139 1139 1138 1142 1141 1139 1136 1134 1138 1131 1116 1099 1081 1071 1056 1047 1044 1038 1027 1015 1004 992 984 971 957 943 934 930 925 920 916 910 891 874 871 869 867 866 864 858 854 846 839 835 832 830 826 820 813 809 810 813 817 815 803 798 796 795 797 798 795 792 791 791 790 791 794 796 794 793 792 787 781 771 750 741 732 724 714 696 669 652 650 650 653 653 646 640 639 638 632 625 617 617 612 594 607 625 635 639 633 632 638 667 695 721 744 763 767 768 768 765 758 758 768 770 764 761 764 765 765 767 772 782 799 824 845 860 875 888 900 919 942 958 977 997 1016 1037 1051 1060 1065 1062 1056 1046 1036 1026 1019 1016 1013 1007 1000 992 983 975 970 964 957 951 944 938 933 925 914 908 908 914 911 902 893 889 888 888 887 884 882 881 875 866 862 861 861 858 851 844 841 839 837 836 834 831 829 827 823 820 819 817 816 816 822 824 823 821 821 821 819 817 809 805 804 794 778 775 784 797 802 811 818 821 825 825 824 823 823 820 814 806 801 803 797 793 802 813 819 829 835 839 845 849 850 852 858 864 870 876 880 886 889 890 892 894 901 911 911 909 910 917 925 929 940 946 944 943 942 946 951 957 962 968 973 977 981 986 993 999 1007 1017 1028 1044 1064 1081 1091 1097 1103 1109 1119 1128 1132 1138 1154 1165 1175 1182 1186 1190 1196 1199 1202 1205 1203 1205 1203 1203 1203 1203 1202 1205 1211 1215 1218 1222 1224 1227 1231 1232 1232 1230 1229 1231 1238 1241 1243 1245 1247 1249 1249 1246 1247 1254 1260 1266 1269 1269 1267 1266 1267 1274 1276 1279 1282 1273 1272 1277 1278 1272 1266 1265 1263 1261 1263 1264 1261 1260 1259 1257 1257 1255 1251 1243 1237 1236 1235 1236 1238 1240 1241 1244 1247 1248 1254 1259 1261 1266 1271 1276 1279 1282 1284 1285 1286 1287 1288 1288 1289 1292 1298 1302 1308 1313 1315 1317 1322 1326 1330 1335 1340 1345 1350 1353 1358 1363 1366 1369 1371 1373 1374 1375 1379 1386 1394 1401 1407 1414 1418 1427 1433 1439 1448 1457 1464 1475 1487 1499 1510 1517 1520 1522 1529 1537 1545 1558 1569 1583 1599 1620 1635 1652 1658 1669 1680 1690 1701 1711 1721 1735 1746 1759 1776 1791 1801 1811 1823 1833 1842 1851 1859 1871 1881 1890 1898 1907 1912 1920 1929 1939 1954 1967 1972 1975 1971 1959 1943 1923 1918 1926 1934 1939 1943 1939 1938 1943 1944 1944 1940 1942 1952 1962 1956 1944 1932 1940 1954 1967 1977 1984 1997 2014 2024 2031 2033 2035 2035 2036 2042 2051 2064 2073 2072 2059 2046 2032 2012 1996 1985 1969 1954 1939 1924 1918 1939 1962 1985 1998 2013 2018 2020 2022 2023 2023 2024 2026 2029 2033 2042 2056 2072 2089 2112 2127 2128 2124 2123 2125 2129 2125 2112 2091 2065 2057 2074 2068 2039 2007 1978 1952 1927 1896 1868 1839 1809 1797 1799 1789 1774 1754 1740 1730 1715 1703 1689 1669 1646 1627 1608 1603 1599 1587 1573 1556 1538 1523 1510 1491 1479 1475 1473 1471 1471 1473 1485 1483 1480 1477 1479 1485 1492 1499 1510 1518 1525 1527 1522 1520 1526 1538 1539 1534 1525 1523 1523 1518 1518 1518 1520 1516 1512 1513 1519 1522 1517 1520 1525 1520 1517 1517 1520 1524 1526 1518 1509 1499 1491 1486 1483 1479 1481 1487 1486 1489 1494 1498 1497 1501 1510 1520 1529 1533 1538 1546 1554 1562 1560 1552 1551 1555 1547 1534 1517 1512 1503 1509 1515 1514 1514 1524 1531 1531 1541 1558 1576 1580 1574 1562 1562 1571 1564 1548 1532 1513 1497 1494 1496 1490 1481 1477 1468 1459 1452 1445 1434 1419 1407 1401 1396 1394 1394 1397 1401 1406 1414 1422 1427 1432 1439 1442 1446 1442 1442 1439 1441 1446 1446 1436 1420 1400 1389 1396 1414 1434 1439 1428 1402 1387 1375 1382 1410 1435 1441 1445 1445 1439 1431 1425 1412 1395 1379 1370 1367 1372 1364 1362 1376 1381 1387 1394 1401 1403 1398 1388 1377 1356 1327 1306 1277 1244 1224 1203 1189 1192 1212 1237 1256 1250 1240 1237 1225 1218 1227 1252 1284 1310 1319 1322 1332 1353 1364 1375 1384 1367 1348 1331 1318 1327 1342 1350 1357 1359 1350 1338 1330 1329 1341 1362 1368 1368 1360 1350 1346 1344 1337 1344 1362 1390 1423 1446 1455 1464 1473 1488 1502 1514 1521 1527 1541 1554 1557 1547 1538 1533 1529 1525 1524 1526 1524 1521 1516 1506 1501 1500 1507 1512 1517 1526 1530 1536 1542 1546 1547 1540 1530 1525 1532 1543 1567 1601 1642 1676 1686 1689 1696 1707 1710 1703 1686 1676 1664 1660 1665 1679 1698 1715 1728 1741 1752 1770 1793 1811 1831 1843 1846 1854 1875 1898 1916 1929 1940 1954 1966 1976 1986 1985 1979 1972 1970 1975 1985 2004
 420 420 420 421 421 421 421 422 424 424 424 422 423 424 424 422 423 424 424 424 424 425 424 423 422 422 423 423 424 424 425 426 428 430 432 436 445 463 482 494 502 506 510 515 518 520 523 529 538 552 565 577 591 604 613 623 631 637 643 645 644 641 636 633 633 637 643 648 655 662 671 681 693 707 723 737 754 768 777 786 787 785 786 794 801 815 825 830 835 839 846 853 858 861 860 851 840 825 809 807 818 834 844 851 859 869 885 903 914 925 936 944 952 954 957 966 980 998 1011 1020 1029 1041 1055 1066 1077 1083 1082 1078 1076 1076 1084 1098 1107 1113 1121 1125 1128 1124 1123 1121 1127 1128 1127 1124 1121 1124 1113 1089 1074 1063 1052 1037 1031 1033 1027 1014 1007 998 986 976 965 948 934 924 920 915 908 900 893 879 870 868 864 860 858 859 859 853 841 831 828 827 824 817 813 811 807 806 810 813 806 796 794 793 791 791 792 790 786 785 784 781 780 782 784 788 787 785 778 766 748 740 741 728 706 688 674 657 643 641 640 640 639 638 638 636 632 624 619 610 612 606 586 592 612 621 619 613 618 636 666 690 711 734 750 748 748 748 747 742 742 744 741 742 735 736 744 748 752 761 780 807 837 857 868 876 881 890 907 927 942 958 974 989 1009 1022 1029 1035 1037 1033 1024 1015 1008 1002 998 994 987 981 977 972 964 958 951 944 940 939 932 925 912 902 899 896 898 895 886 883 880 880 881 878 877 879 879 871 863 861 861 860 856 846 838 835 831 829 827 824 821 820 816 812 809 805 803 803 805 807 809 812 814 815 812 809 805 800 798 797 781 768 770 781 796 801 805 810 814 816 818 818 816 815 815 807 798 797 802 795 793 802 812 820 829 837 844 849 851 849 850 858 863 867 872 876 880 882 885 890 893 898 903 901 900 904 914 923 926 937 940 942 941 941 946 957 959 961 966 971 974 983 989 995 1002 1010 1021 1039 1063 1075 1089 1094 1097 1101 1109 1122 1130 1137 1149 1168 1178 1185 1190 1194 1200 1204 1209 1217 1220 1218 1217 1220 1219 1216 1216 1216 1219 1221 1224 1229 1234 1236 1236 1236 1237 1237 1237 1236 1237 1240 1242 1243 1244 1245 1246 1250 1251 1254 1260 1263 1265 1270 1273 1269 1267 1269 1276 1277 1276 1281 1272 1268 1267 1268 1267 1264 1262 1260 1260 1260 1259 1258 1257 1256 1255 1255 1253 1248 1242 1238 1236 1235 1235 1239 1240 1242 1247 1251 1253 1259 1260 1263 1269 1274 1277 1281 1284 1286 1288 1289 1291 1293 1294 1296 1299 1303 1307 1312 1316 1319 1322 1327 1330 1334 1340 1343 1348 1352 1356 1360 1364 1367 1370 1372 1374 1377 1382 1388 1397 1406 1411 1417 1421 1427 1435 1443 1450 1461 1472 1480 1489 1501 1511 1523 1530 1532 1535 1540 1547 1559 1570 1583 1607 1628 1640 1654 1668 1680 1689 1701 1712 1724 1734 1741 1753 1768 1783 1799 1813 1820 1831 1843 1850 1858 1869 1879 1891 1903 1910 1917 1922 1931 1945 1955 1964 1972 1971 1965 1956 1940 1920 1898 1884 1876 1891 1913 1916 1913 1902 1901 1901 1901 1903 1902 1906 1912 1912 1912 1908 1901 1902 1909 1923 1929 1936 1939 1944 1955 1975 1989 1998 1997 1992 1992 1996 2024 2054 2067 2061 2052 2039 2019 2004 1990 1968 1949 1925 1900 1894 1914 1951 1981 2006 2026 2031 2033 2035 2037 2038 2040 2040 2043 2049 2057 2071 2090 2108 2128 2136 2137 2140 2142 2142 2140 2122 2100 2068 2028 2017 2006 1978 1952 1924 1902 1880 1857 1839 1821 1795 1771 1762 1758 1743 1730 1710 1690 1676 1665 1658 1646 1623 1605 1594 1582 1571 1558 1538 1521 1508 1490 1474 1466 1457 1449 1445 1444 1446 1446 1445 1456 1459 1456 1458 1469 1476 1483 1488 1497 1508 1515 1521 1522 1520 1517 1521 1520 1517 1512 1508 1506 1502 1502 1501 1499 1497 1497 1496 1496 1502 1505 1505 1508 1508 1506 1507 1511 1514 1513 1500 1493 1483 1476 1473 1468 1466 1467 1468 1470 1469 1472 1477 1485 1495 1505 1512 1515 1517 1523 1531 1534 1538 1538 1530 1515 1519 1512 1495 1479 1472 1466 1462 1464 1465 1464 1466 1465 1463 1473 1490 1521 1540 1541 1534 1523 1516 1501 1480 1468 1456 1433 1423 1423 1416 1410 1408 1404 1397 1391 1385 1380 1375 1371 1372 1373 1373 1371 1370 1370 1369 1368 1368 1369 1375 1390 1398 1402 1402 1402 1399 1402 1405 1412 1409 1400 1383 1371 1376 1386 1392 1383 1366 1351 1341 1335 1345 1359 1383 1397 1399 1389 1377 1365 1359 1347 1329 1314 1308 1310 1325 1340 1333 1327 1320 1325 1335 1342 1350 1353 1343 1332 1312 1291 1280 1264 1232 1212 1192 1177 1171 1175 1188 1199 1202 1198 1198 1185 1180 1188 1208 1236 1255 1266 1279 1296 1324 1346 1357 1366 1359 1349 1326 1305 1301 1312 1328 1338 1337 1328 1312 1307 1317 1331 1342 1345 1343 1332 1323 1320 1317 1315 1327 1348 1375 1408 1431 1442 1449 1456 1471 1489 1500 1509 1516 1530 1542 1544 1535 1529 1525 1520 1514 1513 1514 1511 1507 1498 1492 1490 1488 1488 1488 1487 1493 1499 1504 1509 1515 1522 1523 1513 1511 1517 1527 1544 1569 1602 1639 1645 1658 1676 1697 1700 1689 1671 1657 1641 1643 1654 1672 1690 1706 1720 1729 1733 1743 1763 1782 1799 1812 1815 1817 1831 1849 1864 1876 1887 1902 1918 1925 1932 1935 1931 1931 1940 1945 1952 1967
 420 421 421 422 422 421 421 422 423 425 425 424 423 424 424 424 423 423 424 424 425 426 424 423 422 422 423 423 424 425 426 425 425 425 426 435 453 474 489 496 502 507 511 515 517 520 525 533 541 550 562 580 600 610 616 622 626 629 631 631 629 624 623 623 626 632 638 644 651 657 670 685 698 712 724 737 751 761 769 774 772 770 777 791 799 810 816 816 825 838 847 850 848 845 840 827 815 802 793 795 806 823 835 843 850 859 875 894 904 916 927 934 941 944 948 958 970 984 998 1004 1013 1028 1045 1055 1062 1066 1065 1060 1058 1061 1069 1082 1090 1095 1102 1108 1110 1111 1108 1106 1110 1110 1107 1104 1102 1099 1093 1081 1069 1060 1054 1040 1029 1020 997 984 981 979 970 969 963 947 932 906 895 895 899 894 889 880 863 856 851 849 850 851 843 834 824 818 813 805 806 802 801 807 804 795 792 797 794 789 789 787 787 784 778 777 775 773 773 774 774 773 773 772 770 763 749 736 730 724 710 697 676 658 648 637 629 631 635 634 632 635 635 632 630 623 614 607 606 589 575 581 594 599 603 611 625 639 654 677 698 717 734 734 735 735 734 730 728 722 713 710 710 716 722 731 741 757 783 811 840 858 865 865 862 863 872 888 903 919 937 950 964 979 991 1003 1008 1007 1002 996 991 984 978 973 969 967 963 954 945 939 933 922 916 917 912 906 898 892 890 886 882 880 876 872 868 864 862 859 859 865 869 868 863 857 846 834 827 821 818 817 815 812 809 807 805 803 801 801 798 797 797 796 798 798 799 802 803 807 807 800 797 796 792 784 772 762 770 780 790 796 801 805 806 807 810 810 810 805 800 792 789 790 799 792 791 802 824 833 839 844 847 847 847 848 852 860 864 868 872 876 878 881 885 891 895 899 899 896 898 904 909 913 915 924 935 937 936 939 950 965 968 964 963 969 976 985 991 999 1008 1021 1035 1060 1070 1079 1089 1095 1103 1114 1127 1141 1153 1162 1171 1178 1183 1189 1197 1201 1205 1210 1216 1224 1226 1226 1227 1228 1227 1227 1229 1232 1234 1236 1244 1253 1254 1254 1252 1248 1249 1248 1247 1246 1245 1247 1249 1249 1247 1247 1249 1252 1254 1258 1260 1261 1262 1268 1276 1272 1268 1269 1273 1273 1273 1278 1270 1266 1263 1262 1261 1260 1258 1258 1258 1258 1258 1257 1255 1252 1251 1251 1249 1245 1240 1236 1234 1233 1235 1239 1242 1246 1251 1258 1261 1261 1263 1267 1273 1278 1280 1284 1287 1288 1291 1293 1296 1297 1299 1303 1305 1308 1314 1319 1321 1325 1331 1334 1336 1339 1343 1345 1349 1357 1361 1364 1367 1368 1371 1375 1380 1387 1394 1402 1411 1419 1424 1430 1436 1441 1448 1457 1467 1482 1493 1501 1512 1524 1534 1541 1545 1548 1552 1557 1564 1575 1590 1615 1638 1649 1662 1676 1690 1700 1712 1724 1734 1746 1759 1773 1786 1798 1809 1821 1832 1842 1853 1863 1870 1883 1892 1899 1911 1922 1930 1940 1952 1962 1971 1972 1969 1959 1941 1918 1892 1874 1858 1852 1854 1860 1864 1870 1877 1877 1877 1875 1869 1870 1863 1860 1854 1853 1854 1856 1860 1863 1860 1859 1877 1891 1890 1888 1889 1895 1912 1932 1940 1925 1921 1933 1948 1973 2019 2054 2055 2043 2024 2005 1985 1958 1932 1922 1897 1878 1867 1877 1920 1957 1996 2022 2031 2036 2039 2041 2043 2045 2047 2052 2058 2069 2085 2104 2118 2127 2122 2121 2131 2134 2129 2110 2078 2050 2012 1975 1947 1913 1887 1875 1859 1839 1822 1817 1815 1793 1760 1739 1732 1712 1688 1676 1658 1634 1619 1615 1612 1591 1566 1553 1541 1524 1504 1490 1475 1465 1460 1456 1455 1454 1449 1440 1430 1429 1430 1428 1430 1434 1443 1447 1452 1459 1464 1468 1474 1486 1497 1504 1513 1514 1509 1504 1501 1500 1500 1496 1494 1488 1487 1487 1484 1484 1482 1483 1485 1480 1481 1488 1493 1497 1497 1494 1494 1497 1498 1493 1482 1474 1465 1460 1456 1454 1456 1458 1457 1457 1454 1452 1459 1471 1485 1493 1497 1495 1495 1498 1503 1504 1505 1508 1503 1482 1469 1464 1446 1424 1413 1407 1405 1403 1402 1403 1403 1399 1394 1399 1409 1432 1456 1462 1451 1434 1422 1403 1397 1402 1397 1379 1374 1375 1373 1372 1368 1366 1366 1362 1358 1354 1351 1348 1352 1357 1357 1352 1348 1346 1344 1342 1339 1337 1336 1336 1336 1335 1336 1339 1341 1341 1343 1344 1343 1343 1337 1334 1337 1337 1329 1320 1310 1301 1295 1303 1311 1326 1334 1341 1340 1332 1322 1316 1317 1311 1300 1287 1275 1277 1287 1300 1300 1290 1280 1276 1270 1270 1273 1273 1265 1259 1256 1257 1254 1240 1216 1200 1183 1168 1154 1146 1151 1157 1163 1162 1158 1152 1164 1174 1179 1179 1183 1199 1218 1246 1287 1315 1331 1341 1342 1333 1311 1290 1276 1269 1290 1308 1314 1299 1281 1284 1305 1317 1321 1318 1313 1305 1297 1289 1286 1293 1307 1327 1348 1372 1395 1416 1429 1441 1459 1475 1490 1500 1509 1521 1525 1526 1522 1518 1513 1509 1505 1499 1495 1492 1485 1482 1481 1479 1482 1481 1478 1473 1472 1469 1468 1470 1474 1484 1493 1491 1492 1494 1505 1522 1538 1561 1590 1615 1639 1667 1689 1694 1677 1648 1623 1610 1614 1630 1660 1681 1696 1711 1717 1715 1714 1720 1732 1748 1764 1773 1778 1786 1795 1804 1815 1826 1840 1856 1868 1876 1880 1881 1890 1908 1918 1923 1928
 421 423 422 422 422 422 421 421 422 423 425 426 425 424 424 425 425 425 424 424 425 425 424 423 423 423 423 424 425 426 425 425 425 425 427 440 458 475 488 496 500 506 511 514 517 522 528 534 541 551 565 583 600 607 611 614 615 614 614 612 611 612 616 619 623 628 632 636 645 655 670 686 698 709 721 733 745 754 761 766 764 764 771 784 794 795 798 807 821 836 842 839 830 823 814 803 794 786 785 786 795 812 827 838 845 853 869 887 897 909 921 928 935 940 944 951 960 969 983 995 1004 1021 1034 1037 1037 1040 1043 1044 1048 1054 1062 1069 1074 1079 1086 1093 1097 1095 1093 1093 1092 1090 1088 1086 1086 1088 1085 1080 1069 1060 1056 1045 1028 1012 989 973 969 964 955 947 947 945 935 904 884 883 890 888 883 877 864 850 839 837 833 832 828 819 813 807 797 791 798 798 787 784 784 775 774 772 769 771 777 782 783 777 768 766 766 765 767 768 769 771 767 757 743 737 727 715 709 702 688 673 649 630 621 618 620 628 638 635 629 625 626 628 625 616 608 604 600 574 566 575 588 598 611 621 626 635 649 668 691 703 713 717 722 721 716 711 706 697 683 685 691 694 704 719 736 755 776 799 824 841 848 849 847 846 849 857 867 877 890 906 918 930 943 961 977 981 980 977 974 967 961 957 955 951 943 933 926 921 913 906 903 900 894 889 884 885 884 881 877 876 872 866 861 855 849 847 845 847 849 846 840 830 822 816 813 812 810 810 809 805 802 799 796 795 793 788 790 794 798 796 795 794 793 795 796 797 796 791 789 788 779 771 762 760 764 775 785 791 797 800 801 800 800 798 792 788 787 785 783 782 786 788 793 817 835 838 839 843 843 845 847 850 852 859 866 872 878 880 881 885 888 892 895 897 896 896 904 913 912 912 913 921 929 933 935 941 952 963 966 967 970 979 988 995 1004 1017 1036 1050 1062 1071 1079 1088 1103 1117 1129 1139 1145 1153 1161 1167 1175 1181 1187 1196 1205 1212 1219 1226 1233 1237 1239 1238 1237 1239 1241 1244 1247 1255 1259 1263 1267 1269 1267 1264 1259 1256 1256 1254 1249 1251 1253 1253 1255 1256 1256 1256 1256 1256 1257 1259 1258 1257 1258 1259 1262 1265 1265 1266 1267 1266 1268 1270 1268 1265 1261 1260 1260 1259 1257 1257 1258 1259 1258 1255 1252 1251 1252 1255 1252 1245 1236 1232 1232 1233 1236 1240 1247 1251 1255 1262 1265 1265 1268 1271 1277 1280 1281 1284 1286 1287 1290 1294 1297 1300 1306 1306 1308 1313 1319 1324 1328 1331 1336 1339 1341 1343 1348 1352 1358 1361 1363 1366 1369 1372 1378 1385 1391 1399 1409 1418 1429 1436 1441 1450 1451 1455 1463 1474 1486 1497 1507 1522 1536 1548 1553 1557 1561 1564 1570 1574 1582 1597 1625 1642 1654 1668 1682 1698 1711 1713 1723 1738 1752 1764 1780 1795 1806 1817 1827 1840 1853 1862 1874 1884 1893 1902 1910 1918 1928 1940 1949 1961 1968 1970 1965 1952 1937 1908 1873 1847 1822 1813 1816 1827 1842 1849 1843 1838 1843 1841 1832 1828 1830 1818 1801 1797 1809 1816 1819 1808 1800 1805 1813 1807 1811 1832 1841 1849 1862 1867 1864 1873 1878 1876 1881 1901 1933 1963 1993 2027 2026 2005 1978 1946 1916 1889 1874 1865 1855 1848 1839 1846 1875 1902 1924 1955 1976 1995 2009 2015 2020 2022 2022 2024 2030 2041 2054 2066 2077 2086 2086 2083 2083 2079 2061 2031 2013 1994 1956 1911 1875 1841 1824 1818 1802 1783 1775 1776 1773 1749 1714 1689 1679 1653 1625 1613 1604 1575 1553 1542 1534 1521 1507 1503 1492 1473 1459 1449 1444 1444 1446 1446 1437 1431 1435 1429 1420 1417 1415 1416 1418 1420 1425 1435 1444 1451 1455 1460 1468 1479 1489 1493 1499 1498 1495 1491 1488 1488 1485 1483 1478 1475 1475 1474 1469 1465 1463 1464 1469 1468 1467 1467 1471 1476 1478 1478 1481 1482 1480 1471 1462 1458 1456 1450 1446 1443 1443 1446 1446 1447 1446 1444 1443 1450 1465 1474 1472 1468 1471 1475 1478 1480 1476 1478 1465 1443 1425 1406 1393 1384 1380 1377 1376 1377 1376 1375 1374 1372 1368 1366 1369 1384 1401 1405 1394 1366 1347 1347 1355 1355 1355 1353 1355 1356 1351 1346 1345 1344 1339 1340 1340 1336 1333 1332 1336 1339 1338 1336 1334 1330 1328 1327 1325 1321 1315 1311 1308 1303 1302 1308 1318 1318 1318 1318 1313 1305 1296 1282 1276 1281 1285 1279 1273 1270 1266 1270 1284 1301 1316 1317 1312 1302 1292 1286 1288 1291 1284 1268 1247 1238 1248 1271 1272 1263 1255 1240 1223 1220 1228 1234 1227 1220 1214 1214 1214 1205 1198 1187 1171 1151 1132 1119 1102 1098 1108 1109 1107 1113 1132 1143 1145 1138 1139 1160 1187 1201 1233 1262 1283 1293 1294 1290 1275 1258 1244 1234 1257 1275 1279 1267 1263 1269 1291 1299 1298 1293 1287 1281 1273 1259 1256 1267 1288 1311 1323 1337 1357 1380 1405 1431 1447 1462 1482 1497 1502 1510 1513 1511 1509 1506 1504 1499 1492 1486 1483 1476 1471 1471 1472 1469 1471 1470 1465 1461 1457 1454 1452 1450 1449 1451 1457 1462 1471 1479 1494 1511 1524 1544 1568 1596 1619 1650 1675 1675 1655 1620 1594 1581 1582 1608 1641 1666 1682 1695 1696 1689 1685 1685 1689 1700 1713 1725 1737 1746 1751 1758 1770 1779 1788 1799 1812 1824 1831 1833 1843 1867 1886 1897 1896
 421 422 421 421 422 422 421 421 421 422 424 426 427 426 424 424 425 425 425 424 424 423 423 423 424 424 424 424 426 425 424 424 424 425 429 445 462 478 491 499 502 506 510 513 516 522 527 533 540 553 567 581 593 599 601 602 601 599 599 600 601 605 610 613 617 621 626 632 643 653 669 682 690 698 711 724 735 741 746 754 758 761 767 774 779 781 789 804 818 826 826 819 808 799 791 783 778 776 778 781 791 805 821 833 840 850 866 881 890 901 916 925 933 940 944 949 955 961 972 988 996 1009 1018 1018 1016 1018 1026 1036 1042 1050 1058 1061 1064 1070 1073 1077 1083 1086 1086 1082 1078 1080 1082 1082 1082 1082 1081 1079 1070 1061 1057 1048 1032 1016 993 973 965 955 944 936 930 929 922 897 881 877 877 866 864 859 852 837 827 824 823 821 812 803 805 803 794 790 794 792 780 768 763 759 761 763 764 766 768 773 771 765 756 754 754 756 758 761 762 762 755 741 720 708 702 703 698 687 663 646 629 617 613 612 613 624 635 630 623 618 617 616 614 609 602 600 598 571 562 570 586 602 614 621 625 634 650 667 690 701 702 702 706 706 702 701 697 685 671 668 671 678 692 709 728 748 765 781 795 806 815 827 833 834 833 831 834 840 847 863 880 893 905 922 939 950 954 954 953 951 949 949 946 940 933 923 914 907 902 897 892 886 878 872 869 872 875 874 870 868 866 858 850 842 839 837 835 829 823 818 816 814 812 808 805 803 802 801 798 795 793 788 786 788 786 780 780 787 794 794 790 787 788 789 788 788 789 787 783 778 768 760 759 762 763 768 779 787 794 796 795 791 786 784 785 783 780 781 786 790 796 799 811 833 839 838 835 837 838 845 850 852 854 858 864 871 878 882 885 888 890 892 894 895 894 897 907 915 914 913 919 926 931 934 938 944 952 961 967 973 982 995 1006 1017 1032 1046 1057 1064 1073 1083 1093 1105 1119 1129 1138 1145 1147 1155 1163 1171 1182 1193 1202 1210 1220 1227 1236 1242 1247 1251 1253 1253 1253 1253 1254 1255 1258 1264 1268 1272 1272 1271 1269 1267 1263 1259 1256 1254 1252 1251 1253 1253 1254 1255 1256 1258 1259 1258 1258 1257 1256 1255 1256 1257 1257 1258 1261 1262 1263 1264 1265 1267 1267 1263 1260 1259 1259 1258 1258 1258 1258 1257 1255 1252 1251 1251 1254 1261 1256 1245 1234 1231 1231 1233 1235 1239 1247 1254 1261 1264 1266 1268 1272 1274 1279 1281 1281 1283 1285 1287 1290 1295 1298 1303 1309 1311 1315 1320 1324 1329 1334 1336 1339 1343 1346 1350 1355 1357 1359 1361 1364 1368 1373 1378 1387 1398 1406 1413 1422 1431 1443 1450 1456 1464 1466 1470 1475 1485 1496 1507 1522 1539 1553 1563 1567 1568 1573 1578 1583 1587 1595 1620 1644 1660 1674 1689 1701 1716 1732 1738 1740 1748 1759 1772 1791 1808 1821 1836 1846 1860 1870 1881 1893 1903 1910 1918 1926 1931 1938 1946 1953 1958 1955 1945 1930 1911 1890 1859 1826 1796 1766 1761 1783 1802 1814 1818 1804 1797 1797 1787 1777 1779 1777 1755 1748 1750 1765 1776 1770 1757 1753 1758 1772 1772 1771 1781 1798 1810 1821 1824 1834 1834 1836 1835 1851 1869 1897 1932 1959 1977 1966 1951 1932 1902 1879 1858 1841 1830 1823 1821 1821 1827 1839 1853 1862 1876 1899 1929 1950 1959 1967 1963 1955 1952 1960 1969 1973 1982 2002 2009 2008 2006 2011 2011 1994 1974 1964 1944 1906 1882 1860 1824 1793 1766 1737 1714 1704 1701 1699 1688 1671 1647 1628 1600 1581 1570 1553 1526 1513 1500 1491 1482 1469 1461 1452 1444 1439 1434 1434 1435 1432 1422 1411 1412 1414 1411 1409 1408 1408 1409 1410 1412 1415 1420 1428 1437 1445 1453 1461 1475 1483 1485 1487 1488 1486 1483 1478 1476 1471 1469 1468 1467 1463 1460 1458 1454 1450 1450 1456 1457 1458 1455 1455 1456 1453 1455 1465 1465 1458 1454 1447 1448 1445 1437 1433 1434 1436 1438 1439 1439 1436 1431 1431 1431 1435 1443 1446 1450 1453 1456 1453 1450 1448 1435 1417 1405 1388 1374 1367 1364 1363 1360 1362 1366 1363 1360 1361 1357 1356 1350 1350 1353 1362 1371 1359 1329 1317 1320 1333 1336 1338 1337 1337 1339 1337 1334 1330 1330 1328 1328 1328 1326 1326 1322 1322 1326 1328 1328 1325 1317 1314 1309 1309 1307 1303 1296 1290 1285 1284 1285 1298 1304 1303 1302 1294 1282 1269 1258 1250 1244 1247 1244 1241 1236 1231 1236 1253 1272 1281 1278 1269 1263 1261 1256 1248 1247 1245 1241 1228 1216 1211 1227 1230 1224 1217 1193 1182 1174 1169 1176 1187 1186 1174 1168 1172 1173 1170 1164 1156 1135 1116 1098 1075 1069 1076 1077 1076 1081 1092 1101 1106 1111 1109 1122 1160 1178 1201 1218 1227 1226 1227 1234 1234 1218 1202 1196 1218 1243 1242 1233 1241 1251 1267 1270 1271 1269 1264 1254 1249 1229 1234 1254 1278 1306 1323 1336 1356 1385 1407 1427 1443 1461 1482 1492 1496 1501 1501 1500 1499 1497 1491 1483 1479 1477 1474 1469 1466 1463 1460 1458 1457 1456 1453 1449 1445 1445 1443 1439 1435 1433 1431 1437 1456 1472 1489 1505 1521 1536 1558 1579 1599 1621 1648 1645 1617 1589 1573 1554 1548 1574 1619 1648 1666 1677 1671 1664 1659 1658 1663 1675 1687 1697 1707 1714 1719 1727 1739 1749 1757 1767 1779 1792 1801 1804 1812 1834 1855 1866 1856
 421 419 419 420 422 423 422 421 420 421 422 424 426 427 426 425 425 425 425 426 426 424 423 424 424 424 423 423 424 425 423 422 423 426 436 457 474 486 497 503 507 508 511 513 518 523 530 537 545 556 569 577 584 587 588 588 587 587 590 594 597 600 603 606 608 613 621 633 644 655 666 672 673 679 693 709 721 722 723 735 750 754 754 757 764 774 786 798 807 806 801 792 782 774 768 763 762 765 771 779 790 800 810 821 832 846 860 872 881 894 908 918 928 938 944 948 951 953 960 975 985 991 995 995 997 999 1003 1018 1030 1037 1043 1049 1053 1055 1054 1056 1062 1069 1070 1063 1062 1069 1077 1077 1072 1071 1075 1076 1070 1062 1056 1046 1031 1017 997 976 961 949 939 931 919 909 900 885 872 868 856 842 837 833 828 822 819 816 814 806 796 790 789 786 783 790 791 779 765 756 747 736 748 760 761 757 755 756 758 755 749 747 747 747 747 746 744 740 729 716 698 686 680 676 669 657 641 627 617 611 605 601 600 603 605 605 603 600 602 603 605 600 595 590 586 569 559 560 569 586 603 616 625 638 658 674 689 690 679 680 690 694 692 690 679 663 655 657 662 670 682 698 714 730 741 750 759 766 773 788 803 809 807 802 800 803 808 817 835 849 861 875 887 893 900 908 914 920 924 929 934 933 928 918 908 903 896 889 883 875 867 861 856 853 854 853 850 847 844 837 830 828 827 826 822 816 813 811 807 805 803 800 797 795 795 794 790 786 783 782 781 780 777 773 770 774 777 781 782 779 778 778 780 780 779 776 772 762 752 752 758 763 764 764 774 781 784 784 781 777 779 779 775 774 779 784 794 803 812 818 827 834 835 832 833 834 836 843 848 850 855 858 861 869 878 884 887 888 889 891 891 890 891 896 905 911 915 918 923 931 937 942 949 960 974 987 996 1001 1009 1016 1024 1039 1047 1056 1068 1075 1085 1096 1105 1115 1123 1130 1139 1149 1157 1166 1179 1193 1210 1222 1229 1237 1243 1248 1256 1261 1264 1264 1266 1268 1269 1269 1268 1270 1273 1273 1275 1278 1277 1274 1273 1274 1267 1261 1258 1257 1257 1257 1259 1259 1258 1258 1260 1261 1260 1258 1255 1255 1253 1250 1252 1254 1253 1253 1256 1258 1258 1258 1261 1264 1264 1262 1259 1258 1257 1256 1255 1257 1256 1252 1251 1252 1253 1252 1254 1260 1258 1246 1231 1228 1228 1230 1234 1239 1247 1252 1259 1263 1265 1268 1271 1275 1280 1282 1284 1287 1289 1292 1296 1297 1299 1306 1311 1316 1321 1326 1329 1332 1337 1340 1341 1345 1348 1353 1355 1356 1359 1365 1369 1377 1388 1395 1404 1412 1420 1427 1437 1447 1456 1464 1471 1478 1484 1491 1496 1504 1513 1525 1544 1557 1570 1579 1581 1584 1589 1593 1599 1602 1611 1632 1657 1678 1699 1713 1723 1741 1755 1769 1776 1777 1781 1789 1806 1826 1842 1857 1870 1882 1892 1902 1911 1915 1914 1911 1913 1917 1919 1921 1924 1916 1904 1883 1864 1852 1826 1790 1758 1735 1721 1722 1732 1750 1762 1754 1733 1724 1725 1718 1708 1702 1694 1685 1687 1702 1714 1717 1723 1725 1723 1724 1733 1741 1736 1725 1739 1756 1769 1780 1788 1791 1800 1819 1838 1852 1853 1855 1869 1884 1882 1881 1885 1877 1861 1832 1811 1797 1789 1788 1798 1806 1817 1818 1806 1803 1819 1848 1876 1895 1897 1882 1863 1860 1871 1878 1885 1896 1914 1928 1917 1914 1933 1950 1946 1938 1920 1888 1863 1851 1833 1785 1741 1707 1668 1641 1632 1622 1620 1617 1601 1582 1566 1547 1534 1521 1507 1496 1484 1472 1464 1455 1446 1442 1437 1432 1424 1422 1424 1415 1403 1399 1400 1404 1404 1401 1399 1397 1395 1394 1393 1399 1406 1412 1418 1425 1438 1448 1457 1467 1474 1477 1479 1480 1478 1474 1470 1465 1461 1458 1457 1456 1451 1448 1447 1445 1443 1440 1442 1445 1444 1444 1441 1441 1441 1437 1437 1434 1431 1432 1433 1433 1428 1425 1424 1425 1430 1433 1433 1430 1427 1426 1424 1420 1417 1414 1410 1412 1417 1419 1414 1409 1401 1385 1376 1367 1355 1349 1350 1351 1349 1348 1349 1351 1347 1343 1344 1345 1344 1342 1342 1335 1327 1325 1318 1306 1300 1304 1315 1321 1324 1327 1328 1328 1327 1326 1321 1319 1317 1317 1315 1315 1316 1312 1310 1312 1312 1315 1313 1306 1300 1295 1293 1290 1291 1286 1280 1272 1265 1265 1273 1284 1286 1280 1270 1261 1255 1249 1242 1237 1231 1229 1225 1215 1208 1215 1217 1220 1223 1223 1218 1214 1212 1209 1208 1201 1191 1188 1194 1191 1172 1156 1151 1154 1146 1127 1117 1116 1108 1104 1116 1115 1102 1093 1092 1096 1098 1101 1103 1092 1075 1056 1045 1049 1057 1055 1052 1050 1051 1057 1069 1079 1079 1088 1113 1131 1158 1177 1181 1184 1188 1193 1200 1192 1178 1171 1171 1185 1197 1200 1211 1224 1233 1239 1244 1242 1236 1231 1221 1198 1208 1234 1259 1293 1321 1340 1364 1394 1413 1426 1442 1457 1480 1488 1491 1492 1493 1489 1486 1480 1477 1474 1469 1467 1466 1464 1461 1455 1450 1445 1438 1439 1438 1435 1432 1430 1429 1426 1423 1417 1418 1428 1449 1471 1483 1500 1516 1530 1547 1559 1569 1582 1593 1582 1567 1563 1547 1523 1520 1538 1578 1611 1630 1640 1639 1637 1633 1633 1641 1655 1667 1674 1680 1684 1690 1702 1712 1720 1727 1733 1739 1747 1756 1766 1779 1796 1814 1823 1811
 422 421 420 422 424 426 424 421 420 421 422 422 423 426 428 427 426 425 425 426 427 426 425 424 424 424 424 424 424 425 423 422 423 428 445 467 480 489 496 503 510 513 512 508 513 523 533 542 546 554 564 571 575 577 578 579 580 582 587 590 592 593 595 597 603 611 623 637 648 657 662 660 659 664 675 688 701 709 716 726 739 742 742 745 757 774 783 788 787 782 774 765 758 753 750 749 751 758 768 780 790 797 803 814 828 841 854 864 875 890 902 911 918 925 935 942 941 943 948 957 966 970 972 972 975 981 987 996 1007 1012 1017 1023 1027 1029 1029 1031 1034 1040 1043 1043 1047 1054 1061 1059 1055 1056 1062 1064 1059 1053 1045 1034 1020 1007 992 972 956 943 931 919 909 901 895 889 871 853 838 828 825 822 817 815 812 807 804 797 791 783 774 771 770 773 774 766 754 749 742 738 752 759 754 747 745 745 747 748 748 748 746 739 728 721 715 709 703 695 680 673 668 661 654 642 630 620 612 604 598 595 596 596 594 593 592 590 591 593 595 590 585 580 576 569 556 552 554 567 587 608 626 642 659 668 671 665 661 663 671 678 681 677 661 647 641 641 649 662 674 688 699 707 711 716 725 738 747 758 770 776 774 770 774 777 773 775 786 800 814 829 836 837 842 856 869 881 888 896 910 916 913 905 899 893 886 880 876 868 860 853 846 839 834 831 829 827 825 822 818 819 820 818 813 809 806 802 800 798 795 789 787 788 785 782 779 778 777 778 778 774 769 764 763 764 764 769 774 774 770 769 769 770 768 763 756 748 744 747 755 759 759 759 765 766 766 766 769 773 771 770 773 777 781 787 797 806 819 820 822 825 826 828 830 832 834 839 844 849 856 863 866 875 878 880 883 885 885 886 887 889 892 897 906 911 919 924 930 940 953 967 981 993 1002 1009 1015 1020 1026 1029 1038 1049 1056 1066 1074 1082 1093 1107 1117 1125 1132 1144 1159 1173 1184 1199 1217 1229 1240 1252 1260 1264 1268 1271 1274 1278 1280 1280 1281 1283 1285 1283 1280 1282 1285 1286 1284 1284 1283 1280 1280 1286 1280 1267 1263 1265 1264 1263 1263 1262 1261 1262 1262 1260 1257 1253 1249 1249 1249 1247 1248 1249 1248 1247 1248 1249 1250 1251 1255 1262 1263 1261 1258 1256 1255 1253 1251 1250 1249 1250 1250 1257 1262 1260 1257 1259 1255 1244 1231 1227 1227 1230 1235 1243 1251 1253 1258 1264 1265 1267 1271 1275 1280 1284 1287 1291 1295 1299 1301 1302 1304 1310 1315 1319 1323 1328 1331 1333 1336 1339 1341 1344 1346 1349 1353 1357 1365 1373 1380 1392 1403 1410 1417 1428 1432 1445 1457 1463 1471 1481 1488 1496 1505 1512 1520 1527 1538 1556 1569 1582 1593 1597 1599 1604 1608 1611 1615 1622 1632 1653 1675 1700 1721 1740 1754 1770 1782 1791 1803 1812 1816 1822 1836 1857 1873 1883 1895 1905 1915 1918 1916 1908 1893 1872 1852 1848 1854 1860 1865 1852 1826 1796 1769 1755 1738 1719 1703 1687 1673 1674 1680 1694 1699 1694 1682 1670 1666 1658 1644 1637 1634 1631 1633 1647 1658 1661 1664 1678 1695 1705 1704 1696 1685 1682 1693 1713 1734 1754 1776 1791 1807 1821 1825 1824 1818 1815 1831 1849 1836 1842 1858 1861 1847 1818 1795 1776 1760 1759 1764 1771 1778 1766 1743 1746 1769 1795 1819 1845 1863 1846 1827 1821 1824 1827 1833 1839 1843 1843 1841 1851 1875 1891 1896 1889 1878 1857 1825 1803 1778 1735 1694 1666 1627 1608 1599 1589 1579 1569 1557 1543 1531 1518 1506 1497 1488 1479 1470 1461 1454 1443 1434 1432 1432 1422 1409 1405 1403 1396 1391 1390 1386 1386 1390 1389 1391 1389 1385 1382 1380 1388 1395 1402 1410 1419 1431 1443 1449 1457 1463 1464 1464 1463 1463 1461 1459 1457 1453 1451 1449 1443 1439 1437 1439 1437 1435 1434 1434 1434 1435 1433 1432 1431 1429 1427 1424 1421 1420 1418 1417 1420 1420 1415 1409 1409 1415 1420 1425 1424 1422 1418 1416 1413 1409 1402 1396 1393 1393 1393 1394 1390 1380 1372 1367 1356 1340 1335 1338 1342 1340 1334 1330 1331 1333 1334 1335 1337 1338 1337 1336 1332 1323 1320 1314 1306 1301 1301 1305 1308 1310 1315 1321 1320 1317 1314 1311 1309 1306 1307 1307 1308 1307 1303 1301 1302 1299 1299 1298 1294 1291 1287 1285 1279 1274 1275 1270 1259 1254 1250 1252 1257 1255 1254 1251 1248 1242 1241 1240 1235 1226 1216 1206 1196 1187 1190 1189 1191 1199 1201 1196 1188 1183 1172 1164 1156 1153 1154 1150 1144 1135 1121 1103 1096 1092 1084 1077 1074 1073 1064 1059 1053 1046 1045 1044 1043 1036 1030 1028 1025 1020 1017 1022 1025 1025 1028 1032 1035 1037 1037 1045 1059 1056 1063 1077 1083 1097 1122 1143 1150 1152 1154 1154 1149 1148 1149 1139 1136 1151 1169 1181 1193 1199 1205 1211 1209 1208 1205 1182 1169 1181 1205 1228 1265 1288 1310 1332 1369 1398 1420 1440 1455 1477 1484 1486 1486 1483 1479 1473 1467 1465 1462 1460 1460 1457 1451 1448 1440 1432 1427 1424 1420 1422 1421 1418 1416 1413 1410 1405 1398 1407 1421 1440 1462 1475 1489 1507 1520 1532 1534 1531 1536 1536 1524 1522 1524 1513 1502 1504 1514 1532 1552 1569 1586 1602 1606 1604 1610 1625 1641 1649 1651 1653 1655 1661 1676 1688 1693 1697 1699 1699 1702 1710 1723 1740 1756 1771 1784 1784
 423 423 423 423 424 425 424 423 422 422 422 422 421 423 426 428 427 425 424 424 425 425 426 426 425 424 424 424 425 424 423 422 424 429 447 468 479 487 493 499 509 511 506 501 508 521 533 541 545 549 557 563 568 571 573 574 575 578 582 585 585 587 590 593 600 612 625 639 648 655 656 652 653 658 664 672 684 701 714 722 725 729 733 740 753 766 771 770 766 755 746 739 735 735 738 739 742 754 769 779 789 797 803 813 825 836 848 859 871 885 893 899 904 909 917 926 929 931 938 944 948 952 953 954 958 966 975 982 989 992 995 999 1003 1005 1006 1008 1013 1020 1027 1033 1037 1041 1044 1042 1039 1039 1039 1038 1038 1036 1029 1018 1008 995 977 960 947 937 927 918 908 901 896 892 879 853 835 821 813 810 810 810 804 798 794 788 779 770 767 763 763 768 775 770 755 747 746 752 757 754 746 740 738 735 736 741 745 746 742 728 714 705 699 695 691 681 668 661 655 648 642 633 624 614 604 598 594 590 592 592 588 586 584 586 588 590 588 583 578 573 566 560 552 546 546 562 585 602 621 638 651 658 654 653 655 660 664 668 672 667 651 633 625 625 635 649 665 677 687 692 691 692 700 716 728 739 747 750 747 748 756 759 751 747 749 759 772 790 798 800 802 813 824 838 851 860 873 882 883 881 879 877 873 871 869 861 853 846 836 828 823 819 815 814 812 808 805 803 802 801 801 801 797 795 791 787 780 774 775 776 775 774 773 773 773 773 769 765 761 762 763 761 756 757 762 766 764 761 758 760 761 753 746 740 737 743 750 750 749 752 758 760 759 758 759 760 766 774 778 780 785 793 803 816 825 820 816 818 823 825 827 829 832 836 842 848 858 865 870 875 876 877 879 881 883 889 893 893 893 901 909 918 927 934 944 961 977 987 996 1003 1010 1018 1025 1031 1034 1037 1046 1055 1063 1072 1081 1092 1105 1118 1128 1137 1149 1163 1174 1192 1207 1223 1238 1248 1259 1270 1277 1279 1281 1283 1287 1289 1289 1287 1289 1291 1291 1288 1286 1287 1287 1287 1286 1284 1282 1280 1278 1284 1291 1285 1278 1276 1272 1270 1268 1265 1263 1261 1256 1251 1248 1244 1240 1239 1238 1236 1234 1238 1242 1244 1241 1239 1239 1241 1243 1248 1250 1248 1248 1247 1249 1251 1250 1248 1247 1246 1247 1251 1257 1257 1256 1253 1245 1235 1229 1227 1228 1233 1242 1249 1254 1258 1263 1266 1266 1268 1272 1276 1280 1285 1290 1295 1300 1302 1303 1307 1309 1311 1317 1320 1323 1329 1332 1332 1335 1337 1339 1343 1346 1351 1358 1364 1372 1381 1388 1398 1409 1418 1430 1440 1448 1461 1470 1477 1488 1497 1506 1515 1522 1529 1539 1550 1563 1579 1592 1602 1611 1617 1622 1633 1642 1642 1643 1653 1668 1688 1705 1722 1737 1757 1774 1790 1802 1810 1819 1834 1848 1861 1875 1887 1900 1909 1913 1921 1925 1917 1901 1881 1863 1841 1812 1801 1796 1789 1788 1777 1761 1740 1711 1687 1677 1679 1677 1665 1639 1623 1623 1627 1628 1627 1626 1624 1624 1613 1598 1592 1590 1582 1585 1598 1608 1616 1626 1635 1651 1671 1677 1672 1657 1656 1665 1686 1712 1736 1775 1801 1811 1810 1799 1790 1793 1794 1801 1815 1812 1828 1852 1852 1839 1817 1785 1757 1735 1727 1726 1725 1734 1727 1710 1711 1732 1766 1802 1819 1832 1825 1815 1803 1795 1799 1809 1813 1814 1807 1808 1829 1841 1842 1851 1852 1842 1825 1800 1773 1745 1713 1675 1644 1610 1592 1582 1573 1563 1552 1541 1529 1519 1505 1494 1484 1473 1464 1457 1450 1444 1432 1418 1417 1420 1409 1399 1395 1392 1384 1381 1382 1377 1374 1374 1376 1377 1377 1377 1374 1374 1382 1390 1396 1406 1418 1426 1437 1445 1452 1453 1452 1454 1455 1455 1453 1451 1449 1445 1447 1444 1439 1433 1431 1431 1431 1430 1429 1430 1431 1429 1428 1427 1424 1422 1422 1418 1415 1411 1409 1406 1405 1406 1401 1398 1395 1398 1407 1414 1414 1412 1410 1408 1405 1400 1394 1389 1386 1385 1382 1383 1376 1372 1365 1353 1342 1336 1331 1328 1325 1323 1323 1324 1326 1328 1331 1332 1332 1332 1333 1332 1329 1324 1321 1318 1311 1306 1304 1305 1307 1309 1312 1313 1313 1312 1308 1306 1302 1300 1301 1303 1300 1297 1294 1292 1292 1291 1290 1288 1288 1287 1286 1281 1268 1264 1259 1252 1242 1244 1244 1239 1233 1225 1218 1222 1225 1226 1228 1228 1223 1216 1206 1198 1187 1175 1177 1176 1171 1172 1170 1172 1169 1162 1149 1138 1127 1124 1121 1117 1117 1110 1099 1085 1071 1068 1068 1054 1044 1042 1035 1030 1031 1031 1030 1027 1023 1018 1014 1009 1004 998 997 999 1001 998 1002 1005 1012 1027 1030 1032 1039 1040 1041 1040 1037 1048 1067 1086 1100 1100 1097 1102 1104 1110 1117 1112 1106 1121 1141 1156 1165 1165 1164 1165 1163 1162 1154 1149 1153 1172 1197 1221 1256 1276 1289 1311 1344 1382 1410 1441 1459 1476 1479 1480 1481 1477 1470 1465 1458 1453 1450 1449 1448 1443 1439 1433 1426 1420 1415 1409 1404 1404 1408 1408 1404 1398 1396 1392 1387 1399 1412 1426 1448 1468 1487 1503 1511 1513 1508 1499 1494 1488 1479 1479 1486 1489 1488 1493 1497 1504 1510 1520 1542 1563 1569 1570 1583 1604 1623 1629 1630 1632 1637 1645 1661 1672 1674 1675 1674 1672 1673 1684 1695 1709 1726 1739 1753 1760
 423 424 424 423 422 422 423 425 425 424 423 422 422 422 423 426 428 427 424 421 422 424 426 426 427 426 425 425 425 424 423 423 424 428 444 464 473 481 488 492 499 502 500 502 510 520 530 538 542 544 549 556 563 566 567 567 569 572 575 577 577 580 584 589 596 610 624 637 645 651 653 651 651 654 657 662 671 688 701 706 710 715 724 734 742 747 747 743 733 721 716 717 718 721 727 729 733 748 765 773 785 797 802 811 822 833 844 854 864 873 876 879 888 896 901 908 914 919 927 933 936 939 941 941 945 953 959 965 970 973 976 979 981 982 984 989 1000 1011 1018 1024 1029 1032 1032 1025 1020 1017 1013 1011 1013 1014 1009 999 990 975 958 944 936 930 925 920 908 896 891 887 879 862 838 819 807 800 799 799 789 782 775 767 760 758 757 756 755 757 759 753 742 740 743 749 749 742 734 727 724 720 721 725 730 732 729 719 708 699 692 685 678 667 659 649 642 634 629 624 617 606 598 592 589 585 584 584 583 579 574 575 579 581 579 576 571 564 557 552 549 544 541 557 585 601 624 637 639 636 632 637 649 658 659 661 661 651 637 617 608 610 621 634 650 663 671 673 672 675 681 693 706 717 724 725 722 728 738 739 729 725 721 719 725 737 749 758 765 768 774 787 802 810 820 830 836 842 847 851 855 854 850 845 840 833 822 816 814 809 804 800 795 791 790 790 788 787 788 787 784 780 773 764 757 754 756 759 763 766 766 763 760 759 757 755 753 755 757 751 743 743 745 749 751 751 752 751 750 743 735 730 729 738 747 745 744 746 742 739 741 745 756 763 774 778 780 784 789 792 806 818 820 819 818 819 822 823 824 828 832 838 844 847 854 863 867 867 870 876 882 882 885 890 895 896 901 914 930 941 951 959 970 980 987 996 1005 1012 1019 1028 1033 1038 1042 1046 1052 1061 1068 1077 1088 1099 1110 1124 1134 1145 1158 1168 1182 1196 1211 1228 1243 1254 1268 1280 1287 1293 1295 1295 1295 1293 1292 1292 1294 1293 1292 1289 1287 1286 1285 1283 1280 1279 1279 1279 1275 1274 1281 1288 1283 1279 1276 1274 1271 1267 1258 1251 1248 1245 1242 1239 1232 1225 1222 1221 1223 1228 1232 1238 1236 1231 1231 1237 1240 1237 1238 1240 1240 1239 1242 1244 1243 1245 1244 1242 1243 1244 1246 1248 1246 1239 1232 1227 1226 1226 1231 1239 1246 1249 1251 1257 1263 1266 1267 1271 1275 1276 1278 1285 1290 1297 1300 1302 1302 1305 1309 1312 1315 1318 1321 1325 1327 1330 1335 1340 1345 1350 1355 1362 1369 1373 1381 1388 1395 1409 1419 1432 1452 1466 1476 1484 1491 1499 1509 1520 1527 1536 1548 1558 1574 1581 1595 1611 1622 1629 1637 1642 1649 1659 1668 1674 1683 1694 1706 1722 1739 1748 1764 1778 1792 1811 1833 1846 1856 1868 1877 1888 1899 1910 1918 1916 1913 1914 1910 1896 1871 1847 1830 1797 1766 1749 1725 1708 1699 1693 1686 1672 1653 1644 1636 1628 1627 1616 1599 1588 1579 1572 1566 1559 1557 1554 1550 1548 1544 1543 1541 1539 1541 1551 1562 1567 1575 1583 1591 1611 1627 1618 1616 1627 1636 1654 1677 1703 1755 1787 1792 1786 1775 1760 1751 1752 1753 1766 1798 1824 1845 1841 1830 1808 1773 1746 1726 1701 1684 1677 1682 1681 1677 1684 1705 1733 1766 1787 1801 1804 1792 1774 1762 1765 1780 1789 1790 1778 1774 1781 1796 1808 1815 1815 1816 1803 1770 1731 1705 1686 1658 1628 1594 1574 1564 1556 1546 1538 1528 1516 1507 1495 1483 1472 1460 1452 1444 1437 1430 1418 1406 1400 1397 1395 1392 1390 1379 1371 1369 1370 1369 1366 1363 1364 1365 1368 1367 1368 1371 1375 1383 1390 1403 1414 1426 1434 1442 1446 1446 1446 1445 1444 1443 1440 1438 1436 1434 1435 1435 1434 1429 1425 1424 1425 1425 1424 1425 1425 1423 1421 1419 1418 1417 1416 1414 1412 1407 1402 1398 1396 1396 1393 1388 1383 1385 1392 1401 1404 1404 1404 1402 1398 1391 1387 1385 1381 1378 1375 1372 1367 1359 1348 1336 1329 1326 1320 1313 1309 1311 1316 1321 1321 1324 1325 1325 1322 1321 1331 1337 1332 1325 1322 1318 1315 1312 1309 1307 1307 1308 1309 1308 1308 1306 1303 1302 1298 1295 1294 1293 1289 1289 1287 1285 1286 1286 1285 1280 1280 1281 1282 1268 1256 1252 1242 1235 1228 1225 1226 1220 1210 1204 1198 1194 1192 1192 1194 1193 1191 1196 1199 1189 1175 1168 1162 1156 1155 1151 1145 1143 1142 1141 1138 1127 1111 1102 1097 1098 1098 1087 1077 1065 1048 1042 1046 1040 1037 1032 1020 1011 1009 1015 1008 999 999 1000 997 988 981 982 985 983 978 973 975 979 984 999 1003 1011 1014 1016 1011 1006 1012 1015 1018 1020 1023 1033 1041 1044 1046 1053 1064 1073 1072 1082 1106 1126 1137 1132 1125 1124 1121 1111 1114 1130 1157 1196 1215 1236 1262 1285 1304 1328 1358 1387 1410 1437 1458 1472 1474 1471 1468 1465 1459 1450 1447 1442 1437 1432 1431 1425 1419 1416 1411 1402 1391 1383 1384 1385 1385 1388 1385 1384 1379 1373 1374 1386 1399 1413 1437 1459 1483 1494 1485 1474 1463 1448 1440 1434 1427 1433 1449 1455 1452 1458 1468 1475 1476 1481 1497 1516 1523 1529 1547 1571 1589 1597 1604 1614 1623 1631 1644 1651 1651 1655 1658 1656 1655 1662 1670 1679 1690 1699 1707 1712
 423 424 424 423 422 421 422 424 425 424 424 423 422 421 421 423 427 429 427 422 421 425 427 426 426 427 428 426 425 424 424 423 423 426 440 457 465 469 474 479 487 494 499 504 509 514 525 533 536 538 542 548 556 559 558 557 561 567 570 571 572 573 579 585 595 608 621 633 641 648 652 652 652 652 652 655 661 670 678 683 690 697 706 716 724 725 720 710 701 698 701 706 710 714 719 724 727 740 756 766 778 791 799 807 817 827 836 843 849 853 857 866 881 889 893 898 903 908 915 923 927 930 931 932 934 939 944 949 952 955 956 957 958 963 972 981 990 1000 1007 1013 1018 1021 1016 1010 1008 1006 1002 997 992 989 987 984 978 968 953 941 931 922 916 910 898 891 886 878 867 855 832 810 799 792 783 779 776 771 765 758 752 751 753 753 751 747 743 738 728 723 722 727 730 727 718 711 708 705 705 708 710 710 709 704 696 689 684 678 668 657 648 639 628 625 622 619 613 606 598 591 586 580 575 574 572 570 569 568 568 569 567 565 563 557 552 549 550 545 540 561 591 607 627 630 623 616 619 627 638 644 650 651 644 632 618 597 584 587 601 621 635 644 653 656 659 663 668 673 682 692 698 699 699 703 711 709 704 702 698 691 688 688 696 707 718 727 733 741 751 760 768 779 790 803 810 816 821 822 820 820 821 817 810 807 806 804 796 789 781 778 777 775 772 772 772 768 765 762 755 749 744 746 750 752 754 757 755 750 747 747 746 744 738 731 733 732 733 733 737 737 738 739 743 743 740 732 723 720 721 732 742 742 741 730 714 722 742 751 762 769 774 778 780 786 788 796 819 830 828 829 825 823 822 822 824 828 835 841 844 846 848 856 862 869 874 877 880 882 886 896 908 915 927 941 947 954 958 965 976 989 997 1004 1014 1020 1028 1036 1039 1046 1050 1054 1058 1064 1073 1082 1094 1105 1118 1129 1135 1138 1145 1155 1166 1175 1183 1201 1219 1230 1246 1260 1267 1279 1289 1293 1295 1295 1293 1291 1290 1290 1290 1290 1287 1283 1281 1279 1277 1275 1278 1278 1275 1275 1277 1281 1282 1279 1277 1275 1269 1260 1251 1243 1241 1239 1235 1228 1222 1218 1216 1214 1215 1219 1223 1226 1223 1220 1221 1224 1229 1229 1230 1231 1230 1232 1234 1236 1238 1239 1238 1239 1240 1241 1242 1243 1239 1232 1227 1225 1226 1229 1235 1241 1246 1249 1253 1257 1262 1266 1270 1273 1276 1278 1278 1283 1286 1292 1299 1302 1303 1306 1308 1314 1318 1320 1321 1325 1330 1337 1344 1347 1352 1359 1364 1372 1378 1384 1391 1397 1405 1421 1433 1449 1469 1483 1488 1498 1510 1519 1531 1541 1549 1560 1574 1590 1608 1614 1627 1640 1650 1660 1665 1668 1673 1684 1694 1704 1715 1727 1738 1754 1767 1778 1788 1803 1818 1836 1856 1866 1875 1885 1893 1897 1898 1902 1903 1892 1881 1868 1859 1857 1839 1815 1791 1760 1739 1712 1685 1672 1661 1653 1643 1629 1616 1608 1599 1587 1582 1577 1571 1556 1541 1530 1522 1517 1512 1510 1509 1508 1507 1508 1502 1498 1503 1511 1514 1523 1536 1546 1555 1567 1576 1576 1584 1597 1608 1626 1649 1671 1705 1739 1747 1741 1734 1721 1714 1715 1721 1729 1765 1805 1833 1833 1814 1773 1735 1725 1710 1678 1654 1649 1644 1640 1637 1650 1669 1696 1714 1739 1762 1770 1761 1748 1744 1746 1754 1756 1754 1748 1745 1752 1771 1789 1799 1793 1777 1766 1738 1705 1680 1663 1642 1615 1582 1563 1552 1541 1531 1524 1514 1503 1495 1485 1472 1462 1452 1443 1435 1427 1418 1409 1399 1394 1391 1387 1383 1377 1368 1364 1360 1353 1351 1349 1345 1345 1348 1345 1345 1356 1366 1368 1374 1384 1400 1410 1426 1434 1439 1443 1444 1442 1438 1436 1436 1434 1432 1429 1428 1426 1426 1425 1417 1411 1410 1411 1412 1415 1417 1419 1419 1419 1417 1413 1411 1412 1410 1408 1403 1397 1393 1389 1388 1383 1376 1371 1375 1383 1390 1394 1394 1395 1393 1389 1384 1381 1379 1377 1375 1373 1367 1356 1350 1340 1325 1313 1307 1304 1301 1299 1303 1308 1313 1316 1319 1317 1314 1313 1316 1329 1343 1339 1325 1317 1314 1317 1317 1312 1310 1308 1307 1305 1304 1303 1302 1300 1296 1293 1291 1289 1287 1286 1286 1280 1277 1278 1280 1276 1270 1269 1267 1266 1252 1245 1235 1225 1219 1210 1203 1205 1206 1199 1188 1181 1178 1174 1173 1174 1176 1176 1176 1175 1173 1165 1155 1148 1141 1139 1140 1134 1128 1122 1121 1120 1108 1095 1085 1081 1076 1070 1060 1053 1046 1039 1036 1035 1027 1020 1011 1000 992 988 990 990 985 980 978 974 970 971 971 968 966 964 960 959 965 967 970 978 984 991 989 986 985 987 990 991 991 988 984 990 1001 1009 1016 1024 1033 1040 1045 1054 1068 1079 1076 1077 1079 1080 1089 1107 1136 1181 1212 1230 1262 1293 1320 1343 1361 1373 1392 1416 1434 1451 1468 1468 1463 1456 1447 1442 1439 1433 1425 1415 1410 1406 1398 1395 1395 1392 1390 1379 1365 1358 1363 1364 1369 1369 1366 1361 1358 1364 1379 1389 1403 1418 1442 1468 1472 1452 1435 1423 1413 1407 1404 1399 1398 1399 1402 1405 1419 1430 1437 1440 1446 1459 1474 1481 1490 1509 1532 1549 1559 1571 1587 1599 1607 1612 1613 1616 1630 1642 1645 1645 1642 1643 1646 1650 1655 1663 1667
 422 422 423 422 422 422 422 422 423 423 423 423 423 422 422 422 425 428 428 426 424 426 427 425 426 426 428 428 426 424 424 424 423 425 433 446 453 454 456 463 477 490 496 501 504 510 521 530 533 535 537 541 548 552 552 550 554 561 567 570 571 573 578 584 596 611 621 630 638 644 648 650 651 651 651 653 657 661 665 670 675 680 683 691 700 704 697 689 687 691 694 699 705 710 713 719 726 738 751 761 771 783 792 801 811 819 824 829 831 834 843 859 878 884 886 889 896 901 907 914 918 917 917 917 920 926 932 937 941 943 942 939 940 948 964 975 982 987 992 996 1000 1005 1003 1000 999 996 991 985 980 977 978 976 971 962 950 934 919 907 901 896 887 879 873 862 849 835 817 798 788 778 771 772 773 768 762 754 748 747 750 751 747 738 728 721 715 712 711 717 722 716 705 698 695 692 690 688 685 684 685 681 675 672 670 662 651 642 634 627 623 621 617 615 613 609 598 587 583 578 572 572 573 570 566 562 562 562 559 556 554 549 544 541 545 538 540 567 597 611 620 616 606 595 597 606 615 620 625 629 625 616 601 583 575 572 583 606 619 621 632 643 647 651 654 660 667 674 677 676 678 682 682 675 669 670 664 654 652 655 659 665 674 685 692 699 708 717 726 738 752 770 779 781 789 794 795 798 804 805 802 798 796 794 787 779 772 768 764 760 757 754 756 752 751 748 741 739 737 739 744 749 749 749 745 743 741 737 733 729 721 716 716 718 723 724 728 729 730 732 731 731 730 719 715 714 715 722 725 727 721 709 709 720 739 749 760 766 770 774 777 783 791 820 851 851 845 842 831 822 821 822 823 827 834 840 842 845 851 861 866 870 873 876 886 897 904 917 928 935 943 950 956 961 964 973 987 998 1004 1012 1020 1025 1032 1037 1040 1048 1052 1055 1056 1063 1074 1081 1087 1097 1110 1116 1109 1095 1096 1105 1118 1128 1132 1147 1169 1192 1209 1211 1207 1217 1242 1264 1280 1289 1290 1287 1287 1287 1288 1288 1284 1282 1282 1280 1278 1275 1275 1275 1274 1276 1278 1280 1280 1277 1271 1268 1260 1253 1243 1235 1230 1225 1220 1217 1215 1214 1213 1213 1213 1214 1219 1223 1219 1216 1216 1217 1219 1222 1224 1225 1225 1226 1227 1230 1233 1233 1234 1235 1236 1239 1241 1239 1234 1231 1229 1228 1228 1232 1238 1244 1247 1251 1255 1260 1264 1267 1269 1271 1274 1276 1277 1281 1285 1289 1294 1300 1305 1308 1311 1317 1321 1322 1324 1327 1332 1340 1346 1350 1359 1364 1369 1377 1385 1395 1402 1408 1418 1441 1455 1468 1485 1494 1500 1516 1526 1536 1550 1561 1572 1587 1604 1616 1627 1641 1654 1664 1675 1682 1688 1696 1703 1710 1721 1732 1747 1757 1768 1784 1793 1800 1812 1826 1838 1851 1854 1854 1854 1871 1881 1871 1852 1844 1844 1844 1845 1831 1816 1797 1773 1757 1740 1722 1694 1673 1659 1650 1631 1616 1613 1605 1594 1582 1573 1565 1557 1553 1544 1528 1517 1505 1494 1488 1482 1480 1482 1478 1475 1471 1467 1460 1461 1471 1479 1487 1504 1519 1527 1534 1542 1549 1559 1575 1588 1606 1626 1644 1666 1690 1705 1705 1691 1689 1691 1694 1695 1698 1720 1757 1802 1811 1782 1729 1696 1685 1671 1652 1636 1621 1614 1608 1609 1622 1635 1653 1671 1695 1730 1740 1736 1726 1719 1717 1725 1731 1729 1721 1722 1733 1748 1768 1780 1771 1759 1745 1710 1683 1662 1642 1619 1598 1575 1556 1544 1531 1521 1513 1503 1493 1486 1476 1463 1453 1443 1432 1425 1419 1410 1406 1399 1393 1392 1386 1374 1366 1362 1358 1351 1337 1333 1338 1335 1330 1324 1322 1331 1346 1360 1363 1369 1380 1392 1401 1419 1431 1436 1442 1443 1441 1438 1436 1433 1430 1427 1423 1419 1412 1409 1405 1400 1397 1396 1394 1396 1404 1409 1412 1415 1415 1414 1409 1407 1407 1406 1403 1399 1395 1389 1387 1385 1379 1370 1363 1367 1375 1382 1384 1384 1384 1383 1383 1380 1378 1375 1371 1368 1365 1359 1351 1345 1333 1318 1305 1298 1297 1295 1292 1294 1300 1305 1309 1315 1314 1312 1313 1316 1320 1326 1327 1319 1314 1313 1315 1315 1314 1312 1310 1309 1307 1305 1303 1302 1301 1300 1296 1292 1291 1289 1287 1286 1281 1275 1270 1268 1264 1261 1260 1260 1255 1241 1232 1221 1210 1203 1196 1190 1188 1188 1180 1174 1169 1166 1163 1161 1159 1157 1158 1156 1155 1157 1148 1139 1136 1126 1113 1110 1107 1108 1111 1101 1094 1087 1078 1069 1062 1055 1047 1041 1034 1029 1029 1030 1022 1002 992 988 985 979 972 969 975 976 971 966 964 960 960 960 958 957 957 953 950 955 959 956 961 964 968 969 967 960 957 963 967 970 971 969 971 974 979 986 996 1007 1023 1029 1025 1025 1030 1029 1036 1053 1068 1088 1126 1162 1190 1204 1217 1254 1295 1325 1357 1389 1397 1407 1427 1439 1448 1459 1457 1448 1430 1407 1409 1418 1416 1410 1402 1393 1389 1382 1372 1369 1370 1368 1362 1351 1340 1345 1354 1356 1353 1351 1347 1349 1360 1375 1383 1395 1405 1419 1440 1437 1420 1413 1405 1400 1399 1393 1393 1390 1385 1378 1379 1388 1399 1407 1411 1416 1427 1440 1450 1462 1478 1498 1516 1525 1535 1551 1566 1574 1577 1576 1583 1601 1618 1627 1628 1624 1620 1616 1616 1621 1632 1641
 421 421 421 422 422 422 422 422 422 422 423 423 423 423 423 423 424 426 428 429 427 426 425 424 425 426 425 426 427 426 424 424 424 425 427 434 439 440 443 452 471 487 496 501 505 512 521 526 528 530 531 535 539 544 546 548 551 555 560 567 571 574 579 584 596 609 617 623 628 634 639 644 646 647 646 648 652 653 654 658 661 662 664 666 672 676 675 677 680 683 687 694 701 704 707 714 726 740 749 757 766 775 782 789 797 806 812 813 815 822 836 854 871 878 879 880 884 889 894 898 898 897 900 902 905 913 921 927 930 928 923 921 925 936 953 966 974 976 977 979 983 988 991 988 986 986 984 981 976 973 969 961 951 939 925 910 899 888 879 871 861 852 845 836 824 813 800 788 777 767 765 768 769 763 755 746 741 741 741 736 726 714 703 698 693 690 690 699 708 700 688 680 678 675 667 658 652 651 652 652 650 648 642 633 626 622 618 616 614 611 610 610 609 605 593 583 578 571 562 561 564 562 564 558 552 553 551 548 546 543 535 533 531 525 537 564 591 598 593 577 557 549 548 555 576 597 610 610 607 603 585 566 564 561 568 585 599 603 608 618 628 632 634 638 645 653 656 655 655 656 651 638 627 619 610 605 605 613 624 631 637 641 644 648 655 664 674 688 703 722 737 745 756 767 771 773 777 782 786 787 784 778 771 764 758 753 749 745 741 738 737 733 730 726 725 721 722 723 727 734 739 738 733 729 726 721 721 716 708 710 709 708 709 710 713 716 717 721 722 720 712 705 705 706 707 697 694 700 703 711 724 734 744 752 758 763 767 771 774 779 794 838 857 850 842 841 833 820 817 819 822 825 830 837 841 846 851 859 861 865 876 890 903 913 917 922 933 941 951 959 965 971 981 989 996 1002 1007 1012 1020 1025 1027 1029 1033 1038 1040 1038 1038 1045 1057 1065 1068 1068 1075 1074 1060 1044 1032 1042 1059 1075 1077 1079 1092 1117 1144 1155 1156 1154 1162 1189 1226 1260 1277 1280 1280 1280 1281 1282 1282 1284 1286 1281 1278 1276 1272 1270 1271 1273 1275 1275 1274 1270 1258 1252 1244 1238 1230 1223 1217 1212 1209 1208 1209 1209 1209 1206 1207 1211 1218 1225 1221 1215 1213 1214 1216 1218 1220 1221 1220 1221 1222 1224 1227 1228 1228 1227 1230 1234 1232 1230 1229 1229 1231 1230 1230 1233 1238 1241 1244 1249 1254 1257 1262 1266 1265 1266 1270 1274 1276 1279 1284 1289 1294 1298 1303 1307 1313 1318 1320 1324 1328 1331 1336 1342 1348 1356 1363 1369 1375 1384 1398 1412 1417 1423 1439 1460 1469 1482 1498 1510 1525 1538 1547 1558 1569 1584 1597 1612 1627 1636 1647 1661 1672 1685 1695 1701 1708 1716 1726 1742 1754 1763 1775 1785 1794 1806 1816 1824 1835 1846 1853 1852 1836 1815 1798 1807 1823 1822 1799 1779 1765 1763 1760 1751 1738 1720 1698 1683 1673 1664 1652 1640 1617 1600 1590 1585 1581 1576 1573 1560 1547 1539 1531 1521 1514 1505 1495 1483 1472 1464 1452 1446 1445 1434 1421 1418 1418 1422 1425 1434 1447 1458 1478 1491 1497 1505 1518 1532 1542 1557 1570 1584 1603 1621 1635 1644 1651 1654 1654 1656 1659 1665 1668 1671 1683 1704 1738 1755 1728 1688 1655 1641 1634 1629 1618 1597 1577 1576 1580 1593 1601 1612 1633 1661 1693 1703 1701 1696 1687 1682 1687 1701 1702 1692 1695 1707 1719 1731 1740 1746 1751 1736 1699 1666 1647 1626 1604 1581 1564 1547 1537 1522 1511 1503 1493 1482 1475 1465 1455 1446 1435 1424 1418 1410 1400 1395 1390 1389 1385 1376 1362 1354 1355 1349 1337 1321 1320 1321 1313 1308 1302 1307 1323 1336 1351 1360 1368 1379 1388 1394 1410 1423 1434 1443 1447 1442 1437 1433 1430 1427 1423 1418 1407 1399 1398 1399 1401 1399 1394 1389 1385 1384 1389 1395 1405 1411 1410 1406 1404 1403 1402 1399 1397 1391 1384 1379 1376 1369 1361 1357 1362 1368 1372 1374 1374 1373 1374 1374 1373 1372 1369 1364 1358 1356 1352 1346 1336 1323 1311 1298 1292 1292 1290 1287 1288 1293 1299 1300 1303 1308 1305 1304 1309 1312 1315 1315 1314 1312 1312 1313 1314 1315 1315 1312 1311 1310 1308 1305 1305 1304 1300 1296 1294 1290 1289 1289 1286 1281 1272 1266 1260 1256 1251 1249 1251 1244 1228 1219 1212 1205 1195 1186 1181 1179 1176 1170 1166 1162 1161 1158 1152 1148 1147 1147 1148 1148 1145 1140 1134 1129 1118 1102 1094 1094 1096 1096 1088 1078 1069 1063 1059 1052 1044 1035 1033 1026 1021 1017 1008 996 985 981 983 981 973 966 964 967 965 957 959 959 950 948 947 949 948 946 946 944 943 940 936 939 951 954 954 948 931 925 924 924 932 941 938 941 947 950 953 960 978 993 996 988 981 987 1000 1015 1038 1063 1093 1136 1167 1177 1166 1174 1216 1275 1313 1348 1390 1409 1419 1429 1434 1432 1438 1436 1427 1407 1377 1358 1355 1368 1379 1382 1378 1373 1363 1353 1348 1347 1346 1344 1337 1328 1323 1331 1334 1329 1324 1327 1338 1350 1364 1377 1386 1394 1404 1416 1416 1403 1397 1391 1389 1387 1382 1379 1377 1370 1363 1362 1363 1370 1381 1388 1389 1393 1405 1419 1435 1449 1463 1480 1487 1493 1506 1522 1532 1537 1541 1550 1566 1581 1591 1598 1596 1588 1582 1584 1592 1605 1614
 421 420 421 422 422 422 422 422 422 422 422 423 423 424 424 425 424 424 425 428 429 427 424 424 425 424 424 424 425 426 427 426 424 425 425 428 432 435 438 449 470 489 500 506 512 516 521 523 523 525 526 528 533 538 544 548 549 550 554 559 563 568 576 583 592 599 603 606 611 619 626 630 634 635 635 638 640 640 639 642 645 649 653 654 652 653 659 665 670 675 683 691 696 698 703 713 724 735 745 752 762 770 772 775 782 790 794 798 807 822 837 848 857 865 870 871 871 874 875 876 875 877 885 895 900 906 912 915 909 903 901 908 918 930 942 950 958 966 971 975 979 980 978 976 977 978 979 976 969 960 948 933 919 907 897 891 886 873 859 849 839 832 825 818 812 804 790 778 769 761 761 763 757 747 740 733 730 726 720 707 697 691 687 686 686 685 680 675 679 673 662 657 658 659 651 640 631 628 628 627 624 621 614 607 605 606 606 604 601 599 599 599 597 591 585 577 571 561 553 546 545 551 554 547 542 541 542 536 534 530 525 526 521 514 525 551 567 569 565 554 541 537 538 542 557 579 593 597 589 583 560 544 540 545 557 568 577 586 592 597 603 605 609 613 620 631 636 637 638 634 629 617 602 588 572 567 568 576 594 610 617 617 614 610 610 615 624 637 650 669 691 705 718 734 744 748 750 755 763 768 766 758 751 746 742 737 735 733 730 729 725 719 716 712 710 709 708 711 714 714 715 716 714 708 709 710 713 709 699 697 699 699 701 702 705 708 710 712 712 704 695 690 690 691 684 683 693 697 704 723 738 746 751 752 757 760 761 764 768 771 775 802 837 835 833 829 822 816 812 814 816 818 823 831 835 839 844 849 855 869 888 892 898 910 915 920 934 946 955 964 969 974 977 985 994 996 1002 1006 1010 1014 1015 1016 1013 1004 993 987 991 1003 1013 1021 1023 1025 1030 1035 1031 1011 996 1012 1032 1044 1047 1049 1052 1067 1087 1096 1104 1111 1118 1132 1175 1217 1247 1258 1260 1268 1275 1277 1279 1283 1281 1276 1269 1268 1268 1268 1267 1268 1269 1269 1266 1257 1244 1237 1229 1221 1215 1210 1206 1203 1203 1203 1203 1202 1198 1191 1188 1198 1203 1206 1207 1207 1208 1209 1211 1213 1215 1216 1216 1217 1217 1216 1218 1219 1221 1221 1222 1224 1227 1228 1228 1228 1229 1230 1231 1233 1237 1239 1241 1245 1249 1251 1255 1261 1263 1264 1267 1271 1277 1282 1286 1290 1295 1297 1300 1304 1310 1316 1321 1328 1333 1336 1341 1348 1358 1363 1373 1381 1387 1396 1412 1423 1429 1442 1461 1476 1486 1495 1512 1528 1538 1550 1565 1575 1587 1599 1612 1624 1634 1639 1648 1660 1669 1677 1688 1696 1702 1711 1724 1744 1758 1760 1762 1769 1775 1783 1795 1804 1816 1827 1827 1818 1805 1790 1769 1759 1764 1762 1748 1735 1722 1720 1716 1706 1690 1671 1657 1640 1635 1624 1614 1599 1582 1570 1562 1562 1561 1553 1537 1527 1519 1510 1503 1495 1486 1476 1473 1465 1448 1433 1415 1402 1397 1390 1386 1389 1396 1397 1401 1410 1422 1430 1449 1465 1472 1487 1510 1525 1535 1546 1557 1572 1588 1601 1610 1615 1618 1618 1620 1626 1634 1636 1639 1646 1663 1677 1695 1711 1701 1670 1636 1618 1604 1598 1593 1569 1541 1537 1540 1552 1569 1583 1597 1619 1658 1667 1667 1667 1659 1654 1660 1669 1670 1661 1661 1672 1688 1696 1708 1722 1733 1726 1703 1669 1645 1626 1601 1578 1555 1541 1533 1519 1506 1497 1487 1474 1465 1456 1448 1440 1429 1419 1412 1401 1393 1390 1386 1379 1369 1359 1350 1344 1344 1341 1329 1310 1303 1298 1288 1284 1290 1302 1319 1333 1347 1355 1369 1379 1387 1394 1410 1424 1433 1439 1445 1442 1431 1426 1422 1417 1415 1407 1395 1392 1390 1390 1392 1396 1393 1387 1384 1378 1373 1378 1391 1404 1406 1404 1401 1400 1397 1394 1391 1387 1381 1370 1355 1346 1343 1352 1361 1364 1364 1364 1365 1364 1366 1367 1366 1364 1362 1355 1350 1346 1342 1334 1326 1318 1307 1291 1286 1287 1286 1285 1287 1288 1293 1295 1295 1297 1295 1295 1298 1303 1307 1309 1309 1309 1310 1309 1309 1310 1311 1309 1306 1305 1302 1301 1299 1296 1290 1289 1288 1283 1284 1288 1286 1275 1266 1258 1254 1250 1239 1232 1227 1223 1216 1208 1203 1199 1188 1178 1173 1168 1163 1159 1157 1154 1151 1147 1146 1144 1143 1143 1140 1137 1132 1128 1124 1126 1122 1109 1093 1093 1092 1085 1079 1071 1064 1060 1057 1051 1035 1022 1021 1021 1017 1012 1000 988 980 980 982 978 976 970 965 963 958 951 954 956 952 949 939 933 936 937 938 936 935 931 925 922 925 933 939 937 925 916 913 908 904 907 916 923 935 934 932 935 951 965 968 962 953 956 974 992 1021 1058 1086 1117 1143 1145 1123 1143 1183 1250 1295 1332 1365 1390 1405 1415 1421 1422 1420 1423 1420 1403 1367 1343 1324 1316 1327 1350 1361 1358 1347 1336 1333 1329 1327 1324 1318 1310 1303 1300 1298 1300 1306 1320 1331 1346 1356 1368 1380 1386 1389 1396 1400 1392 1385 1383 1381 1375 1366 1361 1357 1350 1347 1345 1345 1349 1359 1366 1369 1370 1374 1383 1401 1420 1434 1448 1455 1460 1471 1483 1493 1500 1508 1517 1529 1542 1553 1562 1562 1557 1552 1557 1566 1578 1584
 422 421 421 422 422 422 422 422 422 422 422 423 423 424 424 424 424 424 424 426 429 428 425 424 424 424 423 423 423 425 427 428 427 425 424 425 428 431 435 444 468 491 502 508 512 514 516 519 521 523 524 526 531 536 542 546 547 548 553 557 560 564 571 578 585 590 592 595 599 606 613 615 617 622 624 626 626 625 626 630 634 638 643 644 641 641 648 655 662 670 680 688 692 695 702 711 717 723 732 742 753 762 765 765 767 772 776 786 803 820 832 840 846 851 855 857 858 858 859 861 864 868 878 889 896 900 901 896 888 887 895 909 919 928 933 936 943 956 967 972 975 975 973 970 969 969 969 963 951 936 921 906 893 886 881 875 868 858 846 837 827 821 816 810 802 792 780 771 764 761 760 757 745 733 726 722 714 706 697 685 682 683 683 682 682 685 679 668 654 646 638 636 641 647 642 632 622 618 617 615 611 606 601 596 594 595 595 593 592 591 589 586 585 583 580 575 565 555 546 538 535 539 539 539 537 536 533 529 527 522 516 518 517 514 525 536 548 554 554 544 535 536 542 551 558 570 575 575 570 564 552 540 532 530 534 545 554 558 570 583 588 592 595 594 601 612 609 609 610 611 613 602 578 556 545 544 546 553 573 596 609 607 602 597 591 587 588 596 608 625 648 664 676 692 709 724 728 731 739 746 747 742 737 734 730 725 724 722 720 718 715 708 704 702 700 700 699 698 696 696 698 699 697 695 700 707 711 709 694 686 689 692 697 697 696 697 698 699 699 695 688 678 676 674 681 693 704 709 715 730 742 746 750 751 754 757 758 759 762 765 768 782 819 826 822 816 813 810 806 809 812 815 818 827 833 837 845 853 859 869 885 893 898 909 915 922 937 945 952 961 967 967 968 975 983 983 981 981 982 981 981 979 975 964 956 957 965 976 988 997 999 1002 1010 1012 1003 975 958 963 984 1004 1011 1018 1022 1026 1042 1049 1068 1090 1098 1111 1162 1198 1218 1226 1237 1252 1266 1273 1275 1275 1271 1261 1251 1254 1262 1265 1265 1266 1266 1261 1251 1241 1234 1227 1218 1212 1208 1202 1198 1197 1196 1195 1198 1198 1192 1187 1183 1187 1190 1194 1199 1201 1203 1206 1208 1210 1214 1215 1214 1214 1213 1213 1215 1217 1218 1219 1220 1224 1229 1232 1234 1230 1229 1228 1229 1232 1235 1236 1236 1241 1247 1249 1254 1261 1265 1267 1269 1271 1278 1283 1284 1289 1294 1297 1301 1306 1312 1319 1328 1334 1340 1344 1349 1357 1364 1372 1382 1388 1394 1406 1419 1431 1447 1463 1477 1491 1503 1512 1521 1534 1546 1561 1574 1582 1588 1597 1610 1617 1611 1603 1604 1616 1625 1631 1641 1651 1666 1670 1678 1700 1719 1719 1710 1708 1708 1709 1715 1725 1743 1763 1772 1759 1748 1739 1717 1700 1693 1686 1678 1674 1678 1677 1670 1651 1627 1617 1613 1603 1606 1601 1591 1577 1564 1552 1541 1535 1535 1523 1504 1496 1490 1484 1482 1478 1473 1455 1443 1435 1425 1413 1396 1386 1380 1372 1369 1372 1378 1381 1383 1388 1396 1404 1415 1425 1439 1463 1493 1508 1516 1530 1547 1563 1575 1581 1585 1590 1594 1592 1596 1608 1620 1623 1625 1633 1648 1661 1680 1694 1689 1662 1628 1601 1579 1563 1556 1535 1517 1508 1506 1521 1537 1555 1573 1591 1624 1637 1637 1645 1642 1634 1641 1651 1653 1646 1647 1655 1665 1676 1684 1699 1713 1713 1699 1679 1652 1625 1597 1570 1549 1536 1527 1515 1503 1493 1482 1468 1459 1452 1446 1438 1425 1415 1407 1398 1389 1386 1380 1371 1367 1358 1348 1340 1329 1319 1313 1302 1295 1286 1279 1274 1277 1286 1301 1320 1341 1353 1364 1374 1383 1394 1408 1421 1429 1436 1441 1439 1427 1421 1416 1411 1405 1395 1387 1376 1371 1369 1365 1369 1373 1372 1374 1374 1369 1369 1381 1398 1402 1402 1400 1398 1396 1390 1386 1384 1381 1374 1350 1336 1333 1344 1357 1357 1354 1353 1353 1356 1358 1359 1357 1357 1353 1348 1345 1340 1331 1322 1317 1314 1301 1292 1286 1285 1284 1284 1283 1284 1288 1289 1287 1288 1289 1288 1291 1297 1301 1304 1306 1304 1302 1303 1304 1304 1303 1298 1294 1291 1288 1287 1284 1280 1278 1278 1278 1275 1276 1277 1273 1263 1257 1252 1246 1244 1236 1223 1214 1210 1204 1197 1191 1184 1178 1172 1165 1159 1153 1151 1149 1144 1140 1141 1142 1137 1133 1129 1126 1126 1123 1119 1117 1119 1118 1107 1094 1091 1086 1078 1077 1073 1066 1060 1054 1043 1026 1021 1019 1019 1017 1011 1004 990 976 976 976 969 969 968 958 949 945 944 946 946 947 947 935 925 928 928 930 932 932 928 920 913 910 915 922 924 920 911 899 896 895 896 907 914 917 916 916 916 925 938 942 935 933 941 958 979 1010 1048 1076 1096 1112 1117 1101 1121 1163 1235 1275 1302 1339 1364 1378 1389 1397 1405 1407 1410 1408 1390 1362 1348 1329 1314 1314 1320 1330 1332 1325 1319 1314 1309 1307 1309 1306 1301 1291 1281 1279 1283 1296 1313 1326 1341 1354 1362 1373 1382 1383 1383 1384 1382 1379 1374 1367 1359 1352 1348 1343 1337 1335 1332 1330 1335 1344 1349 1351 1352 1353 1357 1369 1387 1404 1421 1432 1440 1450 1458 1465 1472 1481 1489 1500 1513 1524 1532 1533 1530 1528 1532 1539 1549 1556
 422 422 421 421 422 422 422 421 421 422 422 422 423 423 424 423 424 425 424 424 427 428 427 424 423 423 422 422 422 424 425 427 429 428 425 424 425 428 431 440 461 485 496 500 502 504 505 509 514 518 520 522 527 532 537 543 545 547 552 558 560 564 570 574 578 581 584 588 591 594 597 598 600 604 607 607 608 610 614 618 622 625 629 630 629 630 637 647 657 667 676 685 689 694 700 704 705 707 713 722 732 743 748 748 748 753 763 779 796 810 817 824 830 833 835 836 836 835 838 848 857 865 872 877 880 880 877 873 873 881 895 909 917 924 927 925 928 940 952 962 966 966 964 958 955 950 943 932 917 903 890 880 873 868 862 857 852 844 833 824 814 806 800 793 785 778 773 768 761 754 750 744 731 720 712 701 686 676 670 666 668 675 677 670 662 661 659 646 632 626 623 619 622 626 622 613 606 603 602 600 598 594 591 587 587 587 586 585 585 584 582 582 580 578 574 566 557 548 539 531 524 527 529 531 534 530 522 519 518 515 512 511 510 506 510 517 525 534 530 520 523 527 540 549 550 551 551 550 547 547 543 538 534 527 519 518 528 540 551 564 565 568 572 578 580 587 585 587 595 595 594 574 546 538 534 534 535 540 560 584 599 597 590 581 572 564 559 559 564 576 594 610 624 638 656 681 696 700 706 714 719 722 720 717 713 711 710 707 704 703 699 694 691 691 691 690 688 686 685 686 686 687 689 687 688 692 694 693 680 679 682 685 687 688 691 691 689 689 687 678 666 665 673 684 700 710 721 726 726 730 736 741 747 749 751 753 752 753 756 760 765 775 801 807 801 800 799 799 802 806 808 812 815 823 831 834 842 853 859 863 875 890 899 907 913 918 929 936 944 953 960 959 954 953 943 928 917 912 913 917 926 935 936 928 925 930 938 947 958 965 966 963 961 953 938 923 915 914 917 927 939 948 954 957 959 967 1002 1048 1075 1101 1153 1169 1170 1166 1181 1205 1233 1249 1252 1250 1246 1239 1232 1238 1254 1259 1259 1259 1255 1244 1236 1227 1219 1211 1202 1198 1198 1196 1193 1191 1189 1188 1189 1187 1183 1184 1186 1189 1192 1195 1197 1199 1201 1204 1205 1206 1207 1208 1210 1210 1211 1213 1219 1224 1226 1227 1231 1237 1235 1233 1233 1233 1233 1231 1232 1234 1235 1234 1232 1237 1245 1249 1255 1260 1263 1268 1270 1271 1275 1279 1280 1284 1289 1295 1303 1309 1318 1328 1336 1341 1349 1356 1362 1369 1378 1387 1394 1406 1411 1417 1430 1448 1461 1472 1488 1503 1513 1521 1531 1543 1553 1567 1573 1572 1558 1564 1579 1580 1568 1565 1563 1561 1569 1575 1575 1587 1607 1617 1621 1634 1655 1658 1637 1623 1630 1639 1636 1637 1650 1662 1678 1697 1701 1694 1673 1654 1639 1623 1611 1607 1602 1600 1594 1572 1561 1565 1568 1574 1582 1582 1574 1561 1545 1531 1517 1502 1498 1493 1482 1469 1459 1457 1461 1462 1461 1442 1422 1409 1400 1391 1379 1366 1358 1352 1351 1353 1358 1363 1367 1372 1376 1385 1395 1407 1420 1438 1464 1478 1488 1505 1522 1537 1537 1537 1534 1533 1538 1545 1554 1567 1587 1594 1597 1613 1637 1654 1671 1679 1671 1643 1609 1576 1547 1529 1520 1507 1497 1487 1483 1495 1508 1522 1535 1546 1566 1590 1602 1616 1621 1618 1623 1635 1639 1635 1637 1640 1646 1656 1665 1680 1692 1696 1690 1678 1656 1616 1576 1559 1545 1530 1521 1509 1495 1485 1473 1463 1457 1451 1444 1435 1425 1412 1405 1396 1387 1380 1372 1365 1360 1352 1344 1337 1322 1308 1301 1296 1286 1275 1265 1260 1258 1264 1276 1294 1319 1341 1352 1361 1380 1392 1406 1418 1425 1433 1436 1431 1421 1415 1408 1400 1395 1390 1380 1361 1351 1346 1347 1348 1348 1351 1357 1360 1357 1357 1366 1389 1396 1397 1398 1397 1393 1385 1383 1383 1379 1368 1347 1331 1328 1335 1351 1351 1348 1346 1345 1345 1348 1350 1350 1348 1346 1344 1338 1330 1324 1314 1308 1306 1300 1294 1289 1287 1285 1281 1279 1278 1279 1283 1282 1283 1282 1279 1281 1288 1294 1299 1299 1295 1294 1296 1295 1293 1291 1289 1281 1277 1275 1272 1270 1269 1268 1267 1267 1263 1260 1261 1261 1257 1248 1240 1237 1237 1232 1217 1203 1195 1189 1182 1178 1171 1168 1163 1156 1152 1149 1145 1142 1137 1135 1134 1129 1127 1122 1118 1118 1116 1114 1108 1104 1105 1105 1092 1082 1082 1075 1068 1069 1070 1066 1057 1048 1033 1026 1020 1017 1019 1014 999 995 985 976 972 967 962 961 958 945 934 929 925 924 925 928 931 920 917 922 921 919 922 921 920 914 908 903 904 911 913 910 903 888 884 890 891 891 892 894 892 893 899 905 908 911 918 928 937 957 979 996 1029 1057 1069 1072 1073 1070 1092 1133 1207 1253 1274 1303 1329 1343 1355 1363 1372 1376 1376 1372 1359 1353 1357 1354 1340 1325 1313 1303 1295 1296 1300 1296 1291 1287 1289 1291 1283 1265 1257 1261 1270 1287 1307 1321 1339 1353 1359 1367 1375 1378 1377 1377 1374 1371 1364 1358 1349 1341 1329 1313 1308 1314 1315 1313 1317 1329 1333 1332 1333 1336 1339 1344 1353 1368 1387 1404 1415 1425 1432 1437 1443 1453 1460 1470 1483 1494 1501 1502 1501 1500 1502 1507 1515 1524
 422 422 421 421 422 422 422 422 421 421 422 422 423 424 424 423 424 425 424 423 425 426 428 427 424 423 423 423 422 422 423 424 426 428 429 426 425 426 428 434 449 466 473 475 480 488 495 500 505 510 513 515 520 527 533 539 543 547 552 558 564 568 570 572 574 576 578 580 581 582 584 585 587 591 593 593 594 597 600 602 605 609 614 615 617 621 630 641 654 664 672 679 684 688 690 691 694 699 703 707 714 721 726 731 737 747 760 775 786 794 800 806 810 812 814 814 812 812 816 829 845 854 857 856 855 854 855 861 867 873 884 896 904 911 917 919 921 924 932 942 946 943 937 932 927 921 912 901 887 876 869 863 856 852 847 842 836 827 817 809 799 791 785 780 777 774 769 761 747 736 734 731 720 706 694 679 665 658 655 655 657 659 652 642 635 634 633 626 615 612 608 605 603 603 600 597 594 589 586 584 583 582 581 581 581 581 581 580 579 579 579 580 578 577 574 564 556 544 536 529 519 515 515 517 520 516 510 508 507 509 507 505 502 496 492 489 492 502 508 512 522 524 528 543 548 547 540 533 530 529 525 522 518 511 505 503 506 526 542 549 551 547 545 551 561 564 563 566 569 568 566 546 536 534 532 533 534 540 556 572 581 575 567 559 550 545 541 539 539 542 555 571 583 594 608 630 652 664 673 681 687 691 691 692 694 696 695 694 691 690 687 683 681 680 681 681 680 678 675 674 672 673 677 678 678 677 676 674 672 674 678 680 681 681 682 684 684 681 670 652 653 672 680 692 709 717 722 722 724 729 738 744 743 744 745 748 749 751 755 758 762 769 784 789 787 790 791 791 797 803 805 807 812 817 824 831 845 853 855 858 861 868 875 884 890 902 912 917 923 929 931 927 918 910 897 883 876 876 879 885 888 885 890 887 889 900 905 897 898 898 891 889 892 897 896 891 885 880 875 882 891 897 893 894 895 924 960 1004 1048 1096 1131 1140 1137 1137 1143 1153 1173 1191 1203 1211 1212 1207 1201 1207 1222 1233 1237 1238 1229 1220 1216 1208 1202 1193 1187 1187 1188 1188 1186 1182 1180 1179 1178 1178 1179 1181 1186 1192 1196 1199 1198 1198 1199 1201 1202 1203 1203 1203 1205 1207 1210 1220 1225 1231 1237 1241 1244 1245 1238 1233 1235 1239 1237 1236 1236 1238 1239 1238 1238 1243 1248 1250 1254 1257 1258 1264 1270 1274 1275 1278 1280 1284 1289 1300 1308 1317 1326 1333 1339 1347 1356 1368 1376 1383 1393 1402 1412 1422 1427 1432 1445 1456 1468 1478 1490 1505 1519 1528 1530 1520 1523 1548 1556 1543 1523 1517 1536 1545 1524 1509 1501 1494 1495 1504 1506 1511 1531 1545 1553 1567 1588 1597 1595 1583 1577 1572 1566 1573 1581 1577 1584 1609 1630 1640 1633 1629 1620 1603 1586 1573 1554 1545 1538 1525 1525 1533 1540 1543 1537 1531 1530 1526 1515 1502 1488 1477 1474 1473 1468 1451 1437 1431 1428 1427 1426 1418 1405 1389 1377 1369 1358 1345 1340 1335 1332 1333 1337 1344 1351 1359 1367 1378 1391 1401 1413 1427 1444 1454 1467 1483 1498 1504 1499 1490 1486 1489 1493 1503 1511 1520 1535 1555 1566 1586 1614 1641 1659 1660 1650 1621 1575 1547 1529 1514 1499 1488 1477 1471 1466 1475 1488 1504 1523 1527 1535 1543 1552 1564 1575 1579 1588 1595 1597 1600 1608 1615 1619 1625 1636 1658 1673 1677 1677 1664 1642 1610 1570 1557 1541 1528 1520 1507 1491 1480 1472 1467 1462 1457 1446 1436 1428 1413 1406 1400 1391 1384 1377 1371 1366 1357 1350 1346 1332 1316 1301 1283 1268 1258 1249 1242 1238 1241 1256 1276 1301 1329 1350 1366 1381 1386 1399 1411 1418 1427 1428 1423 1413 1402 1395 1392 1389 1386 1372 1355 1344 1336 1334 1333 1331 1331 1335 1339 1342 1340 1346 1369 1384 1388 1390 1390 1386 1382 1380 1379 1369 1357 1340 1318 1313 1324 1341 1346 1343 1337 1334 1336 1338 1340 1341 1338 1335 1333 1327 1324 1317 1308 1302 1300 1299 1297 1291 1289 1284 1278 1275 1274 1273 1278 1280 1280 1277 1273 1274 1281 1290 1293 1288 1285 1283 1282 1280 1279 1275 1272 1268 1265 1264 1261 1262 1260 1259 1258 1256 1250 1248 1248 1249 1237 1233 1235 1232 1223 1211 1202 1190 1178 1174 1172 1166 1160 1156 1153 1151 1150 1148 1145 1144 1142 1130 1121 1116 1115 1112 1110 1105 1102 1102 1099 1096 1091 1083 1082 1074 1063 1053 1046 1051 1059 1060 1056 1049 1034 1023 1016 1014 1011 1000 988 985 982 980 978 974 961 952 945 935 927 922 916 913 911 911 910 908 912 919 917 912 913 913 908 907 903 900 900 903 904 899 891 880 876 882 885 883 880 879 880 883 891 898 899 903 914 925 937 950 962 977 1001 1026 1041 1044 1039 1049 1079 1106 1165 1227 1251 1273 1294 1305 1317 1324 1331 1343 1350 1347 1343 1346 1355 1363 1363 1357 1338 1303 1282 1277 1278 1276 1273 1266 1261 1266 1255 1234 1238 1252 1266 1283 1305 1324 1340 1349 1353 1360 1369 1373 1373 1372 1368 1360 1354 1346 1338 1331 1322 1302 1288 1290 1293 1296 1302 1313 1318 1319 1321 1326 1329 1332 1336 1344 1358 1374 1387 1397 1403 1407 1413 1424 1436 1448 1459 1466 1471 1474 1473 1472 1475 1481 1488 1495
 422 422 421 421 422 422 422 421 421 421 422 423 424 425 425 423 423 423 423 423 424 425 427 428 426 424 423 423 422 422 422 422 423 425 427 429 427 426 426 429 437 446 451 453 463 477 487 494 498 503 507 509 515 522 528 535 541 546 554 562 567 570 569 568 569 571 570 569 569 571 574 575 577 580 583 583 584 587 589 591 593 597 602 605 610 619 628 637 650 660 667 673 676 676 678 682 687 693 697 699 703 708 713 722 735 746 757 768 775 780 785 791 795 796 796 795 794 795 801 812 826 836 837 835 834 837 844 854 860 861 868 879 889 899 907 913 916 917 919 923 921 917 913 909 905 901 898 887 871 860 853 848 842 837 829 823 818 811 804 797 789 783 777 773 771 767 757 740 724 716 720 720 713 698 683 669 660 657 653 652 653 647 632 623 619 619 620 613 603 599 594 593 592 592 590 589 586 582 578 576 575 575 576 576 576 577 578 577 578 579 579 579 577 574 574 573 568 556 537 526 515 511 511 510 507 503 501 502 502 504 504 501 497 496 491 481 481 487 498 512 521 519 521 535 545 542 535 525 516 511 508 503 500 496 495 495 496 509 526 534 538 538 536 534 535 540 538 546 545 544 539 533 532 532 531 532 535 541 551 559 560 554 549 544 538 535 533 531 527 523 528 540 553 565 578 599 620 635 648 657 662 665 666 667 671 672 672 675 679 680 680 676 672 671 672 673 673 670 667 665 664 666 667 671 670 668 668 668 668 670 673 675 678 678 676 671 670 666 648 640 649 670 678 686 708 714 717 719 725 737 746 745 740 743 744 744 746 750 754 755 756 758 760 765 778 782 783 785 792 799 802 805 809 814 820 827 844 848 845 848 850 851 854 860 866 873 877 879 878 873 873 874 877 883 876 866 857 856 858 857 851 851 855 860 856 862 869 862 855 853 848 855 859 853 849 844 842 837 840 849 856 864 863 859 857 879 917 968 1020 1069 1104 1117 1119 1118 1116 1121 1129 1142 1155 1166 1172 1174 1173 1175 1184 1191 1199 1201 1201 1203 1202 1195 1181 1167 1165 1173 1180 1183 1180 1175 1174 1177 1179 1179 1181 1183 1186 1191 1197 1202 1201 1199 1197 1198 1200 1200 1200 1200 1201 1203 1206 1219 1228 1235 1237 1239 1241 1243 1240 1237 1245 1249 1247 1241 1238 1239 1241 1244 1247 1249 1251 1251 1254 1258 1262 1268 1273 1275 1277 1280 1283 1287 1297 1307 1315 1324 1331 1335 1344 1353 1365 1378 1387 1392 1402 1412 1419 1427 1436 1446 1456 1464 1475 1487 1499 1516 1524 1522 1502 1490 1496 1516 1532 1527 1507 1488 1487 1500 1491 1471 1450 1438 1437 1441 1455 1462 1463 1470 1479 1494 1516 1529 1550 1557 1552 1541 1524 1518 1521 1519 1525 1545 1564 1580 1577 1583 1589 1585 1570 1555 1537 1523 1515 1501 1491 1499 1510 1503 1492 1485 1485 1491 1493 1485 1470 1458 1449 1448 1448 1432 1418 1410 1407 1405 1406 1405 1395 1377 1364 1354 1344 1334 1326 1318 1316 1318 1324 1332 1339 1349 1362 1373 1386 1397 1407 1418 1434 1444 1454 1470 1480 1481 1474 1469 1467 1470 1474 1483 1493 1500 1512 1527 1542 1560 1582 1608 1633 1636 1624 1585 1551 1534 1520 1505 1490 1474 1463 1457 1450 1461 1481 1500 1513 1522 1526 1527 1532 1539 1542 1546 1554 1561 1561 1560 1567 1573 1581 1590 1602 1623 1646 1655 1653 1637 1620 1600 1572 1558 1543 1530 1520 1507 1493 1486 1476 1470 1466 1461 1450 1439 1430 1418 1406 1402 1397 1390 1383 1377 1372 1368 1363 1355 1344 1322 1295 1272 1255 1244 1234 1225 1220 1223 1237 1261 1293 1325 1353 1372 1379 1382 1391 1401 1409 1424 1424 1418 1407 1396 1391 1385 1379 1374 1359 1349 1340 1332 1328 1323 1313 1310 1314 1317 1322 1323 1329 1350 1367 1374 1376 1377 1379 1379 1377 1368 1353 1340 1325 1301 1297 1309 1326 1336 1334 1329 1327 1327 1329 1330 1327 1325 1325 1324 1321 1315 1311 1304 1299 1294 1294 1294 1291 1288 1281 1276 1274 1273 1272 1272 1274 1276 1270 1266 1267 1272 1284 1288 1281 1277 1275 1272 1270 1268 1265 1261 1258 1255 1251 1252 1252 1250 1247 1243 1240 1237 1235 1235 1230 1224 1226 1224 1215 1201 1194 1187 1179 1170 1165 1163 1159 1156 1152 1150 1149 1148 1145 1143 1142 1138 1125 1112 1108 1107 1104 1101 1098 1097 1095 1089 1083 1075 1070 1068 1067 1054 1044 1036 1035 1046 1052 1045 1034 1021 1012 1009 1007 998 990 986 983 982 980 977 973 968 955 943 932 924 915 909 906 904 904 905 903 907 911 910 907 906 903 898 895 893 892 890 891 891 886 881 869 860 865 871 869 870 873 877 881 887 894 898 903 910 914 925 937 945 959 979 995 1011 1018 1021 1043 1079 1095 1129 1182 1218 1240 1258 1274 1285 1294 1297 1308 1320 1326 1332 1341 1346 1353 1361 1359 1347 1318 1286 1268 1259 1254 1248 1240 1238 1240 1224 1217 1230 1253 1267 1284 1306 1323 1338 1348 1352 1356 1364 1371 1375 1371 1363 1354 1347 1340 1333 1325 1317 1290 1269 1265 1271 1280 1289 1303 1309 1312 1314 1317 1320 1324 1328 1333 1343 1355 1365 1373 1380 1384 1391 1404 1418 1431 1440 1444 1448 1450 1451 1451 1454 1460 1467 1471
 422 422 421 421 421 421 421 421 421 422 423 423 424 425 424 423 423 422 422 423 423 424 425 428 427 425 424 423 423 423 423 423 423 424 425 427 429 428 426 426 429 433 437 441 453 468 480 486 491 494 498 503 510 516 521 529 537 545 555 564 568 570 568 566 562 557 556 557 558 560 564 566 565 565 568 572 575 577 579 582 585 588 594 602 611 620 627 634 645 655 661 666 664 663 669 676 682 688 694 698 702 706 711 719 729 739 748 755 760 762 765 770 777 780 778 774 773 776 787 799 807 812 813 814 818 826 833 841 846 849 856 865 874 886 896 902 907 909 906 902 897 896 895 893 890 885 877 865 851 841 834 828 821 814 807 802 799 795 789 785 782 773 762 756 753 746 731 710 700 699 703 704 696 681 668 658 652 648 646 646 646 637 624 614 604 599 597 591 586 583 581 583 584 583 582 580 579 575 573 571 570 569 570 572 574 577 579 578 576 576 576 575 571 568 567 571 568 561 547 526 516 512 508 502 498 496 495 496 498 498 495 492 493 493 487 479 476 478 487 505 513 516 521 530 537 537 529 509 499 493 488 487 485 484 484 485 487 493 503 509 508 507 509 509 510 511 511 514 516 520 521 519 523 529 529 530 533 536 541 543 544 543 540 534 531 529 525 521 514 505 500 503 514 529 543 566 585 600 615 626 631 634 635 636 637 637 639 646 657 664 667 663 661 662 663 664 663 660 658 657 657 657 658 659 661 661 660 660 656 658 664 668 671 669 664 652 644 636 632 637 652 666 674 679 696 709 714 719 734 745 745 735 731 734 738 740 737 736 736 735 734 737 740 744 753 769 778 783 791 796 798 802 807 816 821 824 835 837 836 838 838 837 836 838 840 835 830 829 832 834 835 838 841 848 855 847 834 827 823 818 815 816 811 815 819 815 816 816 811 805 804 805 805 802 797 794 798 802 805 812 819 822 828 826 826 833 857 904 962 1011 1060 1080 1077 1071 1073 1086 1095 1097 1101 1109 1121 1132 1141 1145 1146 1147 1152 1158 1159 1165 1166 1150 1130 1119 1112 1127 1158 1172 1174 1173 1174 1179 1184 1184 1184 1186 1188 1193 1199 1204 1208 1209 1205 1209 1206 1202 1201 1199 1200 1203 1206 1216 1227 1231 1228 1230 1235 1238 1239 1241 1246 1249 1250 1249 1244 1242 1244 1248 1250 1250 1252 1256 1260 1264 1268 1271 1272 1274 1279 1286 1291 1297 1308 1319 1323 1327 1333 1342 1356 1368 1375 1385 1395 1404 1413 1422 1430 1442 1452 1460 1469 1477 1489 1498 1509 1520 1519 1502 1479 1465 1465 1479 1494 1489 1468 1450 1436 1425 1416 1403 1386 1371 1367 1376 1400 1418 1416 1411 1408 1414 1427 1441 1473 1510 1529 1517 1492 1481 1475 1473 1478 1494 1505 1516 1528 1545 1559 1569 1564 1551 1531 1510 1497 1479 1463 1457 1458 1459 1458 1453 1454 1461 1473 1471 1457 1444 1426 1417 1412 1407 1402 1395 1386 1383 1386 1389 1383 1372 1357 1345 1332 1319 1310 1302 1300 1306 1315 1327 1337 1346 1356 1368 1380 1393 1400 1408 1426 1442 1449 1463 1469 1464 1453 1450 1449 1450 1456 1463 1475 1487 1501 1514 1527 1548 1568 1587 1605 1606 1583 1554 1538 1526 1512 1496 1482 1466 1453 1440 1432 1446 1467 1486 1494 1507 1515 1514 1516 1515 1517 1526 1535 1535 1533 1537 1543 1546 1553 1563 1573 1589 1610 1636 1643 1636 1624 1607 1583 1563 1548 1533 1524 1513 1503 1497 1490 1482 1476 1469 1463 1450 1437 1425 1415 1407 1405 1402 1398 1384 1377 1373 1370 1358 1349 1328 1299 1271 1248 1234 1220 1210 1204 1203 1214 1237 1281 1325 1349 1363 1371 1378 1389 1395 1403 1421 1420 1410 1397 1391 1384 1376 1370 1364 1356 1346 1338 1325 1315 1309 1303 1297 1296 1300 1307 1311 1321 1337 1347 1359 1368 1369 1372 1374 1371 1357 1337 1324 1314 1288 1280 1291 1308 1321 1324 1323 1321 1322 1320 1319 1316 1315 1316 1312 1307 1303 1299 1293 1289 1282 1279 1279 1282 1278 1271 1268 1267 1269 1271 1268 1267 1267 1263 1261 1263 1266 1271 1275 1269 1268 1265 1259 1256 1252 1250 1248 1245 1240 1238 1238 1237 1235 1231 1228 1228 1228 1225 1220 1215 1209 1208 1207 1191 1183 1174 1167 1164 1161 1160 1157 1151 1148 1147 1148 1146 1144 1140 1135 1130 1125 1113 1107 1108 1107 1101 1093 1089 1086 1081 1074 1069 1064 1057 1055 1050 1041 1036 1030 1025 1030 1039 1029 1018 1013 1008 1004 996 989 988 988 987 980 975 972 968 966 961 940 924 918 911 904 898 893 891 894 897 899 903 904 902 900 898 895 891 886 883 877 874 872 871 873 868 859 858 856 855 859 865 872 876 880 885 890 898 904 905 903 900 910 933 952 960 972 992 1007 1032 1066 1079 1094 1121 1145 1175 1205 1227 1246 1255 1255 1265 1286 1300 1315 1330 1338 1340 1342 1340 1332 1318 1304 1277 1238 1212 1201 1199 1199 1198 1198 1206 1230 1254 1268 1288 1307 1319 1330 1344 1349 1355 1368 1373 1375 1371 1363 1355 1347 1339 1326 1315 1305 1279 1248 1239 1244 1257 1268 1284 1295 1298 1295 1293 1297 1309 1320 1326 1334 1341 1346 1351 1358 1364 1371 1384 1398 1412 1417 1420 1420 1419 1421 1426 1432 1438 1443 1445
 421 422 422 421 421 421 421 421 422 422 423 424 423 423 423 423 423 422 423 423 424 425 424 426 427 426 424 423 423 423 424 424 423 424 424 425 426 427 427 426 426 427 429 435 446 458 469 474 479 483 485 490 498 505 513 524 534 542 553 561 564 564 561 557 549 542 543 549 550 549 551 553 551 547 552 561 570 573 574 576 577 582 591 604 614 622 628 633 642 651 656 661 661 661 667 675 681 689 695 700 704 706 709 710 713 724 735 740 743 743 743 748 756 758 753 751 757 765 775 786 790 791 791 797 808 817 822 823 826 832 842 855 863 872 883 890 893 893 889 883 878 877 878 874 866 856 845 835 828 820 813 806 800 794 790 789 787 783 780 780 776 757 739 731 729 723 707 688 682 684 682 674 662 651 643 634 625 620 621 621 621 619 613 600 585 578 574 572 570 570 571 572 573 574 575 574 573 569 567 566 564 563 565 570 573 577 578 575 570 568 568 569 570 569 564 563 562 560 560 550 529 518 505 494 494 494 492 493 495 492 487 490 492 486 481 477 475 479 487 491 498 506 517 524 532 529 515 499 488 480 475 474 476 478 480 478 478 486 490 491 490 491 491 494 494 491 494 498 504 505 506 506 504 512 519 520 522 522 521 521 521 522 524 524 524 522 517 510 503 495 486 480 484 497 509 528 544 556 569 582 589 594 597 600 601 600 602 612 626 636 642 642 643 644 647 651 653 651 650 649 649 650 652 654 654 650 649 650 649 651 655 660 662 660 648 633 631 631 639 648 655 661 665 671 681 699 709 716 729 739 731 727 730 729 724 724 725 722 722 725 727 732 735 738 742 747 759 776 786 790 793 800 805 810 812 813 814 814 815 815 813 814 812 810 806 804 805 807 809 809 811 813 818 821 822 811 799 785 772 767 767 773 777 775 774 771 772 775 774 771 773 770 766 770 768 766 772 779 781 783 788 790 789 792 798 803 815 848 899 945 990 1026 1029 1021 1025 1040 1051 1049 1047 1051 1064 1080 1096 1103 1105 1102 1103 1110 1120 1116 1107 1089 1084 1082 1083 1096 1131 1159 1163 1161 1168 1182 1188 1188 1186 1185 1191 1194 1197 1201 1204 1208 1210 1213 1213 1208 1204 1202 1202 1204 1207 1210 1214 1219 1227 1232 1234 1236 1238 1241 1246 1248 1251 1252 1250 1248 1247 1248 1250 1251 1255 1259 1262 1266 1269 1270 1273 1277 1284 1292 1297 1303 1314 1326 1332 1338 1346 1359 1370 1379 1389 1399 1408 1417 1426 1434 1445 1457 1465 1475 1484 1490 1500 1510 1515 1515 1503 1486 1468 1448 1432 1418 1419 1424 1410 1394 1380 1360 1342 1331 1320 1314 1327 1352 1372 1392 1395 1381 1371 1372 1386 1401 1418 1441 1462 1465 1453 1447 1435 1439 1446 1459 1474 1489 1507 1526 1547 1562 1560 1545 1513 1485 1468 1453 1440 1429 1422 1426 1425 1423 1428 1437 1451 1450 1443 1428 1410 1395 1387 1388 1389 1380 1366 1358 1358 1369 1374 1368 1353 1342 1325 1315 1305 1288 1280 1293 1308 1319 1330 1343 1351 1362 1375 1386 1394 1410 1431 1440 1445 1454 1459 1452 1441 1434 1430 1434 1443 1452 1467 1480 1496 1511 1526 1549 1565 1575 1587 1582 1567 1547 1533 1521 1506 1492 1482 1470 1457 1441 1413 1419 1439 1458 1472 1489 1499 1503 1507 1504 1501 1511 1517 1518 1514 1513 1519 1523 1534 1548 1561 1577 1599 1624 1637 1640 1636 1623 1600 1580 1561 1547 1536 1526 1517 1511 1505 1499 1492 1482 1473 1462 1446 1432 1427 1420 1413 1411 1410 1398 1388 1380 1375 1367 1356 1340 1317 1280 1250 1232 1213 1202 1194 1191 1202 1221 1259 1310 1337 1346 1359 1371 1383 1389 1396 1415 1411 1403 1392 1383 1374 1366 1363 1362 1357 1347 1336 1318 1309 1304 1297 1284 1283 1290 1296 1306 1323 1334 1343 1361 1365 1364 1367 1369 1360 1351 1337 1320 1304 1273 1267 1281 1295 1307 1313 1314 1314 1315 1314 1314 1309 1307 1305 1302 1300 1298 1294 1290 1285 1277 1272 1270 1268 1266 1264 1263 1260 1262 1261 1258 1258 1257 1257 1254 1254 1255 1253 1253 1253 1256 1251 1246 1242 1237 1237 1235 1231 1229 1222 1217 1214 1214 1212 1214 1216 1214 1211 1213 1209 1200 1196 1188 1174 1170 1162 1157 1155 1152 1151 1149 1145 1143 1144 1145 1141 1138 1132 1125 1121 1113 1108 1108 1108 1102 1093 1084 1080 1077 1071 1065 1060 1053 1048 1042 1037 1033 1028 1023 1021 1021 1025 1023 1013 1008 1004 998 988 985 984 979 972 966 964 960 957 951 942 933 921 914 907 903 897 894 891 893 897 897 902 903 900 900 899 895 893 886 880 873 870 867 860 856 853 853 853 845 843 846 849 860 865 868 876 882 885 885 882 879 880 889 911 926 925 937 959 981 1006 1039 1058 1067 1080 1090 1113 1152 1190 1219 1229 1232 1242 1261 1276 1289 1304 1311 1307 1305 1310 1317 1312 1304 1290 1262 1222 1191 1173 1170 1177 1188 1207 1236 1257 1278 1297 1310 1319 1327 1333 1339 1341 1346 1350 1351 1356 1357 1353 1346 1332 1316 1301 1292 1261 1225 1214 1216 1233 1247 1259 1269 1269 1266 1271 1282 1300 1314 1319 1324 1329 1332 1336 1342 1347 1354 1364 1375 1386 1392 1392 1390 1389 1393 1403 1414 1420 1421 1419
 420 421 421 421 421 421 421 420 421 422 423 423 423 422 422 423 423 422 423 424 425 425 424 424 426 427 425 424 423 423 424 424 424 424 424 425 425 424 425 426 425 425 426 431 438 445 453 458 462 468 471 474 481 493 505 520 530 538 547 553 553 550 547 543 536 532 533 538 538 536 537 538 536 535 540 551 562 567 569 570 573 579 589 602 613 622 629 633 640 647 652 657 661 664 669 674 679 687 694 698 701 702 701 698 699 708 723 728 728 726 728 733 739 735 732 735 746 756 764 769 771 775 780 788 799 805 807 809 814 820 831 845 853 859 867 872 872 870 867 862 860 860 858 851 843 834 823 816 810 804 798 794 789 785 781 780 780 777 775 775 768 744 723 714 712 707 692 677 671 667 658 645 633 626 619 610 602 600 600 598 596 596 592 581 570 564 560 560 561 562 564 565 565 567 569 570 568 564 562 562 561 561 564 569 572 572 570 566 563 563 566 570 573 574 570 566 563 562 567 561 536 518 500 488 488 489 487 488 489 486 483 488 490 483 479 477 477 480 485 487 492 500 508 513 511 502 497 486 475 469 467 468 468 469 466 462 461 469 473 473 471 468 471 472 472 471 475 481 488 487 489 491 487 490 498 500 501 499 496 494 491 492 496 500 504 506 503 498 492 486 477 470 467 475 483 496 509 516 526 538 547 553 558 560 562 563 568 580 593 602 610 614 619 626 634 640 644 644 643 642 642 644 647 649 648 644 644 644 643 645 651 655 655 645 629 623 626 631 640 649 656 661 665 666 669 684 697 707 716 723 722 723 724 716 709 710 713 716 719 721 724 726 729 732 737 739 744 759 775 781 784 787 785 783 784 785 784 783 786 791 793 790 787 788 787 786 784 780 780 781 780 779 779 776 768 761 752 745 740 737 738 744 745 740 740 740 736 735 741 746 747 741 740 748 751 751 756 759 759 760 760 765 770 773 781 787 792 815 847 887 925 957 974 975 975 985 997 998 996 999 1010 1021 1036 1053 1055 1055 1057 1060 1066 1065 1054 1039 1034 1042 1067 1087 1110 1145 1155 1158 1167 1182 1188 1188 1186 1185 1191 1191 1192 1197 1199 1201 1206 1206 1205 1206 1205 1204 1204 1204 1206 1208 1211 1219 1227 1231 1232 1235 1237 1242 1249 1250 1251 1251 1250 1251 1253 1253 1254 1255 1258 1262 1265 1266 1268 1271 1275 1282 1291 1300 1303 1308 1318 1328 1342 1352 1361 1372 1379 1389 1403 1410 1415 1424 1435 1445 1457 1469 1478 1487 1493 1501 1511 1516 1515 1502 1483 1467 1450 1429 1409 1385 1372 1367 1361 1348 1336 1311 1289 1281 1278 1287 1307 1338 1357 1364 1359 1352 1355 1365 1381 1391 1402 1413 1420 1426 1426 1417 1408 1419 1434 1447 1457 1470 1491 1515 1537 1552 1543 1518 1482 1456 1443 1433 1420 1409 1399 1402 1402 1400 1407 1416 1424 1425 1420 1412 1397 1384 1371 1360 1359 1363 1350 1342 1345 1351 1356 1354 1346 1338 1320 1315 1306 1272 1256 1270 1292 1305 1314 1325 1335 1348 1364 1379 1390 1409 1425 1432 1438 1443 1446 1442 1433 1420 1401 1412 1434 1450 1463 1477 1497 1512 1525 1543 1556 1566 1576 1576 1568 1553 1538 1523 1508 1494 1484 1473 1462 1445 1401 1387 1405 1431 1450 1467 1479 1489 1494 1488 1487 1492 1496 1496 1500 1501 1507 1514 1530 1545 1559 1575 1592 1606 1616 1624 1630 1625 1609 1596 1577 1567 1556 1545 1534 1527 1521 1515 1510 1497 1479 1468 1457 1446 1436 1432 1426 1422 1417 1404 1396 1391 1385 1375 1365 1350 1328 1287 1253 1234 1213 1200 1192 1189 1196 1214 1243 1282 1313 1329 1345 1359 1374 1383 1391 1401 1399 1394 1384 1374 1368 1361 1359 1359 1353 1342 1328 1316 1304 1297 1286 1269 1267 1280 1294 1306 1318 1324 1334 1350 1356 1357 1359 1359 1349 1345 1329 1312 1291 1257 1253 1268 1282 1295 1304 1307 1308 1310 1313 1312 1307 1306 1305 1303 1301 1297 1292 1288 1281 1273 1266 1263 1260 1254 1254 1254 1252 1254 1253 1253 1254 1255 1251 1237 1234 1236 1231 1224 1226 1231 1229 1227 1223 1218 1211 1211 1221 1225 1221 1214 1203 1197 1195 1196 1201 1200 1196 1202 1205 1195 1187 1173 1161 1156 1154 1151 1149 1144 1141 1141 1141 1139 1138 1137 1133 1128 1121 1119 1115 1108 1106 1104 1100 1091 1084 1077 1073 1070 1064 1059 1051 1047 1043 1036 1031 1026 1022 1021 1018 1011 1008 1010 1006 999 994 989 986 982 973 964 958 955 950 948 945 936 927 924 918 912 906 899 895 895 892 893 896 897 907 906 897 895 895 894 890 883 873 866 864 861 854 848 841 839 838 834 836 839 841 850 858 858 860 868 871 870 859 860 871 879 892 901 906 914 927 943 967 998 1020 1040 1054 1063 1079 1111 1153 1185 1203 1214 1225 1238 1250 1260 1268 1275 1283 1289 1291 1300 1299 1295 1284 1267 1237 1201 1173 1168 1173 1184 1202 1228 1256 1280 1296 1304 1309 1320 1326 1330 1331 1336 1337 1339 1341 1345 1344 1338 1332 1315 1294 1281 1242 1209 1196 1195 1215 1232 1241 1243 1242 1250 1264 1279 1297 1307 1311 1315 1317 1321 1326 1331 1336 1344 1351 1359 1367 1372 1369 1366 1371 1380 1393 1404 1407 1404 1397
 420 420 421 421 422 421 421 421 422 422 422 423 422 422 422 423 423 422 422 423 423 424 423 423 424 426 426 424 423 423 424 424 424 424 425 425 424 424 424 425 425 424 426 427 429 431 434 438 441 447 454 459 468 485 502 516 525 532 536 535 532 528 529 529 525 522 521 520 519 519 521 523 526 529 536 544 551 554 557 561 567 575 584 595 604 613 622 628 636 643 649 654 659 663 666 669 672 680 688 691 690 690 691 690 687 690 704 713 714 714 716 718 717 713 716 723 732 738 743 747 753 763 773 779 784 785 787 794 801 809 820 832 841 847 847 845 843 841 841 842 843 842 840 834 827 813 800 793 788 785 784 783 779 777 775 774 775 774 772 767 750 724 709 702 697 689 675 662 653 644 630 615 605 597 591 587 587 588 589 585 580 574 568 562 557 553 551 552 553 555 557 558 558 559 562 563 560 557 556 557 558 560 563 566 565 561 558 558 560 565 572 583 592 594 593 588 579 574 578 569 540 517 495 483 481 483 482 482 484 482 481 490 495 487 477 476 477 477 479 483 482 474 472 477 479 476 474 466 460 457 458 458 456 454 452 451 449 451 457 455 443 439 440 441 441 443 448 452 456 458 458 460 465 468 470 469 467 466 467 465 462 460 460 462 466 472 478 478 475 470 464 459 456 459 462 464 470 475 480 488 497 505 509 509 509 515 522 535 547 556 564 568 572 593 613 624 631 633 633 631 631 632 632 636 638 637 638 639 638 639 643 646 643 626 616 610 610 620 628 637 648 654 656 656 655 660 669 671 677 693 699 700 697 686 684 690 702 706 706 708 710 714 716 719 728 735 737 741 750 753 753 749 742 739 749 754 756 756 760 765 766 762 760 760 761 759 751 744 740 738 735 732 730 728 725 718 701 689 693 698 703 704 703 701 705 710 710 706 712 721 723 723 722 722 722 726 730 737 741 740 732 737 751 756 761 762 769 791 815 834 858 884 907 918 920 920 927 931 934 940 947 953 955 971 984 994 999 996 997 1003 999 989 995 1014 1053 1079 1093 1122 1149 1163 1171 1175 1177 1177 1180 1183 1188 1188 1187 1188 1193 1198 1202 1205 1208 1213 1215 1210 1207 1207 1208 1209 1218 1225 1225 1225 1229 1239 1242 1248 1256 1259 1259 1256 1255 1255 1254 1255 1256 1258 1261 1264 1270 1274 1278 1282 1285 1292 1302 1309 1315 1318 1326 1335 1351 1367 1376 1384 1393 1401 1409 1415 1419 1426 1437 1448 1460 1477 1487 1495 1504 1512 1515 1513 1506 1488 1469 1454 1433 1408 1384 1356 1328 1309 1300 1297 1297 1272 1241 1238 1255 1274 1292 1318 1332 1335 1333 1333 1339 1355 1372 1379 1383 1392 1399 1404 1404 1390 1385 1396 1412 1422 1432 1441 1454 1472 1489 1504 1497 1478 1453 1432 1422 1413 1403 1393 1376 1374 1379 1378 1386 1398 1399 1399 1395 1389 1382 1371 1357 1345 1338 1330 1322 1323 1331 1339 1336 1333 1335 1333 1318 1303 1283 1244 1232 1237 1249 1245 1251 1264 1282 1303 1315 1336 1359 1385 1399 1407 1417 1425 1428 1423 1403 1373 1349 1361 1404 1446 1466 1481 1494 1510 1520 1532 1542 1557 1566 1568 1564 1553 1542 1532 1520 1505 1495 1479 1462 1439 1395 1366 1379 1411 1430 1446 1458 1467 1472 1471 1475 1478 1477 1479 1483 1487 1496 1509 1523 1541 1553 1565 1580 1583 1591 1602 1615 1617 1612 1607 1600 1591 1581 1572 1564 1555 1544 1530 1522 1512 1491 1479 1468 1460 1452 1444 1436 1431 1427 1417 1406 1401 1396 1387 1375 1362 1339 1300 1264 1239 1215 1198 1189 1186 1189 1202 1226 1253 1278 1306 1327 1342 1360 1371 1378 1383 1384 1383 1378 1370 1363 1355 1354 1356 1354 1339 1326 1315 1303 1289 1267 1250 1252 1273 1293 1299 1309 1318 1324 1335 1342 1344 1345 1347 1345 1340 1322 1307 1287 1247 1240 1253 1266 1275 1288 1298 1300 1297 1306 1308 1306 1307 1305 1299 1291 1280 1272 1270 1270 1265 1256 1249 1241 1238 1236 1235 1238 1242 1243 1244 1242 1243 1234 1223 1218 1218 1215 1207 1202 1199 1195 1191 1187 1182 1183 1188 1193 1204 1211 1207 1195 1190 1187 1186 1187 1183 1185 1192 1192 1182 1173 1159 1147 1140 1138 1141 1140 1135 1134 1135 1135 1135 1133 1128 1124 1121 1117 1113 1111 1107 1102 1095 1089 1080 1078 1070 1066 1063 1058 1050 1043 1037 1029 1026 1026 1023 1017 1009 1002 1000 998 988 986 987 983 984 981 967 961 957 951 947 942 936 930 917 911 911 914 913 906 891 883 888 893 892 889 891 900 894 887 885 884 883 878 874 872 867 862 855 846 841 836 831 829 825 824 829 833 843 852 853 851 854 852 844 840 847 862 871 876 881 887 891 903 917 929 945 960 983 1013 1034 1053 1074 1097 1133 1161 1177 1191 1204 1210 1217 1226 1236 1248 1260 1263 1262 1264 1266 1263 1245 1219 1191 1163 1158 1155 1158 1169 1200 1232 1258 1276 1284 1289 1301 1315 1318 1321 1326 1327 1330 1334 1334 1331 1330 1327 1309 1287 1270 1234 1202 1181 1174 1190 1209 1216 1215 1223 1242 1260 1274 1289 1294 1297 1298 1298 1304 1313 1320 1326 1336 1343 1349 1352 1351 1347 1349 1360 1372 1384 1391 1390 1384 1376
 420 420 421 422 422 423 423 423 423 422 422 423 422 422 422 422 422 422 421 422 423 423 423 422 423 424 426 425 424 423 423 424 424 424 425 425 424 424 424 424 424 425 426 427 426 426 427 429 432 438 446 457 471 487 501 510 515 516 514 512 509 509 514 516 516 513 510 508 507 505 509 518 523 527 533 538 542 544 548 553 560 569 580 589 596 603 608 615 624 634 642 649 653 656 660 663 666 669 673 677 677 678 680 680 676 678 686 697 702 703 703 702 702 705 710 715 715 716 722 733 743 755 764 767 767 767 772 779 787 796 808 819 826 829 826 821 817 820 824 827 827 827 825 815 804 788 776 770 767 767 771 773 773 772 771 770 769 766 757 743 719 696 689 687 679 664 649 641 634 627 615 599 583 572 569 570 574 576 577 573 569 563 557 553 550 546 545 546 547 548 550 551 551 551 552 553 550 549 550 552 555 556 559 559 556 554 555 558 565 579 595 609 618 617 615 609 600 587 580 572 545 517 500 481 473 472 474 473 473 471 470 483 491 490 484 476 472 467 469 472 462 453 456 458 459 460 455 447 446 447 449 448 449 448 446 445 441 440 440 437 433 430 428 428 427 428 431 434 435 435 435 432 435 438 444 446 444 444 445 444 441 438 436 437 441 447 453 454 452 452 451 451 452 452 451 449 451 452 455 457 458 463 466 465 466 470 477 485 497 504 512 511 513 537 568 585 601 615 619 619 619 620 618 623 628 629 630 633 635 633 632 632 626 616 605 597 599 609 617 622 627 626 620 629 640 647 654 652 655 662 661 660 662 669 672 674 683 690 691 693 695 695 699 700 706 717 720 721 722 725 727 725 721 720 722 727 729 728 730 733 735 736 739 737 730 719 708 700 692 685 685 686 685 684 679 674 665 656 654 662 672 676 670 667 674 682 685 681 685 691 695 697 697 698 702 708 711 715 719 717 710 713 729 736 740 742 746 761 785 805 822 839 859 875 875 868 863 866 872 879 885 885 872 879 892 911 932 937 944 957 950 947 966 998 1041 1077 1097 1127 1152 1162 1168 1171 1173 1175 1179 1182 1186 1186 1186 1186 1189 1191 1196 1204 1211 1214 1217 1216 1212 1210 1210 1215 1229 1233 1237 1239 1242 1245 1245 1251 1257 1261 1261 1260 1263 1263 1258 1258 1258 1260 1264 1268 1275 1284 1289 1294 1304 1312 1317 1319 1320 1325 1331 1339 1355 1374 1385 1394 1401 1401 1405 1411 1411 1417 1429 1437 1448 1456 1468 1492 1502 1498 1490 1479 1463 1444 1427 1414 1398 1367 1332 1300 1283 1278 1275 1264 1246 1213 1200 1207 1230 1261 1281 1300 1312 1318 1329 1336 1340 1339 1338 1342 1347 1352 1355 1364 1369 1357 1357 1365 1382 1396 1411 1418 1424 1433 1449 1466 1469 1459 1439 1418 1407 1394 1382 1375 1356 1344 1345 1352 1361 1373 1376 1375 1372 1369 1362 1351 1340 1331 1328 1313 1295 1296 1310 1321 1318 1314 1312 1307 1292 1269 1245 1222 1213 1215 1209 1182 1166 1179 1211 1237 1248 1266 1294 1329 1354 1358 1366 1377 1377 1369 1356 1344 1326 1330 1357 1402 1445 1476 1492 1508 1519 1527 1536 1547 1554 1555 1554 1543 1533 1527 1517 1508 1498 1479 1444 1409 1369 1346 1353 1388 1414 1430 1438 1436 1435 1438 1443 1449 1450 1454 1463 1478 1495 1510 1520 1533 1542 1550 1555 1557 1568 1579 1590 1595 1602 1605 1604 1597 1589 1582 1574 1567 1555 1537 1529 1521 1506 1496 1482 1472 1465 1460 1452 1444 1437 1427 1414 1406 1401 1394 1382 1371 1351 1313 1275 1245 1220 1201 1190 1184 1182 1189 1205 1231 1253 1277 1301 1321 1342 1355 1367 1373 1374 1375 1369 1361 1355 1352 1352 1353 1354 1344 1332 1322 1310 1295 1261 1228 1231 1260 1284 1292 1302 1311 1314 1317 1328 1335 1336 1337 1338 1330 1318 1307 1288 1248 1233 1240 1252 1257 1266 1278 1283 1281 1294 1299 1296 1297 1291 1280 1268 1260 1257 1252 1252 1255 1248 1242 1234 1227 1221 1216 1220 1227 1230 1224 1219 1221 1222 1216 1211 1204 1197 1191 1184 1178 1173 1171 1168 1162 1159 1154 1160 1174 1184 1186 1183 1176 1172 1179 1178 1169 1171 1174 1168 1160 1155 1141 1130 1129 1129 1128 1128 1128 1128 1129 1129 1128 1125 1120 1118 1115 1110 1109 1108 1103 1093 1085 1079 1074 1069 1060 1058 1057 1056 1047 1036 1027 1022 1020 1018 1010 1005 997 991 991 996 986 981 979 976 975 966 960 956 950 946 939 930 923 919 906 901 901 902 908 900 880 871 872 882 886 882 884 887 879 876 876 876 877 875 874 874 868 858 845 837 833 828 823 822 820 819 822 826 835 848 845 839 843 844 834 827 837 846 857 860 861 866 870 876 892 901 909 917 923 942 966 988 1019 1049 1071 1097 1122 1142 1155 1165 1169 1175 1184 1201 1217 1228 1235 1231 1231 1231 1220 1200 1163 1132 1121 1110 1110 1115 1141 1168 1204 1242 1260 1270 1281 1294 1299 1302 1306 1308 1316 1324 1325 1322 1324 1320 1301 1283 1263 1237 1205 1175 1160 1166 1178 1179 1188 1211 1238 1251 1261 1275 1280 1280 1278 1278 1285 1298 1308 1317 1328 1337 1339 1336 1331 1330 1337 1351 1362 1369 1370 1368 1364 1357
 420 421 423 423 424 424 424 424 423 422 422 423 423 422 422 422 421 421 421 422 423 424 424 422 422 423 425 425 425 423 423 423 424 424 424 425 424 424 424 424 424 425 427 430 428 425 425 426 429 436 446 460 473 484 493 500 499 495 489 486 484 485 491 499 505 503 500 496 493 491 496 510 519 524 527 529 533 536 541 548 557 567 578 586 592 596 600 605 613 620 628 638 645 649 653 657 657 656 657 661 664 666 666 665 666 671 677 684 690 694 694 695 698 702 705 703 700 703 715 729 738 746 750 751 751 755 761 770 779 787 798 807 809 807 803 801 805 810 813 812 808 806 799 787 777 765 759 756 755 758 763 766 766 765 763 759 755 746 733 717 696 677 669 668 662 647 629 619 616 612 602 588 570 560 556 557 562 565 565 563 560 555 551 548 545 540 538 538 540 542 543 544 545 545 545 545 543 543 544 548 550 550 551 551 550 552 556 564 579 598 614 620 618 613 612 608 601 583 579 576 555 525 509 485 471 469 471 470 467 462 460 467 478 479 476 472 463 460 461 462 456 451 452 455 456 453 447 441 441 441 441 442 441 439 438 436 433 433 432 432 431 429 424 421 421 422 424 426 428 427 427 424 425 426 428 429 428 428 429 428 426 423 422 424 428 433 436 439 441 444 446 447 448 448 448 447 448 449 451 451 447 445 447 448 447 450 456 460 465 465 473 474 476 491 511 539 567 586 599 605 606 608 610 615 619 620 621 623 622 613 606 612 616 611 600 592 596 604 609 610 606 595 584 599 613 619 621 617 620 626 634 636 643 653 658 661 666 671 677 680 683 682 683 685 691 700 704 699 692 691 693 695 694 693 691 692 692 691 691 693 695 701 703 695 688 679 674 669 658 653 654 654 653 651 648 643 636 633 636 642 647 647 646 646 655 659 660 659 663 668 675 678 677 679 686 692 695 698 703 701 698 703 712 719 722 722 727 736 756 773 794 810 821 833 833 828 826 825 826 829 831 818 805 806 813 835 864 887 910 924 928 933 947 978 1021 1066 1100 1130 1151 1159 1162 1167 1172 1181 1183 1184 1184 1183 1184 1187 1188 1189 1192 1195 1200 1207 1215 1218 1214 1210 1211 1224 1235 1238 1240 1245 1249 1247 1246 1248 1251 1257 1259 1259 1264 1266 1265 1264 1262 1263 1268 1272 1279 1289 1297 1304 1313 1319 1321 1324 1328 1331 1335 1343 1352 1365 1380 1392 1382 1373 1372 1379 1383 1392 1408 1419 1432 1426 1425 1449 1471 1463 1448 1424 1399 1380 1369 1363 1354 1315 1284 1259 1243 1238 1236 1213 1187 1166 1166 1179 1203 1237 1262 1282 1300 1310 1322 1327 1323 1315 1308 1307 1309 1314 1319 1326 1334 1335 1339 1342 1355 1372 1388 1402 1411 1419 1429 1443 1453 1447 1427 1403 1389 1381 1372 1363 1339 1324 1327 1331 1338 1342 1347 1352 1351 1350 1342 1333 1329 1321 1306 1283 1268 1263 1275 1283 1280 1278 1284 1283 1275 1252 1233 1207 1193 1186 1170 1139 1118 1122 1154 1186 1206 1217 1242 1273 1306 1326 1331 1327 1316 1313 1318 1314 1301 1300 1319 1362 1410 1456 1486 1503 1514 1524 1535 1542 1548 1550 1548 1537 1526 1514 1498 1488 1473 1441 1404 1377 1344 1326 1327 1349 1381 1402 1415 1416 1413 1412 1415 1420 1421 1431 1447 1471 1494 1506 1518 1528 1533 1538 1538 1539 1550 1564 1573 1578 1586 1591 1591 1585 1582 1579 1571 1562 1549 1538 1534 1528 1519 1510 1498 1485 1477 1470 1463 1454 1445 1435 1422 1411 1406 1396 1384 1375 1361 1326 1283 1251 1224 1205 1193 1183 1177 1181 1193 1214 1234 1256 1278 1297 1320 1340 1355 1362 1365 1366 1361 1353 1347 1342 1341 1339 1336 1334 1331 1323 1311 1295 1255 1210 1205 1230 1272 1287 1297 1304 1305 1307 1317 1324 1326 1326 1323 1319 1313 1303 1283 1258 1234 1225 1235 1241 1253 1263 1264 1265 1278 1285 1280 1280 1276 1261 1244 1242 1250 1243 1236 1243 1243 1236 1227 1221 1215 1209 1211 1219 1222 1219 1214 1211 1206 1206 1198 1183 1171 1162 1158 1149 1144 1144 1145 1147 1141 1135 1141 1157 1164 1166 1160 1154 1156 1164 1159 1147 1142 1139 1130 1126 1131 1125 1121 1123 1122 1119 1117 1122 1123 1122 1124 1124 1121 1117 1114 1111 1106 1105 1103 1095 1086 1079 1071 1067 1061 1051 1048 1051 1050 1038 1031 1025 1018 1015 1009 1002 999 993 987 983 986 984 981 977 975 975 969 957 949 943 938 931 921 915 910 895 890 889 889 891 885 871 865 864 868 875 869 865 868 869 867 865 862 862 864 865 861 850 840 833 830 827 821 817 817 818 816 817 820 826 840 842 837 836 832 823 822 831 838 845 848 847 852 853 854 861 874 886 887 886 902 920 936 957 985 1025 1042 1060 1080 1097 1110 1122 1134 1145 1156 1173 1190 1199 1193 1192 1189 1175 1139 1099 1081 1072 1075 1086 1089 1098 1119 1154 1197 1226 1243 1258 1268 1277 1281 1274 1277 1290 1301 1302 1300 1301 1301 1289 1272 1252 1235 1210 1178 1151 1146 1149 1151 1167 1198 1229 1243 1253 1264 1268 1267 1264 1266 1271 1282 1296 1307 1318 1325 1326 1321 1318 1322 1330 1343 1351 1354 1353 1351 1349 1343
 421 422 422 423 423 424 424 423 423 422 423 423 422 420 420 421 421 421 421 422 423 424 424 423 423 423 425 426 426 425 424 424 424 425 424 424 425 424 423 423 423 424 426 429 429 425 423 425 427 431 440 450 458 463 467 471 470 464 457 456 455 458 463 470 478 481 479 476 473 472 475 490 502 510 515 520 523 524 529 539 553 563 572 580 585 589 594 598 604 611 616 624 634 639 643 644 643 641 642 643 645 645 647 652 659 664 668 669 673 680 685 688 692 691 688 685 688 697 712 722 727 729 728 728 732 739 748 760 772 778 781 782 782 781 780 783 791 795 793 785 780 774 764 755 750 747 745 745 746 750 753 750 742 739 737 729 722 716 707 694 675 655 644 643 641 630 614 606 602 594 585 575 559 549 546 546 548 551 551 550 548 545 541 540 537 531 530 531 532 534 535 536 537 538 539 537 536 536 537 541 544 545 545 545 546 551 561 575 594 610 618 618 612 609 601 598 595 583 576 570 557 540 519 492 472 468 469 467 460 455 453 455 460 460 460 461 456 455 454 454 453 455 453 452 451 446 441 437 436 436 434 434 433 432 432 432 429 427 427 431 432 429 421 418 418 419 420 422 423 423 422 420 419 418 418 418 417 416 416 417 417 417 416 416 419 422 425 431 436 438 441 442 444 444 444 445 445 446 446 446 445 443 444 444 445 448 452 456 456 452 457 463 462 462 471 495 525 531 550 581 588 585 582 586 593 596 595 595 587 578 576 581 585 582 570 562 565 571 575 576 567 553 535 544 558 563 566 568 564 564 581 597 603 609 616 628 641 649 653 653 655 658 666 665 667 674 679 673 661 657 657 662 663 660 657 655 651 646 643 646 649 646 643 649 644 637 632 634 635 633 630 628 624 618 610 603 604 609 613 623 625 623 627 632 637 637 635 635 641 649 654 657 659 663 666 669 676 681 685 688 688 691 694 698 702 699 698 701 714 725 739 753 758 765 774 778 783 787 785 776 763 747 738 740 748 767 795 825 858 892 910 923 926 943 985 1025 1070 1118 1144 1156 1158 1160 1168 1181 1185 1185 1187 1188 1189 1190 1190 1195 1195 1194 1199 1208 1212 1217 1217 1211 1214 1233 1240 1240 1242 1248 1252 1251 1249 1249 1251 1254 1259 1261 1266 1271 1275 1275 1273 1274 1277 1279 1284 1291 1300 1308 1316 1322 1326 1333 1337 1338 1337 1335 1330 1338 1353 1352 1333 1315 1304 1315 1327 1337 1347 1347 1345 1345 1351 1369 1382 1380 1368 1346 1329 1316 1304 1288 1275 1249 1232 1210 1187 1179 1172 1151 1140 1140 1152 1171 1187 1207 1226 1243 1258 1269 1281 1277 1268 1266 1269 1267 1263 1260 1258 1262 1271 1281 1293 1310 1323 1337 1356 1371 1389 1403 1412 1417 1420 1412 1394 1373 1367 1368 1360 1341 1324 1305 1303 1310 1314 1317 1323 1330 1330 1325 1320 1317 1314 1296 1270 1245 1232 1223 1230 1246 1250 1247 1250 1254 1249 1234 1210 1172 1151 1131 1102 1074 1061 1073 1108 1143 1173 1192 1218 1240 1258 1279 1287 1281 1274 1270 1270 1270 1266 1268 1285 1316 1368 1423 1463 1484 1498 1513 1531 1538 1541 1540 1539 1528 1513 1497 1470 1440 1412 1387 1352 1322 1294 1280 1291 1302 1321 1343 1358 1365 1366 1365 1365 1367 1371 1389 1413 1437 1464 1477 1484 1497 1507 1510 1516 1523 1536 1549 1557 1565 1572 1577 1578 1577 1574 1568 1558 1549 1543 1540 1538 1535 1530 1522 1510 1499 1492 1482 1473 1463 1451 1443 1433 1417 1410 1399 1389 1381 1371 1338 1293 1259 1226 1207 1195 1183 1177 1178 1184 1193 1209 1233 1256 1272 1294 1319 1332 1340 1343 1345 1346 1342 1334 1328 1325 1322 1319 1321 1324 1320 1305 1280 1228 1190 1180 1191 1232 1266 1284 1292 1295 1298 1304 1309 1309 1307 1302 1304 1300 1286 1271 1257 1242 1214 1213 1224 1236 1244 1244 1241 1246 1254 1261 1263 1256 1240 1229 1233 1237 1228 1225 1223 1227 1224 1218 1209 1203 1199 1199 1206 1211 1209 1203 1188 1179 1183 1175 1160 1154 1150 1139 1135 1133 1129 1125 1119 1113 1114 1125 1133 1143 1140 1132 1137 1143 1140 1141 1136 1129 1120 1110 1106 1100 1095 1102 1113 1110 1107 1109 1116 1118 1116 1114 1117 1114 1109 1107 1103 1099 1098 1093 1084 1078 1069 1061 1061 1059 1043 1038 1038 1036 1029 1024 1020 1016 1009 1001 996 993 988 983 978 977 982 984 983 976 973 975 958 940 937 932 925 915 908 903 894 886 885 882 878 872 865 863 859 858 866 864 854 839 843 847 845 841 838 837 832 828 826 824 821 819 817 814 811 811 813 811 812 814 817 822 831 822 815 815 814 821 827 828 823 825 831 836 836 836 836 838 855 865 865 872 887 898 908 924 947 969 982 990 996 1011 1033 1052 1068 1087 1104 1118 1126 1124 1115 1099 1076 1053 1024 1012 1011 1021 1043 1047 1052 1066 1086 1121 1160 1196 1219 1232 1240 1244 1240 1241 1245 1244 1244 1252 1256 1254 1245 1231 1221 1216 1203 1180 1146 1124 1118 1126 1146 1177 1214 1237 1249 1256 1254 1250 1247 1255 1262 1269 1279 1291 1303 1308 1307 1304 1306 1314 1326 1335 1339 1340 1338 1335 1333 1327
 422 422 421 422 422 423 423 422 422 423 423 423 422 421 420 420 420 421 422 422 423 425 424 424 424 425 425 427 427 426 425 424 424 424 424 424 425 425 424 423 423 424 425 426 426 425 424 426 427 428 429 432 435 437 438 442 441 437 434 435 438 443 446 448 452 456 458 458 457 457 462 472 484 494 502 506 506 509 517 532 548 557 563 571 577 582 585 590 596 604 611 617 623 628 631 631 630 630 629 629 629 632 638 647 653 654 652 653 657 667 675 678 675 668 667 676 689 698 707 711 712 710 708 709 715 727 738 751 761 762 757 753 754 760 764 764 767 767 762 754 749 744 736 733 732 733 737 739 740 741 738 723 710 706 702 696 691 685 676 663 645 628 620 615 613 608 603 601 597 587 577 567 549 538 536 536 535 535 536 537 536 535 533 531 529 525 524 525 526 528 529 530 532 533 533 532 531 532 533 536 541 542 543 543 543 547 564 579 593 606 611 609 610 608 598 590 574 556 547 540 540 537 526 505 483 468 463 461 454 449 449 450 453 454 452 451 452 450 447 447 450 454 451 449 444 439 437 434 434 433 432 431 430 430 429 428 425 424 425 426 426 424 421 419 419 419 420 421 422 421 421 420 419 419 418 418 418 417 417 418 418 418 418 419 420 423 425 428 431 434 437 438 440 440 441 441 442 442 443 443 442 442 442 443 444 446 449 451 452 452 455 459 461 465 474 486 499 504 517 554 563 559 550 549 558 565 562 559 545 540 540 537 524 510 501 502 515 525 523 529 536 521 507 513 515 515 521 527 528 525 530 542 548 557 566 584 604 616 625 628 619 612 627 640 646 647 642 632 631 634 637 639 638 630 624 620 615 612 612 614 615 611 605 603 607 607 606 608 602 600 597 597 599 596 590 585 588 591 594 603 610 610 611 615 617 619 619 618 623 628 631 635 639 647 651 652 652 657 664 665 670 673 677 679 680 677 668 666 676 685 693 702 708 713 723 728 733 738 734 716 694 682 675 675 685 709 748 784 815 846 864 878 888 907 944 984 1023 1080 1117 1134 1146 1154 1160 1170 1178 1181 1185 1187 1189 1188 1188 1195 1197 1198 1201 1205 1211 1215 1216 1215 1220 1227 1232 1234 1240 1248 1253 1254 1254 1255 1256 1260 1263 1266 1271 1273 1277 1280 1279 1279 1280 1279 1279 1286 1291 1299 1305 1315 1330 1336 1337 1336 1328 1314 1302 1304 1310 1300 1282 1272 1260 1256 1257 1251 1247 1247 1244 1266 1274 1273 1271 1269 1268 1251 1241 1237 1231 1221 1207 1194 1189 1163 1143 1134 1124 1107 1094 1113 1144 1167 1181 1187 1190 1191 1198 1210 1222 1232 1235 1231 1218 1198 1178 1181 1181 1185 1192 1200 1216 1240 1255 1270 1293 1314 1337 1354 1363 1369 1367 1362 1355 1350 1342 1339 1335 1328 1317 1291 1284 1296 1301 1302 1307 1310 1306 1297 1294 1291 1274 1264 1250 1225 1202 1189 1193 1210 1219 1217 1220 1223 1222 1208 1172 1138 1103 1069 1033 1014 1012 1023 1063 1101 1145 1181 1200 1213 1215 1230 1249 1256 1254 1250 1244 1233 1234 1249 1264 1284 1323 1370 1418 1447 1470 1493 1508 1519 1525 1519 1508 1489 1471 1440 1395 1359 1338 1311 1274 1245 1213 1197 1228 1254 1269 1289 1310 1317 1315 1311 1312 1308 1307 1331 1357 1383 1406 1425 1423 1418 1427 1437 1460 1487 1513 1532 1544 1552 1557 1559 1559 1561 1559 1551 1543 1539 1536 1536 1537 1535 1531 1522 1513 1505 1500 1493 1481 1467 1451 1443 1434 1422 1411 1403 1395 1387 1376 1346 1306 1273 1233 1209 1199 1186 1176 1173 1170 1168 1177 1203 1234 1254 1268 1290 1309 1319 1325 1327 1331 1331 1327 1321 1318 1315 1316 1317 1318 1311 1290 1257 1214 1169 1156 1167 1198 1222 1242 1253 1269 1284 1294 1296 1292 1291 1290 1289 1277 1265 1257 1248 1235 1209 1201 1211 1225 1234 1237 1236 1232 1234 1240 1241 1232 1220 1215 1218 1218 1208 1203 1201 1208 1216 1210 1199 1195 1192 1189 1188 1194 1198 1187 1175 1171 1167 1160 1151 1148 1137 1134 1132 1123 1116 1111 1106 1100 1099 1100 1102 1111 1126 1123 1118 1117 1113 1107 1108 1110 1101 1095 1088 1082 1080 1083 1096 1104 1105 1107 1109 1108 1106 1102 1102 1101 1094 1090 1086 1083 1080 1074 1070 1064 1058 1053 1053 1053 1038 1027 1027 1026 1019 1017 1015 1007 1002 997 993 990 986 980 977 976 973 969 972 970 966 963 944 932 928 924 918 908 903 900 893 887 884 881 875 870 867 862 856 853 854 859 851 829 825 832 833 830 827 823 816 814 813 813 812 808 804 803 804 804 806 805 806 808 808 807 807 808 808 807 809 812 820 818 813 815 821 822 822 821 819 817 828 836 846 851 860 871 881 886 894 908 920 927 932 938 952 971 989 1017 1040 1049 1054 1046 1035 1023 1007 992 982 978 968 956 962 975 1002 1022 1038 1057 1089 1127 1160 1177 1182 1191 1202 1206 1201 1198 1197 1201 1202 1196 1192 1187 1185 1187 1184 1170 1140 1107 1095 1105 1132 1160 1194 1225 1241 1244 1240 1234 1233 1242 1253 1264 1271 1278 1288 1293 1292 1287 1287 1299 1315 1323 1325 1325 1322 1320 1319 1314
 423 422 421 421 422 422 421 421 422 422 423 423 422 421 421 420 420 421 422 423 423 425 425 425 425 425 426 427 427 426 425 425 425 424 423 423 424 425 424 423 424 426 426 426 425 425 427 429 430 428 427 426 427 428 429 429 429 428 427 428 430 434 437 437 440 442 444 446 447 450 455 461 469 480 489 491 493 501 514 531 544 550 555 561 568 573 577 581 588 597 605 609 613 615 618 620 622 623 622 620 621 627 635 643 645 642 639 642 649 658 665 664 657 653 658 673 688 694 697 700 702 701 700 700 706 721 733 743 746 741 734 732 735 742 746 746 745 742 737 731 727 723 719 720 722 724 728 730 729 727 717 699 688 681 678 679 675 663 647 633 617 604 599 595 591 591 593 593 592 585 574 560 541 532 529 526 523 523 525 528 530 530 529 528 526 522 520 521 522 524 524 526 527 529 530 530 530 531 531 534 538 540 540 537 536 543 562 575 584 592 598 603 608 608 598 574 554 540 529 523 523 516 508 501 491 469 459 455 450 448 448 449 451 453 452 452 450 447 445 445 446 449 446 442 438 436 435 433 431 429 429 429 428 428 428 428 426 425 425 422 423 422 421 420 420 420 420 420 421 421 420 420 419 419 419 418 418 418 418 418 418 419 419 420 421 423 425 427 429 432 434 435 436 437 438 438 439 439 440 440 440 440 441 441 443 444 446 448 449 451 453 456 459 464 471 480 490 499 510 526 523 519 522 526 531 541 542 533 513 506 504 492 472 460 452 450 465 490 490 486 488 486 486 489 486 491 495 502 509 512 513 521 532 542 550 568 586 598 611 613 589 576 581 586 588 587 587 591 596 601 607 611 606 598 593 591 591 592 593 594 597 591 583 578 580 580 579 577 576 578 569 568 575 579 579 575 573 572 578 585 589 591 594 599 602 601 603 601 606 611 614 619 627 635 638 642 642 641 646 650 653 657 657 659 660 652 647 647 653 661 669 678 682 683 686 687 687 688 682 664 644 632 626 634 650 683 739 782 803 818 832 852 869 885 915 948 977 1024 1067 1085 1099 1116 1132 1149 1162 1165 1163 1175 1180 1179 1180 1183 1183 1183 1192 1198 1204 1206 1204 1209 1212 1217 1221 1223 1228 1236 1245 1252 1256 1259 1264 1266 1267 1269 1273 1272 1261 1250 1248 1249 1247 1241 1241 1241 1241 1248 1259 1273 1297 1317 1330 1323 1306 1289 1274 1271 1268 1253 1240 1240 1236 1226 1208 1185 1180 1183 1185 1193 1198 1192 1190 1195 1205 1200 1196 1200 1190 1174 1158 1157 1153 1141 1133 1124 1108 1086 1075 1086 1120 1146 1164 1163 1162 1165 1172 1182 1191 1195 1192 1174 1150 1131 1122 1133 1145 1154 1164 1175 1188 1207 1223 1241 1259 1276 1296 1309 1319 1329 1338 1337 1333 1321 1317 1316 1311 1309 1299 1272 1256 1265 1284 1291 1293 1286 1273 1263 1262 1261 1250 1240 1232 1217 1192 1170 1168 1184 1198 1199 1197 1198 1198 1171 1137 1102 1057 1021 996 983 982 993 1034 1086 1118 1152 1173 1182 1192 1203 1217 1227 1223 1214 1203 1195 1202 1215 1223 1241 1283 1324 1367 1389 1415 1446 1466 1477 1481 1471 1459 1440 1402 1368 1331 1302 1287 1257 1220 1194 1156 1131 1162 1213 1225 1236 1255 1274 1272 1262 1255 1253 1258 1281 1315 1345 1360 1374 1379 1374 1373 1370 1387 1425 1463 1499 1520 1535 1541 1542 1543 1543 1542 1538 1532 1527 1523 1522 1522 1522 1517 1511 1504 1500 1494 1490 1479 1465 1453 1441 1433 1423 1414 1409 1401 1394 1385 1359 1317 1285 1243 1215 1205 1190 1178 1169 1159 1152 1152 1165 1188 1206 1216 1238 1256 1276 1299 1308 1318 1323 1320 1313 1307 1299 1303 1302 1299 1287 1264 1239 1207 1156 1140 1146 1174 1189 1196 1204 1212 1229 1261 1282 1283 1282 1279 1281 1267 1253 1246 1240 1229 1207 1188 1192 1211 1228 1232 1228 1216 1216 1223 1221 1214 1201 1197 1200 1201 1196 1189 1185 1192 1200 1195 1188 1185 1184 1184 1183 1182 1183 1178 1169 1164 1158 1149 1145 1138 1126 1125 1125 1113 1106 1104 1101 1099 1098 1096 1094 1098 1113 1115 1111 1106 1101 1096 1094 1093 1087 1081 1076 1072 1070 1067 1075 1091 1094 1096 1094 1097 1098 1097 1096 1093 1084 1079 1075 1070 1065 1063 1061 1059 1055 1047 1044 1042 1032 1022 1019 1017 1014 1010 1008 1002 997 994 990 987 983 978 975 971 958 951 960 961 955 944 935 928 920 918 913 904 900 898 892 887 885 881 874 869 866 860 853 848 846 850 847 832 821 817 819 819 817 812 810 809 809 808 805 799 797 797 800 799 799 801 802 802 802 802 803 811 811 804 805 804 801 806 809 813 814 813 813 804 803 801 806 815 824 830 837 850 855 860 872 882 889 895 902 908 914 922 930 951 976 992 1000 989 981 969 952 944 942 938 920 898 899 913 955 990 1006 1023 1043 1070 1099 1119 1132 1149 1170 1179 1172 1163 1162 1157 1154 1157 1154 1148 1157 1169 1166 1153 1122 1084 1074 1091 1122 1145 1172 1202 1222 1228 1227 1224 1224 1233 1245 1259 1268 1274 1281 1285 1283 1274 1271 1282 1299 1309 1310 1309 1307 1306 1305 1301
 424 423 422 422 422 421 421 420 421 422 422 421 421 421 421 421 422 423 424 423 423 424 425 424 424 425 426 426 427 427 426 426 426 425 424 424 425 425 424 424 425 426 427 427 426 426 426 428 430 430 429 427 426 426 427 427 427 426 426 426 426 427 429 430 431 434 435 436 438 442 447 450 455 462 471 476 482 497 512 528 539 542 545 550 557 563 567 572 578 584 589 594 596 598 601 605 609 613 615 614 613 616 623 629 629 628 628 631 637 645 646 646 648 651 654 664 673 677 677 681 685 689 690 693 701 714 725 729 722 714 710 712 716 722 725 724 722 718 715 713 710 706 705 707 710 713 715 715 712 703 689 677 668 658 656 658 652 635 616 603 590 582 579 576 577 580 581 582 582 575 560 547 535 526 520 513 512 514 518 523 527 528 527 525 522 518 517 517 517 518 518 519 520 522 525 526 528 529 530 532 536 537 533 527 527 540 558 567 568 569 570 577 587 590 577 555 537 519 512 504 495 487 488 489 480 463 455 452 449 446 447 448 449 450 452 449 446 445 444 444 443 442 441 438 437 436 435 433 431 430 429 428 428 428 428 428 430 426 422 420 421 421 421 420 420 420 420 420 420 420 420 420 419 419 419 419 419 419 419 419 419 419 420 420 421 423 424 426 427 429 431 432 433 434 434 435 435 436 436 437 437 437 438 439 440 441 442 444 446 448 450 453 456 461 467 473 481 488 495 499 489 480 484 487 489 490 495 499 488 475 468 456 445 436 431 431 435 445 454 457 458 456 458 449 450 453 454 459 467 478 480 489 506 525 539 557 573 584 591 579 547 536 539 539 537 541 546 550 552 555 559 561 560 559 559 562 566 567 568 569 568 566 566 564 561 556 553 552 553 557 550 545 552 555 557 557 557 559 562 565 569 572 572 570 579 584 583 583 585 592 600 605 612 621 623 625 630 633 633 631 632 636 637 635 633 631 635 637 635 638 645 653 656 653 649 646 639 634 628 616 605 595 597 615 638 689 750 781 799 809 818 837 854 866 884 910 930 955 980 997 1015 1041 1071 1106 1131 1135 1130 1134 1140 1140 1137 1138 1145 1144 1146 1156 1156 1156 1154 1161 1170 1180 1188 1191 1193 1200 1212 1229 1243 1242 1227 1229 1224 1208 1219 1214 1196 1185 1183 1186 1181 1177 1176 1169 1165 1170 1191 1210 1232 1256 1283 1278 1262 1247 1232 1219 1202 1188 1176 1171 1163 1154 1137 1118 1117 1118 1120 1126 1131 1128 1134 1142 1157 1159 1154 1151 1140 1130 1126 1130 1132 1125 1113 1098 1084 1068 1057 1056 1073 1089 1106 1118 1122 1123 1132 1142 1138 1119 1109 1094 1082 1087 1099 1116 1134 1145 1153 1164 1177 1197 1215 1232 1250 1265 1277 1289 1296 1302 1310 1310 1302 1297 1295 1290 1280 1274 1268 1247 1228 1227 1245 1253 1251 1246 1245 1243 1236 1229 1217 1204 1199 1190 1172 1152 1145 1160 1171 1175 1177 1172 1154 1112 1079 1042 1015 993 972 958 959 974 1016 1063 1100 1128 1147 1156 1165 1174 1182 1185 1172 1147 1136 1137 1151 1176 1192 1209 1239 1273 1310 1329 1341 1365 1386 1405 1416 1410 1396 1370 1338 1308 1267 1245 1238 1219 1185 1166 1143 1122 1125 1166 1184 1194 1208 1213 1211 1204 1192 1187 1200 1229 1256 1285 1300 1311 1322 1326 1317 1312 1335 1366 1390 1424 1456 1488 1510 1520 1527 1526 1525 1524 1519 1508 1504 1503 1501 1500 1498 1495 1490 1484 1481 1479 1469 1463 1453 1444 1437 1426 1419 1415 1409 1403 1398 1381 1345 1306 1263 1229 1210 1192 1179 1167 1150 1137 1128 1127 1135 1133 1131 1149 1161 1180 1212 1237 1256 1268 1271 1270 1270 1265 1260 1262 1261 1257 1242 1223 1199 1161 1126 1122 1142 1156 1161 1160 1148 1143 1197 1246 1265 1267 1263 1259 1254 1250 1242 1234 1223 1196 1161 1168 1196 1215 1220 1215 1206 1198 1198 1202 1194 1180 1175 1181 1183 1174 1164 1162 1167 1168 1167 1169 1172 1169 1170 1174 1172 1171 1165 1160 1153 1147 1142 1133 1125 1119 1115 1113 1105 1101 1100 1095 1094 1097 1093 1083 1080 1090 1099 1101 1095 1090 1088 1083 1078 1075 1072 1068 1064 1061 1057 1057 1067 1076 1073 1074 1084 1091 1091 1082 1076 1071 1067 1062 1058 1054 1055 1055 1052 1044 1039 1034 1030 1029 1026 1017 1013 1009 1006 1001 996 992 987 983 979 971 964 961 958 950 942 942 943 933 926 920 916 913 911 906 900 895 891 887 881 879 874 868 863 859 855 849 841 837 838 836 828 816 805 805 809 810 807 804 804 804 801 797 795 794 795 794 794 795 797 797 797 799 799 797 798 802 796 793 791 785 788 797 799 800 802 799 793 792 786 785 791 799 811 815 821 831 837 850 860 861 865 872 877 882 886 889 896 905 913 917 915 911 902 893 885 881 878 870 861 861 870 901 944 972 997 1016 1033 1054 1066 1076 1093 1113 1117 1107 1095 1092 1086 1083 1086 1095 1101 1113 1135 1140 1126 1089 1050 1043 1066 1103 1126 1145 1168 1189 1202 1207 1210 1213 1224 1237 1253 1266 1272 1277 1278 1273 1260 1259 1271 1286 1295 1296 1293 1291 1290 1289 1288
 424 424 423 423 423 422 421 422 422 422 422 421 421 421 422 422 423 425 425 424 423 423 423 422 422 424 426 426 426 427 427 425 425 426 426 426 425 425 425 425 425 425 427 427 427 426 426 426 427 428 429 429 428 427 426 426 427 427 427 426 426 426 426 427 428 430 431 431 433 435 439 442 446 450 456 463 472 489 504 522 532 535 538 542 548 556 559 561 565 569 572 576 579 583 586 590 594 598 603 606 604 603 606 611 614 618 621 622 623 626 629 636 646 651 650 650 653 657 661 662 664 670 678 686 695 703 708 708 699 691 689 694 699 704 705 704 702 702 702 700 698 695 694 696 699 702 703 701 692 675 664 660 649 638 632 629 621 605 593 587 574 565 563 562 561 561 562 564 565 558 544 533 526 518 509 504 507 513 519 524 525 525 525 523 520 517 515 513 511 511 511 513 516 519 522 524 525 526 527 529 531 529 524 519 521 537 558 559 549 548 548 557 568 571 565 548 526 512 508 494 477 471 470 469 462 453 452 450 446 443 445 446 447 446 447 447 445 442 442 442 442 441 439 438 436 434 432 432 431 429 429 427 426 428 427 431 430 422 419 420 420 420 420 420 420 420 420 420 420 420 420 419 419 419 419 419 419 419 419 419 419 420 420 421 421 422 423 425 426 427 428 429 430 430 431 431 432 432 433 433 434 434 435 436 437 438 439 440 442 444 446 449 452 456 461 466 471 477 480 481 476 471 469 462 458 465 475 475 464 458 456 449 440 433 429 428 431 438 445 448 447 441 437 439 442 444 445 441 440 449 459 467 490 505 514 535 539 524 518 507 497 493 496 499 501 506 510 513 516 519 521 523 526 530 533 536 540 542 541 542 543 543 543 540 541 542 540 538 536 535 535 527 526 527 531 530 529 531 536 540 541 542 541 540 546 561 569 571 574 579 586 591 597 604 606 609 612 614 618 617 617 614 614 618 613 612 617 620 616 620 630 630 632 629 625 620 611 604 598 590 576 568 577 609 647 697 740 762 780 800 813 829 838 846 857 873 893 913 928 934 957 993 1024 1059 1081 1084 1091 1089 1089 1093 1100 1104 1106 1111 1108 1095 1081 1076 1077 1082 1087 1104 1114 1114 1133 1146 1155 1162 1167 1166 1157 1147 1135 1121 1129 1130 1125 1129 1129 1124 1124 1127 1129 1127 1126 1130 1145 1160 1174 1186 1196 1196 1182 1173 1178 1161 1125 1107 1095 1089 1082 1075 1072 1071 1074 1078 1083 1088 1091 1096 1101 1106 1112 1107 1099 1089 1086 1089 1097 1103 1101 1089 1072 1060 1048 1032 1024 1026 1035 1041 1039 1040 1044 1044 1046 1051 1048 1049 1048 1048 1063 1078 1102 1121 1139 1150 1161 1172 1185 1200 1214 1226 1237 1251 1262 1271 1278 1282 1280 1275 1273 1265 1254 1240 1228 1222 1226 1223 1205 1198 1212 1213 1207 1204 1207 1201 1197 1191 1176 1167 1162 1153 1136 1125 1120 1129 1136 1138 1133 1124 1098 1059 1024 995 972 951 935 931 944 976 1002 1028 1065 1097 1118 1129 1142 1154 1159 1150 1133 1107 1093 1096 1114 1143 1174 1196 1212 1230 1250 1260 1273 1294 1312 1329 1346 1347 1339 1312 1274 1243 1219 1209 1206 1191 1167 1156 1137 1118 1113 1126 1144 1159 1174 1180 1185 1180 1168 1160 1166 1196 1212 1227 1232 1243 1255 1257 1256 1261 1296 1326 1328 1343 1370 1410 1443 1457 1473 1486 1490 1490 1487 1482 1473 1471 1477 1480 1477 1473 1466 1464 1465 1464 1462 1458 1450 1443 1434 1425 1420 1417 1412 1408 1403 1394 1370 1324 1275 1239 1212 1190 1176 1163 1142 1119 1105 1096 1094 1084 1072 1077 1084 1095 1115 1144 1176 1188 1197 1210 1221 1222 1214 1210 1211 1216 1212 1200 1182 1147 1109 1097 1119 1135 1135 1121 1105 1108 1142 1198 1232 1239 1240 1241 1242 1240 1230 1218 1205 1165 1130 1137 1163 1191 1198 1196 1191 1186 1187 1188 1181 1164 1157 1158 1157 1151 1148 1145 1141 1138 1142 1150 1153 1154 1156 1157 1159 1156 1153 1146 1139 1138 1134 1124 1119 1113 1110 1104 1099 1096 1088 1079 1080 1076 1070 1066 1062 1059 1062 1069 1079 1074 1068 1065 1065 1062 1058 1053 1050 1046 1045 1044 1043 1055 1060 1059 1064 1070 1073 1073 1072 1065 1056 1053 1050 1049 1050 1048 1041 1035 1029 1027 1026 1029 1028 1017 1008 1002 1000 994 990 987 979 974 969 958 953 949 945 941 937 929 924 918 913 910 908 906 903 899 892 885 880 874 868 866 861 854 852 848 846 842 837 832 829 829 821 806 796 794 794 799 801 800 799 796 793 792 790 790 791 790 789 792 793 794 794 795 794 791 789 793 791 786 782 779 775 779 792 795 796 793 786 782 775 772 771 772 780 793 798 799 803 818 831 839 843 846 846 846 846 854 860 858 860 865 871 869 866 862 856 853 846 836 824 824 837 866 908 937 975 1003 1017 1023 1018 1025 1040 1051 1052 1043 1036 1032 1033 1040 1048 1060 1067 1074 1091 1100 1090 1063 1035 1024 1033 1065 1091 1114 1134 1152 1166 1176 1185 1197 1212 1229 1246 1259 1266 1268 1265 1254 1243 1251 1267 1280 1285 1285 1281 1279 1279 1279 1276
 424 424 425 425 424 423 422 422 422 422 422 422 421 421 421 422 423 425 425 423 423 423 423 422 422 423 425 426 427 428 428 426 425 425 426 426 425 425 425 425 425 425 426 427 428 427 427 426 425 425 427 428 429 429 427 426 427 427 427 427 427 427 427 427 427 428 430 430 430 431 433 436 439 443 448 455 465 481 498 517 526 530 533 536 541 548 551 550 553 558 560 564 568 571 573 576 581 587 592 596 598 598 599 602 605 609 613 614 613 615 619 627 640 646 645 645 645 646 646 645 648 657 668 677 684 686 685 684 678 674 674 679 684 688 690 691 694 694 691 687 686 686 686 688 690 691 689 684 672 656 649 645 631 620 614 606 596 584 578 573 562 551 545 541 537 534 535 538 540 539 532 522 513 506 500 501 509 517 524 526 525 524 523 522 519 515 511 508 507 507 508 511 515 519 523 526 526 525 525 525 525 522 517 513 517 535 561 551 535 536 539 555 564 566 565 549 526 509 497 479 464 456 453 449 447 448 448 447 444 441 444 445 446 445 444 444 443 441 440 440 440 440 439 436 434 432 431 430 429 428 427 424 421 424 427 429 424 419 419 420 420 420 420 420 420 420 420 420 420 419 419 419 419 419 419 419 419 419 419 419 419 420 420 420 421 422 422 423 424 425 426 426 427 428 428 428 429 429 430 430 431 431 432 433 434 435 436 437 439 440 443 446 448 452 456 460 464 468 470 470 467 464 461 457 456 460 465 464 458 453 450 445 439 435 431 430 432 436 440 442 441 439 437 437 439 441 441 440 440 445 456 465 479 487 482 480 480 473 469 467 471 461 461 463 467 473 476 478 483 489 497 501 505 509 512 515 519 521 520 519 521 525 523 521 521 518 515 513 514 518 518 515 515 515 517 519 520 522 524 525 526 527 528 528 529 537 550 554 562 567 572 577 584 591 594 596 598 600 604 603 606 607 602 601 599 602 604 607 605 605 613 615 616 612 607 602 596 588 582 568 552 546 556 597 646 688 719 736 755 781 799 813 816 823 833 842 858 877 889 896 913 942 965 983 997 1006 1028 1030 1032 1044 1058 1063 1065 1063 1053 1039 1023 1012 1004 1011 1014 1021 1023 1033 1061 1075 1082 1082 1083 1089 1094 1089 1083 1079 1083 1093 1104 1098 1090 1085 1085 1085 1086 1087 1091 1096 1100 1109 1116 1114 1112 1108 1102 1102 1119 1107 1077 1055 1045 1039 1035 1031 1033 1038 1044 1049 1052 1055 1057 1060 1064 1068 1069 1061 1054 1048 1050 1057 1069 1066 1056 1042 1029 1020 1010 997 993 997 1004 1005 1000 998 1000 1001 1001 1003 1007 1015 1023 1031 1051 1079 1121 1141 1154 1162 1170 1179 1188 1195 1205 1217 1227 1232 1242 1247 1258 1263 1260 1255 1246 1229 1219 1207 1199 1197 1201 1196 1179 1165 1177 1182 1180 1176 1170 1157 1158 1156 1146 1136 1128 1116 1106 1094 1091 1091 1093 1091 1084 1074 1054 1023 991 957 927 910 909 924 940 970 983 991 1020 1055 1069 1079 1097 1110 1113 1098 1081 1068 1063 1069 1096 1120 1149 1178 1196 1212 1228 1234 1236 1248 1263 1273 1290 1303 1289 1255 1226 1212 1201 1191 1180 1163 1150 1140 1121 1108 1101 1101 1112 1124 1140 1154 1162 1162 1151 1142 1143 1164 1183 1196 1202 1209 1217 1217 1215 1225 1257 1278 1289 1307 1320 1343 1367 1380 1400 1416 1420 1425 1431 1428 1423 1420 1428 1437 1438 1431 1420 1418 1425 1431 1434 1433 1430 1422 1413 1409 1409 1407 1403 1405 1401 1388 1363 1318 1272 1238 1208 1183 1166 1151 1126 1100 1084 1060 1043 1042 1040 1038 1041 1054 1070 1088 1116 1137 1153 1174 1186 1189 1184 1178 1181 1180 1176 1172 1157 1122 1095 1077 1083 1099 1092 1075 1074 1089 1113 1156 1185 1199 1213 1224 1225 1219 1207 1193 1177 1133 1106 1108 1127 1162 1182 1186 1184 1182 1182 1178 1170 1160 1150 1146 1141 1137 1135 1126 1125 1129 1134 1140 1144 1145 1144 1146 1146 1145 1144 1138 1135 1137 1132 1124 1116 1109 1105 1098 1093 1083 1072 1065 1063 1062 1060 1053 1048 1043 1041 1041 1054 1063 1059 1055 1053 1049 1043 1043 1041 1038 1038 1035 1032 1037 1043 1040 1043 1049 1052 1055 1056 1051 1043 1041 1040 1039 1038 1034 1030 1027 1023 1020 1018 1023 1021 1016 1006 997 993 989 986 978 972 967 959 952 946 942 939 932 927 920 913 910 907 902 899 899 897 890 884 879 874 870 862 858 854 849 845 841 840 838 833 825 821 820 818 806 793 784 784 787 793 794 794 793 789 788 787 784 783 784 784 786 788 791 793 795 795 791 785 786 787 780 774 769 766 771 787 793 792 784 778 773 765 761 759 757 759 770 781 785 783 790 804 815 822 828 829 827 825 821 823 820 823 830 832 834 838 835 829 825 824 816 809 808 815 842 884 914 948 979 988 981 977 979 988 996 1000 1007 1011 1010 1013 1021 1027 1036 1047 1053 1062 1072 1071 1060 1041 1023 1013 1025 1048 1075 1099 1113 1124 1136 1152 1172 1194 1213 1230 1240 1246 1249 1241 1230 1225 1241 1260 1274 1279 1279 1276 1272 1269 1266 1261
 424 424 424 425 426 424 422 422 423 423 422 422 421 420 419 420 421 423 423 421 422 423 424 424 423 423 424 425 426 427 428 427 426 425 425 425 425 425 425 425 425 425 426 427 428 427 426 425 425 425 425 426 427 429 430 429 428 427 427 427 427 427 427 427 428 428 429 429 429 429 431 432 434 438 442 449 460 478 497 515 520 521 524 529 532 537 539 539 541 545 549 553 556 557 559 563 568 573 579 584 588 590 591 591 591 593 595 596 598 602 607 613 623 631 633 634 631 628 627 629 636 646 656 661 664 661 659 655 653 654 657 665 670 675 676 677 681 682 678 673 672 671 671 673 676 673 666 659 649 640 636 624 609 602 595 584 576 567 560 555 544 528 519 513 508 505 506 508 509 511 510 504 498 495 496 500 511 521 527 526 524 522 521 519 515 508 503 502 504 506 509 511 515 524 532 534 531 526 523 521 521 518 512 508 512 529 537 527 524 535 543 555 555 555 555 533 512 495 479 463 453 447 443 440 441 443 446 444 442 440 442 444 444 443 441 441 440 439 437 437 437 437 436 434 432 431 430 429 429 428 425 421 417 419 422 422 420 420 420 420 420 420 420 420 420 420 420 419 419 419 419 419 419 419 419 419 419 419 419 419 419 419 420 420 420 421 421 422 422 423 423 423 424 424 425 425 425 426 426 427 427 428 428 429 430 430 431 432 434 435 438 440 443 446 449 452 455 458 459 460 459 457 455 453 453 454 455 454 451 448 445 441 438 435 432 432 433 434 437 438 438 437 436 437 438 438 439 440 441 445 452 459 466 470 465 453 450 453 454 456 454 444 436 435 440 444 444 445 450 460 471 479 483 489 493 496 500 504 506 505 504 502 497 496 496 497 499 503 507 511 510 509 509 511 513 518 520 522 523 523 520 519 519 520 520 520 523 532 545 554 560 565 571 575 577 580 583 585 587 585 585 591 589 588 587 589 590 591 591 590 592 595 596 592 586 581 576 570 563 550 533 528 538 573 625 673 693 703 718 745 761 776 784 797 812 822 826 828 838 852 866 884 899 917 930 938 950 963 968 971 975 979 984 980 975 966 950 937 938 944 945 948 954 960 972 977 986 1000 1015 1030 1036 1039 1036 1032 1034 1044 1058 1049 1042 1033 1028 1028 1028 1028 1027 1030 1034 1040 1042 1032 1027 1022 1027 1040 1055 1051 1035 1019 1008 1001 997 995 995 1001 1006 1008 1008 1009 1011 1014 1016 1019 1019 1015 1009 1007 1009 1014 1015 1012 1007 995 987 984 973 954 949 953 959 961 967 975 975 977 984 982 987 997 1005 1017 1033 1077 1125 1151 1161 1166 1170 1173 1176 1181 1186 1195 1210 1215 1214 1218 1224 1218 1212 1209 1201 1193 1184 1178 1170 1171 1173 1166 1153 1136 1126 1129 1135 1131 1123 1117 1121 1114 1099 1088 1076 1068 1059 1051 1042 1037 1036 1035 1038 1032 1010 977 950 922 904 896 907 926 935 946 955 964 977 998 1009 1016 1029 1037 1032 1023 1022 1031 1037 1044 1062 1086 1113 1147 1167 1181 1205 1215 1219 1224 1235 1243 1252 1253 1239 1221 1206 1194 1175 1161 1144 1113 1095 1088 1083 1081 1072 1059 1059 1061 1071 1089 1106 1123 1130 1125 1117 1125 1138 1156 1173 1179 1183 1186 1177 1180 1211 1236 1257 1275 1285 1294 1299 1302 1312 1327 1329 1340 1364 1372 1354 1345 1348 1358 1369 1374 1370 1365 1362 1368 1369 1366 1363 1361 1360 1360 1367 1374 1371 1371 1372 1366 1331 1293 1255 1219 1190 1164 1144 1127 1102 1069 1040 1005 987 995 1002 1006 1011 1020 1035 1046 1055 1068 1091 1125 1147 1155 1159 1159 1159 1153 1150 1143 1122 1097 1077 1055 1043 1040 1034 1034 1047 1063 1085 1110 1131 1142 1163 1178 1180 1176 1169 1162 1151 1118 1093 1087 1104 1136 1160 1180 1185 1183 1175 1167 1159 1146 1128 1114 1103 1102 1104 1111 1118 1122 1126 1131 1133 1133 1133 1135 1135 1131 1129 1129 1130 1133 1126 1118 1112 1108 1102 1090 1078 1071 1063 1055 1051 1051 1047 1037 1034 1032 1028 1028 1038 1053 1048 1036 1034 1032 1031 1032 1030 1030 1029 1026 1022 1021 1017 1015 1013 1013 1017 1017 1015 1019 1028 1033 1034 1030 1025 1019 1015 1014 1011 1009 1006 1008 1013 1012 1008 994 986 980 973 969 965 959 951 942 934 930 927 923 919 909 900 899 899 894 892 891 888 882 878 871 867 863 858 856 851 845 839 835 833 830 825 820 815 811 809 804 795 782 781 780 780 783 787 787 785 783 780 778 776 777 779 779 783 786 790 794 795 788 779 775 773 773 767 761 759 769 781 784 782 775 772 767 758 753 750 748 746 748 760 763 766 773 780 782 782 786 796 794 790 792 787 790 791 794 798 803 803 799 797 795 796 791 785 790 801 824 854 882 901 916 924 932 935 937 940 946 953 967 979 986 991 997 1002 1008 1020 1030 1036 1048 1058 1059 1046 1023 994 986 999 1024 1047 1059 1068 1088 1115 1142 1167 1186 1202 1209 1212 1211 1203 1198 1201 1220 1242 1257 1266 1268 1263 1256 1251 1245 1237
 425 424 424 424 425 424 423 422 424 423 422 422 421 420 418 418 418 419 421 422 422 423 424 425 425 424 424 424 424 424 426 428 427 425 424 424 424 423 423 423 425 426 426 424 424 424 425 425 424 425 425 425 425 426 428 430 430 429 428 427 427 427 427 427 429 430 430 428 427 427 429 431 432 435 440 445 458 479 497 509 513 514 518 524 525 527 531 533 532 534 537 541 545 549 553 557 562 565 567 570 573 576 577 576 576 576 576 577 579 583 587 590 598 609 613 612 608 606 607 615 626 634 639 641 640 637 635 632 632 632 637 645 651 654 655 655 658 661 660 656 652 651 653 656 654 646 635 626 618 616 611 598 586 581 571 560 552 544 538 532 522 507 500 496 492 487 485 487 488 489 489 487 486 488 492 498 508 516 521 520 520 519 516 513 505 498 495 496 502 509 512 515 520 532 535 536 532 524 519 518 518 516 506 503 506 510 514 512 514 528 537 545 543 536 528 509 492 475 459 448 441 437 436 438 439 442 444 442 440 438 440 440 440 440 439 438 437 437 436 435 434 435 434 433 432 430 430 429 427 427 426 426 422 420 421 421 420 420 420 420 420 420 420 420 420 420 419 419 419 419 418 418 418 418 418 418 418 418 418 419 419 419 419 419 419 419 420 420 420 420 420 421 421 421 422 422 422 422 422 423 423 424 425 425 426 426 427 427 428 430 432 435 438 441 444 446 448 450 451 451 451 450 449 448 448 448 448 447 445 443 441 438 436 434 432 432 432 433 434 435 435 435 435 435 436 437 438 439 441 444 449 453 457 459 455 450 447 448 448 448 445 439 433 430 431 432 432 434 439 446 458 465 467 472 479 482 486 494 498 500 499 494 487 485 488 492 495 499 505 511 513 511 507 507 510 513 517 518 520 521 520 518 515 512 514 514 519 526 538 537 536 543 553 563 566 567 570 571 572 572 573 575 575 572 572 572 574 576 575 573 572 573 573 567 563 557 555 550 543 532 518 517 533 561 598 643 670 681 693 709 721 731 743 755 769 785 795 799 807 818 828 830 838 855 867 872 872 878 890 896 899 900 901 903 904 905 899 895 899 899 893 893 903 910 911 914 927 947 960 973 983 988 987 984 980 979 981 979 980 978 971 969 969 968 967 968 973 981 986 980 976 974 980 988 995 998 995 988 979 972 969 966 966 970 974 974 972 972 974 975 976 977 976 970 964 963 963 966 964 957 948 939 931 924 914 909 913 920 930 940 945 951 958 962 965 970 980 986 992 1004 1023 1062 1103 1131 1145 1151 1154 1156 1160 1161 1164 1170 1179 1183 1182 1179 1170 1166 1163 1161 1163 1160 1155 1144 1130 1132 1136 1131 1119 1095 1080 1078 1086 1087 1081 1073 1065 1055 1051 1042 1037 1033 1027 1020 1004 996 988 983 979 969 952 935 920 903 893 892 902 918 926 932 934 943 962 972 981 987 995 998 992 985 984 991 1014 1032 1051 1068 1088 1116 1141 1155 1173 1191 1199 1203 1208 1217 1221 1215 1205 1194 1177 1159 1137 1118 1094 1076 1058 1043 1041 1047 1031 1007 1007 1014 1021 1032 1041 1047 1059 1072 1087 1099 1106 1113 1129 1142 1144 1151 1148 1140 1168 1193 1212 1224 1233 1249 1264 1266 1257 1266 1282 1305 1320 1320 1305 1286 1274 1287 1316 1328 1334 1323 1304 1299 1296 1290 1294 1298 1292 1281 1286 1302 1313 1313 1314 1311 1283 1254 1217 1183 1166 1142 1119 1098 1061 1022 997 968 956 957 959 974 988 993 1002 1006 1008 1015 1028 1054 1082 1109 1128 1132 1134 1128 1114 1100 1080 1060 1036 1000 979 982 999 1008 1023 1038 1050 1062 1077 1085 1102 1118 1126 1129 1131 1133 1128 1107 1077 1071 1092 1114 1131 1142 1150 1156 1152 1134 1115 1101 1077 1056 1046 1053 1064 1091 1110 1115 1118 1119 1120 1121 1125 1126 1125 1124 1120 1116 1119 1120 1114 1108 1104 1100 1094 1084 1073 1067 1061 1052 1042 1038 1032 1027 1024 1018 1016 1017 1027 1034 1028 1023 1020 1020 1023 1024 1021 1016 1014 1013 1013 1014 1010 1004 999 997 1000 998 997 1000 1003 1007 1014 1014 1013 1009 1004 1003 1001 997 994 993 998 1004 1001 987 972 964 962 959 962 953 943 935 926 922 916 911 905 898 894 892 891 888 884 881 878 876 872 867 861 856 854 850 845 840 836 832 827 824 819 813 808 806 804 803 796 786 781 778 773 774 777 777 777 777 773 771 770 772 774 777 780 785 787 788 789 786 778 774 766 765 766 761 756 762 775 778 775 768 761 754 749 744 742 741 739 736 737 736 740 742 746 749 755 757 758 766 767 764 763 770 776 778 780 780 778 772 772 775 772 765 765 776 795 811 834 852 866 876 882 887 883 890 899 911 920 928 937 948 958 968 976 985 994 1006 1013 1026 1038 1042 1027 1000 969 958 961 978 997 1008 1021 1042 1072 1109 1145 1164 1175 1177 1174 1169 1167 1171 1182 1201 1219 1235 1245 1246 1241 1231 1223 1216 1206
 426 425 424 424 424 424 423 423 423 422 422 422 422 421 419 417 416 419 421 423 424 424 424 424 424 424 424 425 424 424 425 427 427 425 424 424 424 423 421 421 424 426 425 423 421 423 425 425 425 425 425 425 425 425 425 426 429 430 430 429 427 427 427 427 430 432 431 430 428 428 428 429 430 432 437 442 456 479 495 504 508 511 515 520 520 520 524 527 527 528 529 533 539 546 551 556 560 563 562 561 561 562 563 563 563 564 565 563 563 565 566 568 574 584 588 586 585 587 590 600 613 621 624 623 622 619 616 616 616 617 622 629 634 635 634 635 638 640 640 636 631 631 634 636 633 624 611 603 597 591 585 574 564 558 548 539 531 521 513 509 503 494 490 486 479 474 473 474 476 477 476 476 478 482 486 493 501 507 510 512 512 511 509 504 496 491 489 493 508 518 521 523 529 533 533 529 521 516 515 515 515 508 495 493 496 495 496 497 496 498 506 514 511 506 504 486 468 452 441 436 434 433 433 434 436 438 440 440 439 438 440 439 438 438 439 438 437 436 435 434 434 434 432 432 431 430 429 428 427 427 429 432 426 422 421 421 421 420 420 420 420 420 420 420 419 419 419 419 418 418 418 418 418 418 418 418 418 418 418 418 418 418 418 418 418 418 418 418 418 418 418 419 419 419 419 419 419 419 419 419 420 421 422 422 422 422 423 423 423 424 427 431 433 436 439 440 442 444 445 445 445 444 444 443 443 443 442 441 440 439 437 435 434 432 431 431 431 431 432 432 433 433 433 434 434 435 436 437 439 442 445 448 451 451 449 446 444 444 444 443 441 437 433 430 429 429 429 431 434 438 448 457 458 461 466 469 470 482 491 493 495 495 490 489 490 490 491 492 493 502 512 515 512 510 510 510 510 512 517 520 516 504 502 502 504 506 512 519 526 527 531 535 539 544 547 545 551 559 560 561 562 561 559 557 557 557 559 559 560 560 558 549 544 541 537 537 541 537 530 517 510 519 540 557 576 606 636 653 671 685 693 698 701 706 720 739 751 763 771 779 789 797 803 811 818 813 805 811 829 840 847 850 854 852 853 860 868 867 864 861 856 855 863 871 876 879 888 904 917 928 938 940 940 944 944 940 938 935 935 936 932 932 933 936 938 937 938 943 948 948 947 944 947 951 955 956 956 953 947 940 936 936 937 941 944 944 944 945 946 947 947 944 939 930 924 923 924 922 918 914 907 899 888 882 881 886 893 902 910 918 926 935 943 954 960 964 977 983 988 995 1010 1033 1069 1094 1107 1117 1122 1126 1134 1133 1132 1131 1131 1131 1134 1135 1133 1129 1128 1126 1125 1124 1121 1109 1098 1094 1088 1085 1075 1060 1051 1045 1037 1035 1032 1031 1028 1021 1012 1012 1015 1014 1006 991 983 969 951 933 927 925 920 915 904 884 875 871 874 887 894 907 910 913 932 944 951 956 965 964 944 931 942 957 987 1013 1034 1058 1072 1090 1114 1130 1142 1157 1169 1178 1179 1180 1179 1168 1164 1156 1138 1118 1097 1071 1049 1039 1026 1014 1016 1020 1009 988 982 990 1001 1010 1016 1017 1020 1021 1038 1063 1070 1069 1077 1089 1107 1116 1111 1101 1111 1123 1132 1141 1154 1177 1197 1208 1211 1223 1248 1273 1288 1289 1276 1248 1219 1225 1268 1295 1304 1292 1275 1267 1256 1256 1264 1261 1247 1227 1230 1247 1269 1272 1266 1258 1237 1212 1182 1158 1144 1123 1096 1063 1019 993 975 952 938 931 927 943 960 966 969 974 982 990 1000 1016 1035 1058 1080 1091 1097 1092 1071 1059 1049 1028 995 965 944 943 958 976 985 1001 1011 1024 1038 1040 1053 1072 1086 1093 1098 1102 1100 1082 1056 1052 1079 1100 1111 1111 1109 1118 1110 1093 1081 1063 1039 1026 1022 1031 1044 1077 1101 1108 1110 1110 1110 1109 1109 1110 1110 1112 1109 1104 1103 1107 1107 1104 1097 1087 1080 1076 1068 1059 1054 1047 1035 1029 1025 1022 1015 1008 1011 1013 1014 1013 1017 1012 1009 1010 1013 1014 1010 1008 1008 1006 1005 1005 1000 993 991 991 991 989 986 988 990 988 989 992 996 998 998 997 991 986 984 984 983 989 990 976 963 954 950 948 948 943 937 927 920 915 908 903 896 896 893 888 887 884 879 874 871 868 864 860 856 853 851 848 843 838 833 829 823 819 811 806 805 802 799 800 794 786 780 772 767 766 769 769 770 769 766 764 764 767 771 775 776 781 783 783 782 781 777 770 758 753 760 762 757 759 766 768 762 757 752 747 740 735 736 737 734 731 725 720 720 723 724 727 738 739 735 744 747 748 750 753 760 764 765 765 763 759 755 751 751 753 757 772 788 802 818 832 847 858 863 859 856 865 875 884 888 894 904 915 929 938 949 961 974 987 999 1009 1015 1009 989 968 949 941 937 946 963 975 989 1007 1030 1066 1113 1139 1149 1147 1143 1140 1144 1153 1169 1187 1200 1212 1220 1221 1217 1206 1195 1185 1179
 427 426 425 425 426 425 423 423 422 422 422 423 422 422 421 419 419 421 422 423 425 425 424 424 424 424 425 426 425 426 426 426 425 425 425 425 424 424 421 420 423 425 425 423 422 423 426 426 426 425 425 425 425 425 425 426 427 429 430 430 429 428 427 427 429 431 432 432 431 430 428 427 428 431 435 440 455 477 492 499 503 505 506 508 509 511 514 517 522 524 524 526 533 542 548 552 556 557 553 549 548 548 548 548 547 547 548 546 545 545 545 545 549 555 555 555 559 565 573 586 600 607 605 603 602 600 598 600 604 606 610 613 616 616 617 619 622 621 618 613 609 609 614 614 608 598 590 584 573 563 555 546 537 529 520 511 500 490 486 485 484 482 478 472 466 462 461 462 463 464 464 462 464 472 477 483 489 493 497 499 500 500 499 496 489 484 483 491 513 527 535 536 536 533 532 529 517 507 506 506 499 488 484 482 481 480 481 480 478 473 475 480 477 476 474 457 444 435 430 430 431 431 431 433 434 435 436 436 436 436 438 438 437 436 436 435 435 434 433 433 433 432 432 432 431 430 429 429 428 427 430 431 427 424 422 421 421 420 420 420 420 420 419 419 419 419 418 418 418 418 418 418 418 418 418 418 418 418 418 418 418 418 418 418 418 418 418 418 418 418 418 418 418 418 418 418 418 418 418 418 418 418 419 419 419 419 419 419 419 419 421 426 429 431 433 435 436 438 438 439 439 438 438 438 437 437 437 436 435 434 433 432 431 430 430 429 429 429 430 430 430 430 431 431 432 433 434 435 437 438 441 442 444 443 443 441 441 440 440 439 437 435 432 430 429 428 427 426 430 433 438 448 453 456 458 460 461 463 471 483 488 488 488 489 487 481 477 477 477 479 491 500 495 489 486 484 486 490 492 490 486 483 484 488 495 499 501 505 511 518 525 529 526 528 530 531 533 542 547 544 538 539 533 528 529 530 538 541 538 539 535 531 532 533 534 535 537 531 514 504 513 527 543 556 568 583 599 615 634 656 667 675 673 674 683 696 705 716 732 736 740 749 755 762 759 748 744 754 765 774 790 797 807 809 813 820 828 829 824 821 818 820 826 830 834 841 848 857 865 879 891 890 885 881 883 882 879 878 879 879 881 892 907 911 907 900 896 897 901 905 907 908 910 911 911 909 908 907 904 900 896 897 900 903 904 905 905 903 903 904 904 900 894 890 886 885 887 889 886 881 878 874 862 858 862 870 877 881 886 897 910 923 931 941 952 958 964 970 975 983 994 1002 1011 1022 1029 1036 1044 1057 1073 1078 1080 1078 1070 1069 1075 1074 1082 1094 1091 1088 1092 1089 1078 1061 1057 1055 1048 1042 1034 1021 1001 988 984 990 998 1006 1006 1000 993 985 984 986 969 957 946 919 896 886 891 887 878 869 861 850 840 826 819 843 859 873 881 881 880 889 898 909 916 915 899 890 910 929 945 968 990 1022 1049 1073 1097 1112 1120 1125 1131 1139 1143 1146 1143 1131 1118 1100 1078 1066 1053 1035 1026 1021 1009 999 999 998 985 958 939 943 957 964 971 975 977 978 981 991 998 1002 1005 1014 1031 1040 1042 1046 1050 1048 1058 1073 1086 1102 1120 1134 1147 1162 1187 1228 1251 1256 1251 1226 1196 1193 1215 1249 1260 1262 1257 1240 1210 1199 1201 1193 1182 1175 1180 1192 1208 1222 1218 1196 1173 1153 1139 1128 1109 1087 1059 1027 1000 981 959 939 923 909 902 911 922 929 934 942 955 968 981 998 1012 1020 1027 1035 1036 1034 1029 1024 1014 989 966 940 920 917 927 952 965 976 982 988 1007 1016 1025 1038 1050 1058 1063 1065 1061 1044 1025 1021 1046 1076 1082 1079 1073 1068 1063 1052 1041 1025 1007 996 1002 1018 1027 1050 1085 1095 1094 1090 1093 1099 1100 1100 1098 1097 1095 1090 1088 1087 1088 1093 1091 1083 1073 1062 1054 1048 1043 1037 1027 1023 1019 1012 1007 999 997 998 988 983 991 998 998 998 1003 1004 1003 1003 1004 1004 1001 996 990 987 986 985 982 979 978 978 976 974 973 973 974 975 983 989 985 979 974 969 964 966 972 965 956 947 942 939 936 932 925 919 912 909 904 894 885 887 884 881 880 877 875 872 866 862 858 854 853 850 847 844 842 837 832 827 821 815 809 803 798 796 796 793 789 783 778 767 760 755 754 758 763 766 761 758 760 764 766 767 768 772 777 775 773 772 768 762 752 745 742 740 738 742 749 747 743 740 738 734 732 732 731 731 731 729 720 713 708 706 704 714 726 723 721 723 727 731 737 740 745 750 751 754 754 747 737 734 731 739 752 769 778 786 798 806 818 829 835 838 833 839 846 845 847 856 870 882 892 904 916 933 948 963 976 984 983 970 951 939 931 923 914 911 922 938 959 978 994 1020 1060 1090 1108 1108 1101 1099 1111 1127 1149 1163 1170 1178 1185 1188 1186 1179 1168 1159 1163
 427 427 426 427 427 426 423 422 422 423 423 423 423 422 422 423 423 424 423 423 423 423 424 424 424 425 426 425 425 425 425 424 423 424 424 425 425 424 422 421 423 425 425 424 423 423 424 425 425 425 425 425 426 426 427 428 429 429 428 428 429 430 429 428 428 429 430 430 430 430 428 427 427 430 435 442 454 472 484 491 495 495 494 494 497 501 506 511 517 522 522 524 531 538 541 542 542 540 536 534 536 538 537 535 533 533 532 530 528 527 526 526 528 532 532 531 537 543 553 569 583 590 587 584 582 581 582 585 590 594 597 598 598 599 602 605 605 602 599 595 592 593 595 589 578 568 563 555 543 534 527 521 514 504 496 487 475 468 470 473 475 473 469 462 457 454 454 455 456 456 454 452 456 463 468 472 476 480 484 487 489 491 492 490 482 476 476 486 510 522 532 532 534 534 529 525 515 498 492 488 482 476 477 475 471 467 466 468 466 461 455 449 445 444 441 435 432 430 428 428 429 430 431 432 433 434 435 435 435 435 436 435 435 436 434 433 432 432 433 434 432 430 431 431 429 429 428 428 428 427 427 427 425 424 422 421 421 420 420 420 419 419 419 419 419 418 418 418 418 418 418 418 418 418 418 418 418 418 418 418 418 418 418 418 418 418 418 418 418 418 418 418 418 418 418 418 418 418 418 418 418 418 418 418 418 418 418 418 418 418 418 421 424 427 429 430 431 432 432 433 433 433 433 432 432 432 431 431 431 430 429 429 428 428 427 427 427 427 427 427 427 428 428 429 429 430 431 432 433 435 436 437 438 438 437 437 437 437 436 436 434 433 431 429 428 427 426 424 427 428 432 439 448 456 458 458 459 460 461 465 469 470 474 475 474 471 467 465 463 461 463 469 469 464 460 461 467 474 475 473 469 470 476 483 491 497 497 496 497 501 505 505 507 510 514 519 523 523 519 519 517 514 513 511 514 516 517 518 519 520 522 524 527 529 533 534 533 517 487 488 512 525 544 560 571 580 588 599 613 628 641 654 656 655 657 661 664 669 682 692 697 704 707 704 702 700 700 698 698 701 718 732 749 753 759 767 778 786 790 785 779 776 781 786 788 796 806 817 820 828 837 839 837 825 812 810 814 818 819 821 825 835 846 853 854 852 852 852 854 859 865 868 870 870 870 866 865 865 866 866 863 862 865 866 865 862 853 846 845 848 852 854 857 860 861 862 862 863 860 856 850 846 843 843 849 852 857 863 872 884 896 908 919 931 939 946 950 954 960 969 978 982 986 990 993 996 998 1004 1012 1017 1023 1026 1026 1027 1031 1038 1046 1060 1064 1066 1069 1060 1047 1034 1021 1015 1008 1002 994 982 966 953 944 952 966 977 972 968 972 962 948 935 925 914 899 881 858 843 835 833 829 825 829 825 812 794 785 812 838 852 858 850 848 862 871 884 889 891 879 869 878 895 906 919 948 982 1018 1060 1083 1090 1091 1097 1101 1109 1114 1118 1108 1090 1076 1058 1046 1038 1030 1017 1002 986 979 970 965 953 935 910 898 905 915 922 919 914 914 917 919 927 938 951 957 966 983 990 994 994 1006 1018 1035 1049 1058 1072 1083 1094 1103 1111 1124 1157 1190 1200 1204 1191 1176 1170 1180 1199 1205 1203 1204 1197 1174 1151 1123 1109 1104 1105 1108 1114 1126 1140 1150 1146 1135 1117 1104 1095 1077 1053 1034 1018 1001 977 954 928 904 886 875 879 885 895 905 912 924 942 960 977 990 996 996 1006 1004 998 999 999 992 977 963 934 905 902 909 929 946 956 958 961 981 1008 1022 1024 1027 1032 1036 1035 1027 1013 1004 1002 1012 1045 1059 1060 1051 1039 1030 1012 1001 989 971 959 967 994 1006 1020 1057 1081 1087 1081 1078 1083 1083 1088 1087 1083 1081 1079 1079 1076 1073 1072 1075 1077 1065 1053 1046 1040 1034 1029 1024 1019 1012 1007 1004 995 992 992 979 975 980 988 990 992 998 997 995 996 998 995 994 997 994 987 986 983 980 975 974 973 969 968 967 964 960 956 959 970 977 974 971 968 964 963 963 958 952 939 933 929 925 920 917 909 904 899 892 883 877 882 886 879 874 872 870 867 862 860 856 853 852 849 846 844 840 834 831 825 816 811 805 799 796 794 794 793 789 781 776 765 754 748 748 753 761 762 755 752 756 760 761 760 761 760 761 766 766 763 763 760 750 740 732 723 726 729 734 739 736 731 729 726 724 724 723 723 724 722 713 702 697 691 688 691 702 713 716 716 718 724 732 738 744 748 747 745 742 732 720 708 709 717 735 750 761 770 779 784 795 803 806 809 814 819 818 823 828 835 844 857 869 881 895 912 928 938 948 954 953 945 933 925 918 908 895 886 891 906 931 957 976 995 1015 1037 1055 1051 1046 1053 1071 1095 1120 1130 1133 1137 1144 1148 1151 1147 1140 1141 1153
 427 427 426 427 428 426 423 422 423 424 425 424 423 423 423 423 424 425 424 423 422 422 423 423 424 425 425 424 424 425 424 424 424 423 423 424 424 423 423 422 423 425 425 425 424 423 422 423 424 425 425 426 426 426 428 430 433 432 428 426 426 429 430 429 428 429 429 428 428 428 427 427 427 428 435 442 450 462 473 481 485 488 488 489 492 496 502 508 515 519 521 524 527 528 529 528 527 525 523 524 527 528 528 526 525 525 526 524 522 518 516 515 515 518 519 517 521 530 539 551 562 568 568 568 570 572 572 574 578 582 584 584 585 588 590 592 591 587 585 583 583 583 577 563 551 542 534 526 518 513 509 502 491 481 474 465 456 453 455 460 464 463 459 453 450 449 449 451 452 450 447 448 453 460 464 467 471 473 475 478 480 483 484 481 474 471 473 487 508 513 520 525 524 518 514 515 498 472 466 462 462 464 465 463 458 455 452 450 448 445 438 433 431 429 427 428 429 428 428 428 429 430 431 433 434 434 435 435 435 434 434 436 435 435 435 432 431 432 431 431 430 430 430 431 429 428 427 427 427 427 426 425 424 423 422 421 421 420 420 420 419 419 419 419 418 418 418 418 418 418 418 418 418 418 418 418 418 418 418 418 418 418 418 418 418 418 418 418 418 418 418 418 418 418 418 418 418 418 418 418 418 418 418 418 418 418 418 418 418 418 418 419 422 423 425 426 427 428 428 428 428 428 428 428 428 428 427 427 427 426 426 426 425 425 425 425 425 425 425 425 425 425 426 426 427 427 428 429 430 431 432 433 433 433 433 433 433 433 433 433 432 431 430 429 427 426 425 423 425 425 425 430 437 450 455 455 456 457 458 461 464 466 470 470 467 461 453 452 455 455 455 460 464 459 455 457 461 467 470 470 468 467 470 474 479 484 486 484 483 484 490 492 495 501 505 507 511 509 508 513 511 507 505 505 510 513 513 513 514 515 518 519 521 525 531 529 522 505 483 484 509 522 536 555 568 580 590 597 605 612 619 629 635 636 640 644 644 643 651 662 666 665 665 664 659 656 655 657 659 663 672 678 689 700 709 719 727 736 753 752 745 741 746 753 757 763 772 781 781 782 786 788 792 788 776 774 779 783 785 787 790 793 796 805 812 814 816 817 819 824 829 833 836 835 835 834 834 836 838 837 831 831 832 828 825 822 816 811 812 816 821 824 830 837 842 844 843 848 844 840 832 827 826 829 838 845 851 858 867 875 885 895 904 919 927 930 932 937 945 955 963 965 965 968 970 972 974 976 980 985 990 1002 1005 1003 1007 1013 1016 1023 1029 1037 1038 1029 1024 1012 996 985 979 975 973 964 946 929 922 931 945 953 940 932 937 928 908 898 898 889 879 858 836 821 809 809 805 793 795 790 768 756 761 783 810 824 831 826 830 845 852 859 867 872 867 853 855 869 885 902 926 968 1001 1036 1057 1058 1054 1063 1069 1070 1077 1079 1068 1057 1050 1042 1033 1022 1007 980 954 943 934 920 906 890 878 870 876 886 895 888 875 859 854 848 851 867 881 893 906 917 939 965 971 968 977 982 1002 1021 1033 1049 1061 1071 1078 1082 1084 1095 1113 1124 1132 1132 1122 1113 1125 1135 1135 1133 1132 1128 1118 1102 1083 1077 1081 1085 1082 1082 1089 1096 1101 1106 1105 1097 1087 1074 1060 1041 1028 1018 1005 981 952 918 889 865 851 853 859 870 883 890 900 919 940 961 976 983 982 981 982 978 976 977 974 967 956 936 902 889 891 910 932 944 950 950 956 984 1006 1011 1012 1015 1021 1019 1008 994 981 974 977 997 1015 1019 1015 1009 996 981 977 964 948 937 944 965 980 995 1023 1056 1069 1067 1063 1058 1058 1063 1067 1065 1068 1068 1067 1066 1063 1060 1059 1061 1059 1054 1045 1037 1032 1030 1023 1014 1007 1007 1009 1000 990 984 972 974 980 986 986 989 993 986 981 980 989 990 989 995 999 995 992 984 974 969 967 965 965 968 966 964 960 955 952 951 952 958 958 956 956 956 956 950 941 930 924 919 916 911 907 901 894 889 882 877 878 881 883 880 871 865 865 863 860 858 854 852 850 847 845 843 837 832 827 819 812 809 801 797 795 793 792 791 785 778 774 764 749 743 748 753 757 755 746 748 752 754 755 757 758 755 755 757 757 755 754 752 747 737 728 722 723 729 729 730 735 732 727 722 718 717 716 715 717 715 707 696 691 688 685 683 687 695 697 700 708 715 724 734 739 742 741 738 734 721 703 693 694 702 714 727 735 746 755 762 775 785 789 792 797 804 802 806 816 825 833 842 853 868 883 899 911 918 925 932 935 933 928 921 912 901 887 874 873 884 911 938 957 977 993 1005 1006 995 997 1015 1038 1063 1088 1096 1096 1097 1102 1105 1107 1107 1109 1117 1136
 429 427 426 426 426 425 424 424 425 426 425 424 423 424 424 423 423 424 424 424 424 424 423 423 424 424 424 424 425 425 426 426 425 424 423 423 423 423 423 423 423 424 424 424 424 423 422 423 424 425 425 425 426 427 428 431 437 436 430 426 425 426 428 427 428 430 429 427 426 427 428 428 427 427 429 435 443 452 462 472 478 481 483 485 487 491 497 506 513 517 518 515 510 508 510 512 515 517 518 518 519 520 521 521 521 522 523 523 521 518 515 513 510 508 509 507 508 515 526 534 539 543 547 553 562 566 568 569 570 572 574 573 575 578 579 579 579 578 577 573 567 559 543 528 519 511 503 497 496 494 483 468 456 450 445 439 435 435 437 440 444 444 442 440 439 440 441 444 445 443 442 445 450 456 459 461 465 468 469 469 471 472 473 470 467 467 474 492 507 508 508 508 499 483 477 475 457 448 444 440 442 445 443 440 439 436 432 431 430 430 428 426 425 425 425 427 427 427 428 428 428 428 430 433 432 432 434 435 434 432 434 435 434 434 432 429 430 429 427 428 428 428 428 428 427 426 426 426 425 425 424 424 423 422 422 421 420 420 420 419 419 419 419 418 418 418 418 418 418 418 418 418 418 418 418 418 418 418 418 418 418 418 418 418 418 418 418 418 418 418 418 418 418 418 418 418 418 418 418 418 418 418 418 418 418 418 418 418 418 418 418 418 419 419 421 422 423 423 423 423 423 423 423 423 423 423 423 423 423 422 422 422 422 422 422 422 422 422 422 422 422 422 423 423 423 424 425 426 427 428 428 428 429 429 429 429 430 430 430 430 430 429 428 428 427 425 424 423 422 423 423 426 429 436 441 444 444 447 451 452 454 454 455 456 455 450 445 444 444 448 451 452 451 450 449 447 446 449 451 452 451 449 448 450 452 455 460 467 471 473 476 478 479 486 493 496 498 498 501 506 502 497 499 500 503 505 507 511 513 515 515 516 518 523 527 524 513 495 482 491 517 524 532 543 550 565 580 586 584 587 594 600 605 610 616 613 612 614 621 633 640 636 633 630 627 625 624 624 632 637 640 640 641 647 653 664 674 681 694 704 706 708 715 722 728 733 737 742 742 741 742 746 750 751 749 749 750 752 754 757 758 759 761 768 773 775 778 780 783 784 787 794 796 794 794 797 799 800 800 797 791 787 785 783 781 782 784 786 789 795 799 801 806 813 819 823 825 826 823 817 812 809 812 820 831 840 847 855 864 870 876 881 887 901 914 919 918 917 921 929 934 935 936 938 939 944 945 947 953 955 959 967 972 971 972 975 978 989 996 1000 1002 1002 997 983 970 962 953 949 951 942 924 911 909 912 914 918 918 913 903 895 891 881 871 855 842 827 817 805 784 770 771 766 760 745 715 700 714 738 758 780 793 791 792 800 804 812 824 827 827 822 818 831 858 887 912 955 983 1002 1015 1016 1015 1021 1032 1042 1042 1040 1039 1034 1027 1018 1000 987 963 933 917 903 888 872 852 836 824 818 822 832 846 836 821 801 792 787 793 809 817 826 840 851 865 883 889 889 896 904 922 941 954 974 1005 1019 1030 1039 1047 1056 1063 1069 1070 1068 1065 1066 1076 1083 1090 1092 1094 1094 1091 1081 1069 1062 1061 1064 1059 1061 1067 1079 1084 1085 1083 1077 1067 1057 1047 1035 1025 1017 1004 980 948 911 878 850 830 829 834 842 853 861 871 892 914 937 957 967 970 967 968 966 960 959 958 956 948 931 909 881 865 881 907 924 928 923 923 934 949 967 980 989 989 979 973 963 950 938 930 941 955 962 964 953 947 946 945 938 926 920 924 936 945 965 991 1019 1034 1034 1036 1036 1037 1040 1045 1051 1053 1054 1055 1056 1052 1051 1051 1050 1048 1044 1039 1037 1034 1030 1017 1005 999 1000 998 986 974 965 957 966 974 978 980 979 979 977 973 971 979 986 986 987 986 984 984 979 972 970 969 966 969 970 967 966 963 957 952 947 940 937 935 931 928 926 928 926 923 917 909 906 905 900 897 892 884 878 875 875 876 874 869 868 863 858 856 854 853 852 850 847 846 843 838 837 833 828 822 814 807 803 797 794 791 788 786 785 782 778 772 764 747 743 748 754 749 741 740 743 747 749 751 752 752 752 752 754 751 747 747 747 739 732 728 726 724 724 729 726 724 725 726 723 714 709 708 707 707 706 698 688 686 689 687 677 675 679 682 687 694 702 708 711 713 711 712 709 707 698 689 684 682 682 685 698 707 713 717 723 728 741 752 761 769 774 783 789 799 808 816 830 843 857 870 885 893 898 906 917 924 928 928 923 913 901 888 869 855 855 875 907 929 951 967 973 962 948 952 973 1001 1025 1047 1054 1052 1050 1050 1050 1051 1058 1072 1090 1115
 431 430 428 427 426 426 426 425 425 425 424 423 423 425 425 424 423 423 424 424 424 424 424 424 424 424 424 425 425 425 426 426 425 424 424 425 424 424 423 424 424 424 424 424 424 423 422 423 425 425 425 425 427 428 428 428 432 433 428 425 425 425 425 425 426 428 428 427 426 426 428 427 427 427 427 428 434 445 454 463 471 474 476 477 479 483 495 504 510 511 509 503 500 501 503 506 508 512 514 515 516 517 518 520 522 522 522 521 521 521 521 519 513 507 502 499 497 500 507 513 518 522 526 532 544 555 561 563 564 567 570 570 569 569 569 569 569 568 562 551 539 525 509 499 495 489 483 480 477 465 449 436 431 430 429 428 427 427 427 427 428 429 430 431 432 433 434 436 437 436 437 440 444 446 447 448 451 456 462 463 463 463 463 462 463 467 478 492 498 499 498 491 481 464 450 441 437 436 436 435 436 437 433 430 429 428 426 426 425 424 425 425 425 424 424 424 426 427 426 427 427 427 428 431 431 432 434 433 432 431 432 432 431 432 429 428 428 429 428 427 426 427 427 425 424 425 425 424 423 423 423 423 422 422 421 421 420 420 419 419 419 419 418 418 418 418 418 418 418 418 418 418 418 418 418 418 418 418 418 418 418 418 418 418 418 418 418 418 418 418 418 418 418 418 418 418 418 418 418 418 418 418 418 418 418 418 418 418 418 418 418 418 418 418 418 419 419 419 419 419 419 419 419 419 419 419 419 419 419 419 419 419 419 419 419 419 419 419 419 419 419 419 419 419 420 421 422 423 424 424 424 425 425 425 425 425 426 426 427 427 427 427 427 427 426 425 424 423 422 423 424 426 425 426 430 431 430 434 439 445 451 454 454 451 449 447 445 442 440 443 445 443 441 441 441 440 439 439 438 438 436 434 433 434 436 439 444 452 460 466 465 465 465 467 469 471 474 479 493 503 502 496 496 495 494 498 501 504 507 508 509 511 514 517 521 519 503 479 481 504 521 526 532 537 538 544 560 574 577 576 576 579 582 586 587 588 589 591 593 597 603 607 610 609 606 602 603 607 607 611 614 615 615 621 625 631 640 649 661 666 668 676 684 691 698 704 708 710 713 713 712 718 722 723 723 723 724 725 726 727 728 726 725 726 729 735 740 746 751 752 756 759 755 753 756 760 761 762 762 761 757 753 750 750 751 752 757 761 766 772 779 783 788 792 795 802 804 804 800 797 794 794 805 815 825 833 841 848 855 860 866 872 876 878 885 893 899 903 907 907 908 910 910 910 908 916 917 919 927 932 938 949 948 946 952 951 950 958 970 973 971 967 962 955 950 944 936 928 925 919 903 884 882 889 886 887 883 881 876 870 867 847 826 814 800 794 794 787 762 737 731 734 725 712 695 681 675 690 703 721 742 744 746 761 765 770 774 778 785 791 796 819 843 865 895 926 951 975 986 991 994 1005 1014 1025 1026 1025 1027 1017 998 972 956 945 930 913 902 885 865 852 829 807 794 783 781 782 789 788 767 750 748 747 751 761 766 777 790 800 812 828 836 845 854 861 867 874 880 898 920 932 956 980 1000 1012 1011 1023 1038 1035 1037 1047 1055 1055 1060 1064 1068 1067 1064 1063 1057 1045 1034 1030 1032 1043 1051 1053 1062 1071 1068 1061 1053 1046 1037 1028 1020 1013 1000 970 939 907 876 849 829 824 825 823 824 830 840 860 881 907 931 945 953 948 947 951 954 955 952 943 931 919 903 870 843 847 868 898 908 907 907 911 913 920 929 936 941 946 949 943 927 912 895 896 914 923 923 917 916 919 924 921 910 904 905 913 918 933 955 978 992 998 1001 1004 1006 1012 1016 1025 1031 1039 1045 1045 1039 1035 1039 1041 1037 1033 1028 1029 1031 1021 1003 989 983 978 969 960 959 952 944 948 957 961 960 959 961 965 968 970 972 971 963 958 958 958 961 966 966 964 961 954 954 954 952 947 941 940 936 933 926 919 912 906 903 904 908 910 911 908 902 900 897 891 888 883 877 873 870 861 852 853 857 856 853 852 850 847 845 842 839 838 839 836 834 832 831 827 817 806 802 797 792 789 786 784 782 781 780 775 769 763 746 742 740 747 746 741 738 738 742 745 746 748 749 748 746 746 745 744 743 736 730 730 726 723 721 718 719 723 719 714 717 717 709 702 700 702 701 700 693 686 687 689 678 667 663 664 668 673 678 682 685 684 686 687 687 685 679 675 673 671 670 667 669 674 679 684 687 695 701 707 714 723 739 750 762 770 779 794 806 815 826 839 852 868 877 881 889 902 911 919 923 922 916 908 901 884 863 849 848 868 890 912 929 939 935 924 922 941 973 997 1012 1015 1013 1010 1003 1000 1005 1019 1038 1067 1103
 430 431 429 427 426 426 426 426 425 424 423 422 423 424 425 425 423 422 423 424 424 424 425 425 425 424 424 424 424 424 424 425 425 424 425 425 425 425 425 425 424 424 424 424 423 422 421 422 424 425 425 426 427 428 428 427 426 427 425 425 425 425 425 425 426 427 427 427 427 427 427 427 427 428 428 428 429 438 449 459 466 469 469 470 473 482 497 504 504 501 501 501 504 505 504 504 505 507 510 512 513 515 517 520 522 523 522 522 523 525 529 529 524 514 504 495 489 489 491 496 500 505 509 512 521 534 544 552 556 560 565 567 566 563 560 557 556 552 543 530 515 499 484 477 475 472 466 461 454 441 431 427 426 426 426 426 425 425 426 425 425 425 426 427 429 429 431 432 433 434 434 434 435 436 436 436 438 445 452 455 455 455 455 456 460 469 479 486 486 484 484 479 468 448 437 431 431 432 432 432 434 433 431 428 427 425 425 424 424 423 423 423 422 422 422 422 425 426 425 426 426 427 429 430 430 432 432 432 432 431 428 427 427 429 427 426 426 428 427 426 426 427 427 425 424 422 422 422 422 422 422 422 422 421 421 420 420 419 419 419 419 418 418 418 418 418 418 418 418 418 418 418 418 418 418 418 418 418 418 418 418 418 418 418 418 418 418 418 418 418 418 418 418 418 418 418 418 418 418 418 418 418 418 418 418 418 418 418 418 418 418 418 418 418 418 418 418 418 418 418 418 418 418 418 418 418 418 418 418 418 418 418 418 418 418 418 418 418 418 418 418 418 418 418 418 418 420 421 421 421 421 421 422 422 422 422 423 423 424 425 425 426 426 425 425 425 424 423 423 423 423 426 426 427 430 431 431 433 436 447 456 459 458 446 442 443 443 440 438 440 441 441 439 439 439 438 437 437 436 436 435 434 433 434 436 439 443 449 454 456 452 449 449 452 454 456 459 463 476 493 495 489 486 484 481 486 492 492 494 497 499 506 509 510 514 514 492 475 487 513 521 524 527 530 534 537 544 553 562 567 568 570 572 573 572 572 574 576 575 579 579 575 576 587 592 587 584 585 588 591 592 594 600 607 611 614 623 632 641 643 647 658 664 668 673 678 683 686 689 692 691 691 694 698 700 701 700 701 702 701 702 700 697 695 697 702 711 719 726 731 736 734 729 729 731 733 734 737 740 739 736 732 728 726 726 728 734 740 746 753 761 768 771 771 774 778 785 787 783 780 781 783 794 807 819 828 835 841 845 847 851 855 855 847 840 847 854 866 877 884 886 883 878 872 875 888 893 896 900 906 914 925 929 931 936 935 933 932 935 935 932 930 929 929 929 923 919 912 904 884 864 856 860 863 856 859 862 854 845 835 828 816 800 788 776 768 768 764 745 725 709 705 703 700 687 674 662 660 670 682 699 713 716 723 727 738 744 748 763 784 798 824 846 865 886 913 934 954 962 970 976 989 1002 1011 1012 1009 1003 987 971 951 934 925 917 906 894 867 845 831 809 794 780 766 758 751 746 738 724 712 708 712 717 732 740 754 770 785 798 808 818 834 843 845 845 846 849 858 866 871 891 917 941 964 970 976 997 1011 1019 1031 1035 1032 1036 1045 1053 1055 1052 1049 1039 1020 1005 995 996 1011 1031 1041 1048 1054 1051 1048 1043 1035 1028 1021 1014 1006 987 958 931 903 875 852 832 825 819 811 811 819 831 846 861 882 908 924 931 925 925 931 937 938 933 922 907 896 884 855 823 826 837 870 887 891 896 897 896 900 907 916 925 928 926 919 906 894 875 872 893 911 913 908 907 907 905 894 884 885 891 901 905 910 921 939 959 964 968 975 979 979 980 995 1005 1016 1035 1037 1031 1028 1029 1031 1031 1029 1025 1017 1014 1010 991 974 956 942 945 946 948 946 938 930 934 942 945 944 940 938 942 946 948 944 934 929 932 941 945 952 957 954 944 927 925 931 931 924 923 921 920 917 908 903 903 895 877 875 882 886 891 899 900 896 886 879 878 876 872 866 853 843 838 838 847 846 845 846 845 842 839 836 831 830 832 830 828 825 821 812 803 798 796 792 788 787 785 783 782 781 778 772 767 760 742 734 731 739 749 750 741 739 741 744 745 744 744 742 742 742 742 742 739 730 726 725 721 717 714 712 712 716 718 710 707 706 706 702 697 696 694 692 690 686 683 677 669 663 660 657 655 656 663 670 675 673 673 678 675 669 660 657 654 654 657 657 655 660 662 666 670 675 685 689 691 701 715 733 748 756 768 783 788 795 803 814 827 846 860 867 874 885 894 903 911 913 912 913 914 911 893 870 848 843 853 869 885 900 909 902 900 914 947 969 983 985 982 972 963 967 983 1004 1026 1056 1092
 429 430 428 427 426 425 425 426 425 424 423 422 422 423 424 424 424 423 423 424 424 425 425 425 424 424 423 423 423 423 424 424 424 424 424 424 425 425 425 425 424 423 423 424 424 423 422 422 423 424 424 425 426 428 428 426 425 425 425 425 425 425 426 426 427 428 428 428 427 427 429 429 428 428 429 428 428 431 439 451 460 463 463 464 468 480 493 497 495 494 497 504 508 506 501 501 502 503 507 510 512 514 516 519 522 525 532 538 539 540 543 543 540 533 523 507 489 481 478 478 481 488 494 495 498 506 516 530 539 544 549 553 553 548 541 538 534 527 518 503 484 470 459 453 450 447 443 439 433 429 426 426 425 425 425 424 424 425 425 424 424 424 424 425 425 426 427 430 432 433 432 431 430 430 431 431 432 435 442 447 448 449 449 449 454 464 472 476 475 473 473 467 452 437 433 430 429 429 429 430 430 430 428 427 424 424 424 424 423 422 422 422 421 421 422 423 425 426 426 424 426 428 429 428 429 431 431 433 433 430 427 425 425 425 425 426 428 429 427 425 423 424 424 423 422 421 421 421 421 421 421 421 421 421 420 420 420 419 419 419 418 418 418 418 418 418 418 418 418 418 418 418 418 418 418 418 418 418 418 418 418 418 418 418 418 418 418 418 418 418 418 418 418 418 418 418 418 418 418 418 418 418 418 418 418 418 418 418 418 418 418 418 418 418 418 418 418 418 418 418 418 418 418 418 418 418 418 418 418 418 418 418 418 418 418 418 418 418 418 418 418 418 418 418 418 418 418 418 418 418 418 418 418 419 419 419 419 420 421 422 423 424 424 424 424 424 424 423 423 423 424 425 425 426 429 430 430 432 433 439 449 456 457 444 435 433 434 435 436 437 437 437 437 437 436 436 435 435 434 434 433 433 433 434 435 437 440 444 446 447 446 443 438 435 435 439 449 452 462 483 483 475 475 474 473 473 477 476 477 485 494 497 498 499 501 501 483 473 494 512 516 518 522 527 531 535 538 540 542 548 551 554 557 561 563 558 558 557 560 558 558 556 552 558 567 563 558 556 558 559 555 559 571 582 588 595 603 610 617 625 630 637 641 643 644 646 651 658 663 667 670 669 667 670 673 675 676 678 678 677 677 676 673 670 668 672 682 690 698 706 714 714 713 715 716 717 717 719 721 719 713 706 701 697 695 695 697 701 709 722 734 744 750 753 757 762 763 761 760 757 762 771 777 786 798 806 811 816 816 817 823 828 827 814 802 792 785 805 826 837 837 837 831 825 829 837 844 854 865 875 882 891 900 904 905 899 900 904 905 904 898 902 909 909 900 886 877 871 861 845 834 830 825 826 830 827 821 811 800 796 790 787 776 767 760 750 743 736 727 707 693 692 692 688 679 667 655 642 647 653 658 664 672 687 701 709 715 722 744 776 794 816 837 852 867 884 905 925 929 937 953 963 969 972 978 980 975 959 938 921 915 908 898 886 871 849 826 811 797 785 766 748 730 721 716 706 694 681 674 683 693 705 726 747 762 783 800 804 809 824 833 835 832 826 824 828 826 824 827 838 856 880 904 919 940 964 968 979 986 987 998 1010 1013 1016 1018 1016 1007 999 989 977 970 975 991 1012 1022 1026 1027 1027 1026 1023 1016 1007 994 981 963 942 923 897 871 853 834 818 806 794 793 803 821 837 849 865 885 897 901 898 904 910 912 910 905 890 878 869 858 834 810 805 813 834 856 862 868 871 873 875 882 891 899 899 901 892 880 869 854 854 870 890 894 892 892 888 877 869 861 863 870 884 895 898 902 906 918 929 933 939 948 948 953 970 980 986 1007 1020 1022 1021 1021 1024 1027 1027 1021 1010 1002 991 971 955 937 928 929 930 921 916 917 910 912 915 919 917 914 914 911 911 915 915 912 910 911 918 929 932 940 941 933 921 920 921 916 911 904 902 900 898 894 892 891 881 861 856 854 856 862 876 883 878 873 871 868 860 852 842 836 836 833 832 835 836 836 840 842 844 843 832 818 814 812 811 806 802 799 797 795 791 788 786 785 784 782 780 779 777 772 766 763 756 742 731 727 733 738 740 734 734 739 741 742 741 742 741 739 739 738 740 737 730 723 719 716 712 709 707 706 707 709 708 699 694 697 702 696 690 686 684 682 678 670 667 662 658 656 651 647 646 648 650 660 662 661 662 658 652 646 643 641 643 646 647 644 645 648 655 663 667 675 680 681 694 707 715 721 730 745 766 775 782 790 799 808 824 838 846 854 863 870 879 887 894 900 906 911 915 907 890 863 838 827 826 834 849 865 868 870 883 912 935 955 960 952 929 919 932 963 999 1026 1054 1079
 430 428 426 425 425 425 426 427 426 425 423 423 423 423 423 424 424 424 424 424 425 425 425 425 424 424 424 424 424 424 424 424 424 424 424 424 424 425 425 425 425 425 424 423 424 424 424 425 425 425 424 423 423 425 426 426 425 425 425 425 426 426 426 426 427 429 430 430 429 428 428 430 430 428 427 427 427 428 429 435 442 446 449 451 455 464 477 485 488 490 493 497 497 494 492 494 497 500 504 509 512 514 517 522 530 538 550 555 552 549 548 547 547 545 537 524 506 490 478 472 470 472 477 480 481 484 491 505 518 525 531 534 531 520 510 507 505 494 482 466 452 446 441 435 432 430 429 428 427 426 426 426 425 423 423 423 423 424 424 423 423 424 424 424 424 424 426 429 431 430 429 428 429 430 431 431 431 431 434 440 444 446 444 443 446 453 459 463 462 461 458 447 436 432 433 429 426 426 427 427 427 427 427 425 423 422 423 424 423 422 422 422 422 422 422 423 424 424 424 425 427 427 426 426 427 429 431 434 432 428 425 424 423 423 424 425 429 431 427 422 420 421 421 421 421 421 421 421 421 421 421 420 420 420 420 420 419 419 419 418 418 418 418 418 418 418 418 418 418 418 418 418 418 418 418 418 418 418 418 418 418 418 418 418 418 418 418 418 418 418 418 418 418 418 418 418 418 418 418 418 418 418 418 418 418 418 418 418 418 418 418 418 418 418 418 418 418 418 418 418 418 418 418 418 418 418 418 418 418 418 418 418 418 418 418 418 418 418 418 418 418 418 418 418 418 418 418 418 418 418 418 418 418 418 418 418 418 418 418 419 420 422 423 424 424 424 423 423 423 423 423 425 425 424 425 425 426 428 430 434 440 442 441 434 429 429 431 432 433 434 434 435 434 434 434 433 433 433 432 432 432 432 432 432 434 435 437 439 441 441 440 438 435 431 427 428 432 436 451 471 472 463 461 463 465 466 469 472 478 482 486 491 490 490 491 487 472 469 487 504 510 512 513 516 522 525 527 530 533 535 539 542 545 545 542 539 538 540 547 548 543 533 529 530 536 533 520 513 513 519 521 526 536 547 555 563 571 576 583 593 597 598 605 611 613 612 614 621 627 633 641 649 653 653 652 654 658 657 655 654 657 661 661 655 648 645 659 670 676 684 691 692 696 699 700 702 703 701 698 693 686 679 671 664 659 656 654 657 665 681 700 719 732 738 741 741 735 731 728 725 732 741 743 740 745 754 763 766 764 765 773 778 781 782 776 765 753 754 767 771 769 776 783 781 782 787 795 805 821 831 843 854 866 873 873 871 873 875 871 870 871 875 880 876 865 851 841 833 827 822 817 802 790 793 800 788 781 779 783 776 764 753 746 744 739 732 727 719 706 690 681 674 677 681 670 658 648 631 630 635 631 632 637 648 657 660 668 681 718 755 773 790 813 828 840 852 863 879 894 907 920 931 938 941 941 937 935 925 916 904 897 887 872 858 852 840 823 810 795 774 751 735 715 703 696 687 676 664 657 662 676 695 726 747 757 775 797 805 810 821 824 819 811 805 801 798 801 798 794 789 794 806 825 847 872 891 901 913 920 919 938 962 975 978 977 978 978 974 964 953 947 949 956 969 978 985 992 994 994 989 983 972 960 950 939 928 914 891 867 852 833 812 798 785 781 789 807 823 835 846 859 869 872 875 879 884 883 875 869 860 855 847 836 819 797 786 784 797 816 830 837 838 843 847 852 860 872 874 874 865 852 837 825 826 839 859 863 862 861 864 864 855 840 841 852 863 874 884 889 893 902 911 912 917 929 935 939 947 955 961 966 972 982 994 1002 1009 1013 1009 1000 989 976 957 942 933 921 909 908 904 898 897 897 895 897 897 899 900 902 902 899 899 900 899 900 898 897 900 914 921 918 916 913 908 904 901 898 892 887 884 881 875 872 868 863 858 852 847 844 843 843 850 863 865 858 847 840 836 832 827 825 823 819 825 832 830 828 835 841 842 835 816 803 803 801 796 793 793 793 792 791 789 786 784 783 781 779 776 774 772 767 762 757 748 740 732 728 729 734 733 730 732 736 736 737 739 742 740 738 735 734 736 735 731 725 720 715 710 705 702 699 698 696 699 699 691 683 688 693 689 685 678 677 673 666 660 652 649 645 642 642 642 642 641 643 649 646 634 628 628 629 628 629 631 634 635 633 635 638 646 655 658 662 668 672 677 686 687 689 693 702 731 751 766 782 792 799 811 819 824 831 840 848 854 862 871 882 886 890 896 896 887 868 842 819 803 802 809 824 834 842 858 886 912 935 942 929 893 880 894 930 977 1012 1041 1059
 436 430 426 425 425 427 428 429 428 426 425 424 423 423 423 424 425 425 425 424 424 424 424 425 424 424 424 425 425 425 424 424 424 424 424 424 424 425 425 426 426 426 425 424 424 424 425 426 428 427 425 424 423 424 424 424 425 425 425 426 426 426 426 426 428 430 431 431 431 430 429 429 429 428 426 425 426 426 426 427 430 432 434 438 442 447 457 467 477 479 481 483 484 483 485 489 494 498 502 506 511 518 524 533 542 548 553 554 550 546 546 550 553 550 543 531 520 508 493 477 467 463 465 467 469 471 475 484 496 506 513 515 509 497 487 482 475 463 451 441 434 431 429 428 427 426 426 426 427 426 426 427 425 423 422 422 423 424 424 423 423 424 424 424 424 425 426 428 428 427 426 427 428 429 430 431 431 431 430 433 438 440 440 440 440 442 446 450 450 449 448 439 432 430 430 428 426 426 427 427 429 432 430 427 424 421 421 422 422 422 422 422 422 422 422 423 423 423 423 423 424 424 424 423 425 427 431 436 434 428 425 424 422 424 426 428 429 429 424 421 421 421 421 421 420 420 420 420 420 420 420 420 420 420 420 419 419 419 419 418 418 418 418 418 418 418 418 418 418 418 418 418 418 418 418 418 418 418 418 418 418 418 418 418 418 418 418 418 418 418 418 418 418 418 418 418 418 418 418 418 418 418 418 418 418 418 418 418 418 418 418 418 418 418 418 418 418 418 418 418 418 418 418 418 418 418 418 418 418 418 418 418 418 418 418 418 418 418 418 418 418 418 418 418 418 418 418 418 418 418 418 418 418 418 418 418 418 418 418 418 419 421 422 423 423 423 423 423 423 423 423 424 424 423 422 423 423 425 426 428 432 432 429 429 429 429 430 431 431 432 432 432 432 432 432 431 431 431 430 430 430 430 430 431 432 433 435 436 437 437 436 435 433 430 428 426 426 427 436 454 460 456 454 456 458 459 464 470 475 477 480 486 487 486 483 472 459 463 481 496 502 505 504 504 506 511 513 516 515 508 512 519 523 526 525 521 518 525 536 534 524 514 508 505 509 505 494 491 490 489 494 504 510 516 520 529 539 550 559 567 571 573 577 583 588 586 584 586 592 600 611 624 628 630 634 638 640 637 635 633 639 647 653 646 635 628 639 653 661 667 674 677 681 681 681 682 682 678 672 668 661 651 641 631 622 617 618 624 635 651 672 696 712 718 713 699 693 688 688 693 692 700 706 701 696 701 702 699 696 699 706 714 722 729 734 730 718 712 719 715 714 713 725 735 746 758 767 778 795 801 797 798 816 833 840 837 838 844 847 848 849 848 846 843 840 831 822 813 809 809 802 784 778 772 770 769 765 764 772 762 749 739 732 726 723 722 716 704 692 681 672 663 665 664 655 649 640 627 623 621 614 616 618 620 623 629 632 644 682 735 754 768 784 801 810 821 840 853 862 877 894 904 912 919 918 916 915 908 899 887 875 866 855 844 841 832 819 806 790 764 742 723 702 690 680 671 662 650 643 647 657 685 717 736 745 764 790 802 805 810 807 800 792 785 781 781 788 786 771 761 765 775 787 800 818 832 843 866 877 862 872 913 936 942 938 939 942 942 939 930 918 917 924 929 936 950 960 966 965 959 954 944 927 917 915 909 899 881 863 849 830 810 794 779 774 779 795 811 823 833 840 848 851 856 859 858 852 851 845 841 836 827 815 799 782 773 762 766 790 804 815 818 820 821 830 838 845 849 846 835 814 800 796 802 814 837 848 851 853 855 851 840 830 827 833 844 850 861 871 880 889 898 903 908 914 919 924 929 936 941 940 942 949 953 960 971 977 977 969 957 943 930 923 917 903 894 892 889 890 892 892 888 888 889 889 891 892 892 890 889 887 888 891 889 887 889 898 910 909 906 904 901 895 890 885 877 873 870 866 862 856 845 842 846 849 845 843 840 836 835 843 848 840 831 825 822 818 814 811 810 808 813 824 825 823 823 819 811 804 794 792 793 793 790 788 789 789 788 787 787 785 783 781 779 776 771 767 766 763 757 749 742 736 731 728 729 735 740 740 736 736 737 737 739 741 739 738 733 732 733 732 730 726 722 717 711 702 699 697 695 693 691 692 688 678 677 683 687 680 671 674 670 660 652 646 643 640 638 638 640 640 638 638 641 631 617 614 616 618 618 620 622 622 622 619 622 632 641 647 653 657 657 658 662 665 667 673 677 680 695 717 736 762 779 788 797 802 807 814 825 834 840 844 851 863 870 871 873 876 873 859 836 813 795 791 794 808 821 833 856 886 908 923 928 909 870 861 877 907 945 980 1014 1035
 450 444 437 432 428 429 429 429 428 426 426 426 424 423 424 425 425 425 425 424 424 424 425 424 424 424 424 424 424 424 424 424 424 424 424 423 424 425 425 425 425 425 425 425 425 424 424 425 428 428 426 424 423 423 423 423 423 424 425 426 426 426 425 426 427 430 431 430 430 431 430 428 428 429 428 428 427 426 426 427 427 428 428 429 431 435 440 446 457 463 466 471 474 478 485 491 496 500 505 510 522 532 538 546 551 551 548 546 545 546 551 557 560 555 547 536 527 522 511 491 471 459 457 458 459 459 460 466 473 480 486 484 477 468 458 451 444 435 431 428 426 425 426 426 426 425 426 426 426 425 425 426 425 424 422 422 423 424 424 423 424 425 425 424 425 425 425 426 426 425 425 426 427 428 428 429 430 430 429 430 432 434 436 436 436 436 436 436 437 438 439 434 431 430 429 428 427 428 428 432 434 435 432 432 428 422 420 420 421 421 421 421 421 421 422 422 422 422 422 422 422 422 421 421 422 425 428 430 430 427 426 425 423 423 425 427 426 424 421 421 421 421 420 420 420 420 420 420 420 420 420 420 420 419 419 419 419 419 418 418 418 418 418 418 418 418 418 418 418 418 418 418 418 418 418 418 418 418 418 418 418 418 418 418 418 418 418 418 418 418 418 418 418 418 418 418 418 418 418 418 418 418 418 418 418 418 418 418 418 418 418 418 418 418 418 418 418 418 418 418 418 418 418 418 418 418 418 418 418 418 418 418 418 418 418 418 418 418 418 418 418 418 418 418 418 418 418 418 418 418 418 418 418 418 418 418 418 418 418 418 418 420 421 422 422 422 422 423 422 422 422 422 422 422 421 421 422 422 423 423 425 426 427 427 428 428 428 429 429 430 430 430 430 430 429 429 429 428 428 428 428 428 428 429 430 430 431 432 433 433 433 432 430 429 427 427 426 426 427 433 438 437 446 451 451 452 453 457 468 473 476 479 483 483 470 441 431 442 465 479 478 478 478 480 480 488 489 480 483 483 482 481 487 498 500 499 500 498 498 499 501 499 491 491 494 487 478 473 468 460 465 478 486 482 477 482 493 510 526 534 541 539 534 534 543 550 550 548 546 550 561 576 581 584 593 608 615 612 612 613 615 623 629 622 613 606 601 607 621 629 637 647 651 652 647 643 643 642 634 628 621 610 599 589 576 563 560 564 574 594 618 645 668 671 662 650 647 641 630 629 638 640 645 654 658 653 641 635 639 645 654 664 669 675 680 686 686 682 678 668 664 663 674 704 722 737 747 755 765 754 734 728 742 761 775 781 790 803 811 814 813 811 813 813 812 806 799 795 797 798 788 777 771 760 758 756 745 744 746 745 737 728 722 717 712 710 706 698 689 677 664 657 654 649 644 641 634 623 616 607 601 598 597 592 592 602 615 626 672 713 732 744 754 769 782 791 804 822 828 836 855 870 879 887 887 887 890 886 878 870 859 851 843 830 823 816 809 794 775 752 727 708 691 676 663 654 647 636 624 629 639 658 685 711 729 752 780 793 793 783 771 772 769 762 763 767 769 763 748 738 739 748 757 770 780 787 795 805 814 809 806 839 872 896 900 902 905 907 906 901 893 893 899 900 904 910 919 925 926 929 924 909 882 870 881 883 877 867 854 840 821 802 787 773 762 762 776 790 800 811 819 826 834 832 836 834 827 829 829 824 816 802 788 775 761 748 738 734 746 770 782 783 786 794 804 814 824 817 804 788 774 772 784 797 803 814 827 838 845 839 829 820 809 805 810 819 828 840 854 863 868 870 872 873 882 892 902 908 911 914 914 916 922 927 927 934 933 935 931 923 916 910 905 899 888 881 875 875 879 880 879 881 881 880 883 884 883 880 881 882 881 879 878 879 880 881 884 894 897 892 894 891 888 884 878 870 865 860 855 843 832 834 835 835 838 839 836 829 826 825 829 834 831 824 818 809 800 797 800 804 801 794 798 804 801 796 791 788 786 784 786 789 790 787 783 775 767 767 769 770 771 773 775 773 771 767 764 761 754 746 740 732 725 724 729 729 732 741 744 739 738 740 742 746 745 744 743 739 736 731 728 726 723 721 717 712 711 708 702 698 694 690 687 686 678 667 664 671 672 667 668 667 661 652 646 642 639 635 632 633 635 636 638 635 622 605 601 604 606 607 611 612 611 611 610 610 617 627 634 638 643 649 649 651 651 653 655 658 661 670 686 704 733 755 765 773 778 781 790 806 819 828 833 837 843 850 852 851 851 849 835 816 801 791 785 791 805 823 842 868 890 900 906 902 880 852 857 877 902 924 945 977 1007
 461 458 454 449 442 436 431 428 426 426 426 426 425 424 425 425 425 425 424 424 424 424 425 424 424 425 425 424 423 423 423 424 424 424 424 423 423 425 424 423 422 424 424 425 425 425 424 424 425 425 424 423 422 422 422 422 422 422 423 425 425 425 424 424 427 429 430 429 428 429 429 428 429 430 430 430 430 429 428 428 427 427 427 428 428 429 431 435 443 453 460 467 472 481 493 501 506 513 521 530 543 550 552 557 559 558 550 547 547 549 552 555 554 547 539 531 527 523 513 492 473 456 453 453 451 448 447 450 454 457 457 451 445 438 432 429 428 426 425 424 424 424 425 425 425 425 425 425 425 425 425 425 425 424 423 423 423 424 424 424 425 425 424 424 425 425 424 424 425 425 425 425 426 428 428 428 429 430 430 431 432 433 433 433 433 433 432 432 431 431 431 430 429 428 427 427 428 429 433 437 437 431 427 428 426 423 420 420 421 422 422 422 422 422 422 422 422 422 422 422 422 422 422 422 422 423 425 425 425 424 424 423 422 421 422 422 421 421 421 421 421 421 420 420 420 420 420 420 420 420 419 419 419 419 419 419 419 418 418 418 418 418 418 418 418 418 418 418 418 418 418 418 418 418 418 418 418 418 418 418 418 418 418 418 418 418 418 418 418 418 418 418 418 418 418 418 418 418 418 418 418 418 418 418 418 418 418 418 418 418 418 418 418 418 418 418 418 418 418 418 418 418 418 418 418 418 418 418 418 418 418 418 418 418 418 418 418 418 418 418 418 418 418 418 418 418 418 418 418 418 418 418 418 418 418 418 418 418 418 418 418 419 420 421 421 422 422 422 422 422 422 422 422 421 421 421 421 422 422 423 424 425 426 426 426 426 427 427 427 428 428 428 427 427 427 427 426 426 426 425 425 426 426 426 427 428 428 429 430 430 430 429 429 428 427 426 426 426 426 425 425 424 430 435 441 444 445 447 456 467 473 473 474 476 461 438 431 435 446 452 450 451 457 464 467 469 459 449 450 454 455 458 463 470 475 479 482 482 478 478 479 475 470 470 462 451 447 443 443 444 448 453 452 444 445 454 461 472 482 491 497 491 475 471 479 493 508 518 517 515 515 520 525 529 537 546 552 560 568 576 575 571 569 567 573 570 557 555 563 563 570 567 563 582 597 588 588 595 591 581 568 563 551 537 518 500 490 493 506 529 550 566 575 575 567 558 558 559 569 583 598 608 611 613 612 612 611 613 620 625 630 639 644 647 651 656 657 646 640 641 637 636 641 669 701 720 727 726 724 716 702 705 709 718 728 734 743 752 755 753 750 752 757 762 761 759 757 757 756 759 761 759 752 739 736 735 727 724 723 722 715 709 706 702 701 693 690 684 675 662 652 649 645 640 638 633 625 615 601 594 593 591 588 581 582 602 616 626 662 687 702 716 726 740 763 775 781 789 801 815 828 837 844 852 848 847 851 852 850 846 831 827 815 802 797 795 789 772 757 734 713 696 678 661 647 639 633 620 609 612 626 647 671 694 725 756 773 775 768 752 745 744 742 742 743 743 743 735 720 711 713 728 736 745 755 764 771 774 771 767 767 782 809 834 850 855 863 869 870 867 859 852 865 873 874 874 877 881 886 887 886 872 854 849 852 860 858 849 836 821 805 791 778 759 739 735 747 762 771 781 789 798 804 802 803 807 810 810 807 800 791 782 772 759 742 732 728 722 723 735 751 760 758 766 777 784 792 789 778 761 747 751 768 787 793 796 804 813 820 820 816 805 792 784 789 796 803 816 831 841 848 845 841 843 849 852 858 871 884 892 892 890 891 891 894 903 903 901 900 898 895 888 875 872 875 865 859 863 869 869 865 869 871 873 876 877 876 876 876 875 875 874 873 870 871 872 872 875 880 880 882 880 877 873 870 863 856 849 834 820 815 816 818 820 822 824 827 825 823 822 824 826 819 813 806 793 778 774 774 785 780 772 778 783 785 783 782 781 776 771 768 768 766 764 756 747 740 735 734 735 738 745 760 768 769 769 765 757 749 742 736 730 723 720 721 719 724 734 737 738 741 745 751 755 754 753 755 751 741 734 727 723 719 717 715 715 719 716 708 704 697 689 684 679 675 664 653 650 658 663 666 663 657 648 636 633 634 634 631 630 630 634 636 621 603 593 590 594 597 597 598 598 597 599 600 599 602 609 613 613 618 628 633 639 640 641 643 645 651 657 668 681 703 724 732 741 750 753 761 779 797 811 819 825 829 832 834 834 832 826 815 805 798 786 780 788 805 826 845 866 879 883 881 865 843 838 855 877 899 917 932 954 985
 472 468 465 463 459 452 443 432 427 427 427 427 426 426 426 425 425 424 423 423 424 424 425 424 425 425 425 425 424 423 423 424 424 424 424 423 423 424 424 423 422 423 424 424 425 425 424 424 424 424 424 423 422 422 421 421 421 422 424 426 426 425 424 425 427 429 430 430 429 429 428 428 429 431 431 429 430 432 432 430 428 427 427 427 428 427 427 430 437 448 461 471 480 494 510 519 526 534 541 549 556 559 561 563 565 566 558 549 548 549 549 548 543 534 527 521 520 516 502 482 465 450 448 447 445 440 438 439 440 441 438 433 429 426 425 425 426 426 425 424 423 424 424 424 424 424 424 425 425 425 424 424 425 424 424 424 424 425 424 425 425 425 424 424 425 425 424 424 425 425 425 425 426 428 429 429 429 429 430 431 432 433 432 432 431 431 431 431 431 430 430 429 430 429 429 426 426 427 429 431 430 428 425 426 425 425 422 421 422 422 422 422 422 422 422 422 422 422 422 422 422 422 422 422 422 423 424 424 423 423 422 422 421 420 421 421 421 421 421 421 421 420 420 420 420 420 420 420 419 419 419 419 419 419 419 419 418 418 418 418 418 418 418 418 418 418 418 418 418 418 418 418 418 418 418 418 418 418 418 418 418 418 418 418 418 418 418 418 418 418 418 418 418 418 418 418 418 418 418 418 418 418 418 418 418 418 418 418 418 418 418 418 418 418 418 418 418 418 418 418 418 418 418 418 418 418 418 418 418 418 418 418 418 418 418 418 418 418 418 418 418 418 418 418 418 418 418 418 418 418 418 418 418 418 418 418 418 418 418 418 418 419 420 420 421 421 421 421 422 422 422 422 421 421 421 421 421 422 422 423 423 424 425 425 425 425 426 426 426 426 426 426 426 425 425 425 424 424 423 423 423 423 424 424 425 425 426 427 427 427 427 427 427 427 426 426 425 425 425 425 424 424 425 426 431 435 436 440 447 454 458 457 456 453 442 430 423 429 435 436 435 437 443 449 454 457 450 445 445 447 449 452 454 458 464 463 463 464 456 454 455 459 458 454 445 438 431 433 438 440 443 445 445 443 444 450 457 465 473 480 477 460 441 436 437 442 458 482 477 470 470 472 475 479 486 496 505 509 514 522 526 522 520 521 523 516 507 508 504 500 508 494 490 506 523 525 533 554 556 545 533 520 509 492 468 460 464 467 470 478 487 489 491 490 493 510 523 531 552 567 577 585 586 587 586 581 581 581 590 597 599 596 596 606 616 623 618 608 604 607 604 603 612 629 655 678 691 692 690 677 672 683 691 696 704 708 711 718 723 720 715 709 709 712 713 719 730 733 735 736 735 731 722 716 716 716 712 712 712 708 703 698 692 686 685 683 676 674 662 648 637 633 634 632 627 622 616 601 586 580 581 582 578 566 570 593 608 620 635 654 667 682 701 717 737 753 760 762 769 790 811 822 825 825 829 827 829 832 825 814 805 802 795 791 788 780 770 754 737 721 704 683 664 652 633 625 620 609 599 601 612 634 659 688 728 751 761 762 753 732 723 722 722 723 719 720 720 717 701 688 691 704 716 724 735 743 752 759 755 744 740 747 768 807 825 829 834 843 848 844 833 827 835 841 837 834 840 845 852 855 853 846 841 840 838 840 838 827 813 799 787 774 762 743 724 716 721 735 745 754 760 766 769 772 777 783 784 785 783 778 772 761 748 729 717 717 711 708 708 713 732 744 740 739 752 757 760 753 749 743 732 729 746 765 773 779 786 793 800 805 803 792 774 762 768 777 784 797 808 816 821 830 834 837 844 846 843 846 851 858 869 871 875 877 877 882 882 879 876 876 868 859 853 851 853 847 846 853 861 854 850 855 861 866 868 869 869 871 871 871 872 873 872 869 870 868 865 863 864 867 867 867 867 865 862 854 846 831 816 808 802 802 806 809 812 817 822 823 820 820 818 813 804 793 780 767 757 753 756 766 764 759 760 763 761 757 756 755 752 749 746 744 744 738 726 723 721 718 718 720 724 730 740 752 754 756 757 754 750 742 735 729 721 714 705 698 706 719 727 732 736 743 747 749 751 753 755 748 738 733 726 723 720 717 714 712 714 710 703 701 698 687 678 674 670 665 653 642 639 643 651 652 647 635 625 626 627 630 630 629 629 631 627 606 594 589 586 586 587 587 589 589 589 588 587 590 592 593 599 603 607 615 621 630 634 635 637 640 642 649 657 666 680 696 705 715 730 740 748 760 776 791 800 807 814 820 822 822 818 812 805 798 791 780 774 783 801 820 836 854 867 869 863 840 822 825 849 870 889 906 921 941 966
 498 492 487 480 474 468 460 446 436 433 431 428 427 428 426 424 424 424 424 423 424 425 425 425 425 425 425 425 425 424 423 423 424 424 424 424 423 423 424 424 423 424 424 424 424 425 424 423 423 424 425 425 424 422 421 420 422 424 427 429 428 427 426 427 428 429 430 432 431 429 427 427 429 431 433 432 431 432 433 432 431 429 427 427 427 427 427 428 432 448 466 480 494 512 530 543 550 554 558 561 561 560 561 562 565 566 559 546 544 545 545 541 533 522 515 509 506 502 490 471 453 440 440 442 439 434 432 431 430 428 426 425 424 423 424 425 426 425 425 425 424 424 424 425 424 423 424 426 427 426 424 425 425 426 425 426 426 426 426 426 425 425 424 425 425 426 426 425 425 426 425 425 426 428 429 429 428 429 429 430 432 432 431 431 430 430 430 430 430 431 431 430 429 429 428 426 425 425 425 425 426 427 428 428 428 426 424 422 423 423 423 422 422 421 421 421 422 422 422 422 422 422 422 423 423 423 423 423 422 422 422 421 420 420 420 421 421 421 421 421 420 420 420 420 420 420 419 419 419 419 419 419 419 419 418 418 418 418 418 418 418 418 418 418 418 418 418 418 418 418 418 418 418 418 418 418 418 418 418 418 418 418 418 418 418 418 418 418 418 418 418 418 418 418 418 418 418 418 418 418 418 418 418 418 418 418 418 418 418 418 418 418 418 418 418 418 418 418 418 418 418 418 418 418 418 418 418 418 418 418 418 418 418 418 418 418 418 418 418 418 418 418 418 418 418 418 418 418 418 418 418 418 418 418 418 418 418 418 418 418 418 418 419 420 420 421 421 421 421 421 421 421 421 421 421 421 421 422 422 422 423 423 423 424 424 424 424 424 424 424 424 424 423 423 423 422 422 421 421 420 420 421 421 422 422 423 423 424 424 425 425 425 425 425 425 425 425 424 424 424 424 424 425 425 426 427 429 432 436 439 440 438 436 430 423 416 413 418 423 425 427 429 433 438 443 444 442 440 441 442 444 446 449 452 454 455 455 454 451 449 450 451 450 447 441 436 432 433 434 436 439 440 441 442 443 447 452 457 462 464 460 450 439 434 432 429 431 440 444 447 450 449 449 452 458 465 466 465 470 475 475 479 480 476 467 461 456 456 453 452 454 455 453 458 465 462 466 492 501 487 482 481 472 457 445 443 443 442 443 443 443 444 447 451 459 476 493 507 524 532 529 535 536 533 530 527 524 525 535 546 549 549 555 563 569 571 573 573 571 571 574 580 591 597 602 612 629 640 645 645 645 652 660 666 675 683 687 690 693 691 688 683 682 686 689 693 697 703 708 710 706 704 700 686 693 705 702 703 703 702 696 686 676 674 669 666 663 663 654 639 624 614 610 617 613 608 601 588 577 558 556 564 558 550 555 577 588 596 607 620 632 646 668 691 705 715 722 734 746 758 776 791 805 814 816 811 810 811 808 799 793 793 787 781 775 759 745 735 720 701 685 670 656 641 617 607 599 592 584 588 605 621 639 674 719 737 740 739 728 713 703 692 692 693 695 702 705 695 671 666 673 680 690 701 713 723 729 732 729 725 723 722 728 749 772 784 792 807 813 809 803 800 793 789 787 786 797 808 816 821 821 818 818 820 818 815 810 801 789 780 770 755 742 729 714 701 693 700 712 723 729 736 740 740 750 757 758 758 761 756 745 734 721 710 703 697 687 686 691 700 712 718 710 705 717 722 721 717 720 725 714 704 717 736 742 747 755 766 776 778 773 762 748 741 743 757 765 777 786 792 800 811 818 828 834 836 836 838 839 840 844 846 848 848 847 847 849 850 849 848 845 843 842 840 838 836 835 837 847 843 839 843 848 853 858 859 859 862 863 862 865 867 865 866 867 863 859 854 852 847 842 846 852 856 851 840 829 819 808 798 787 784 789 798 803 808 815 814 811 807 801 793 780 763 753 746 741 735 742 752 750 740 732 732 739 740 738 735 730 728 728 727 727 725 719 715 711 706 705 709 717 725 729 728 728 730 730 725 725 720 715 706 694 688 679 673 677 688 699 705 709 715 721 723 724 726 733 732 733 731 728 727 724 716 709 706 708 703 693 689 693 690 681 678 670 666 662 649 633 628 630 636 631 617 609 611 615 617 623 629 628 625 611 594 588 585 585 582 576 574 579 582 581 578 576 579 580 581 584 592 601 604 608 619 625 623 624 627 631 637 645 653 663 673 684 697 718 731 741 749 757 769 776 784 794 801 805 804 798 792 785 778 773 767 765 773 793 810 821 837 853 856 845 825 812 812 834 853 870 889 905 922 941
 533 524 515 504 489 478 471 461 448 442 438 434 431 429 425 424 424 426 425 425 425 426 425 425 425 425 425 425 424 424 423 423 423 423 424 424 423 423 423 424 424 424 424 424 424 424 423 422 423 423 424 425 425 424 423 423 423 424 427 428 428 428 427 427 428 428 428 429 429 428 428 428 429 434 438 438 435 432 431 430 431 431 428 427 427 427 427 427 430 445 464 482 503 526 547 557 558 559 562 564 564 561 560 561 562 558 545 532 531 531 528 524 514 505 501 498 495 492 481 457 439 432 433 435 434 430 428 428 426 425 424 425 424 424 425 426 426 425 425 425 425 425 425 426 424 423 424 426 429 427 425 425 426 426 426 426 426 426 426 426 425 425 426 427 427 427 428 427 426 426 425 425 426 427 427 428 428 428 429 430 430 431 430 430 430 429 429 429 429 430 429 429 428 427 427 426 425 425 426 426 426 427 428 428 428 428 427 427 428 429 429 428 424 421 421 421 422 422 422 423 423 423 423 423 423 423 423 423 422 422 422 421 421 421 421 421 421 421 421 420 420 420 420 420 419 419 419 419 419 419 418 418 418 418 418 418 418 418 418 418 418 418 418 418 418 418 418 418 418 418 418 418 418 418 418 418 418 418 418 418 418 418 418 418 418 418 418 418 418 418 418 418 418 418 418 418 418 418 418 418 418 418 418 418 418 418 418 418 418 418 418 418 418 418 418 418 418 418 418 418 418 418 418 418 418 418 418 418 418 418 418 418 418 418 418 418 418 418 418 418 418 418 418 418 418 418 418 418 418 418 418 418 418 418 418 418 418 418 418 418 418 418 418 419 420 420 420 420 421 421 421 421 421 421 421 421 421 421 421 422 422 422 422 422 423 423 423 423 422 422 422 422 421 421 421 420 419 419 418 418 418 418 419 419 420 420 421 422 422 423 423 423 424 424 424 424 424 424 424 424 424 424 424 425 426 427 428 430 432 434 434 433 431 428 423 420 418 419 421 424 426 428 431 433 435 436 437 437 438 439 440 442 444 446 448 449 449 448 446 445 445 444 443 441 438 435 433 433 433 435 436 437 438 440 441 444 448 451 453 453 451 445 438 435 432 431 432 436 439 440 436 429 428 429 435 440 440 438 434 437 440 442 439 437 437 438 436 433 431 429 432 436 436 437 442 443 444 450 454 442 444 454 448 441 438 437 435 436 437 437 438 438 440 446 454 458 459 461 469 474 475 479 483 485 488 487 488 495 505 512 526 533 538 544 542 543 545 554 557 553 557 564 570 574 577 577 576 586 601 606 614 625 637 645 649 657 661 665 664 661 653 646 644 650 653 653 648 656 669 675 681 679 672 653 656 688 695 694 694 689 683 675 669 663 655 652 647 647 641 630 617 605 595 596 588 589 588 578 566 553 549 552 546 541 543 563 572 573 583 596 608 617 628 647 672 688 695 708 724 736 754 770 781 793 798 796 796 798 795 790 780 772 763 746 739 731 726 721 699 685 674 657 642 630 606 591 581 575 574 586 608 618 638 674 699 712 715 707 699 684 673 669 664 664 671 683 684 672 650 650 659 662 666 668 674 691 703 706 701 693 695 701 702 696 701 720 747 761 759 750 746 750 746 739 743 754 755 757 762 774 789 795 793 791 788 783 781 776 771 760 747 733 722 711 697 681 668 670 680 692 700 702 708 713 723 733 736 736 732 724 714 702 697 693 682 673 669 669 677 680 690 692 685 682 689 692 692 692 690 694 691 683 685 705 713 715 717 721 732 737 738 737 730 722 724 740 748 755 765 772 779 783 789 804 818 826 831 833 832 831 831 834 836 836 834 833 836 837 838 839 838 835 834 835 834 833 835 832 832 832 829 837 840 844 847 851 853 853 852 852 854 856 856 856 854 851 850 848 845 836 831 829 830 833 830 822 818 813 804 794 777 764 768 781 791 795 799 800 797 791 783 773 759 747 740 732 723 721 727 737 734 724 717 717 723 724 721 718 713 712 712 712 712 708 699 691 686 679 675 678 688 700 708 710 711 707 704 702 701 697 691 680 675 670 658 656 665 672 679 685 690 698 706 707 706 705 704 705 709 713 714 714 709 700 698 698 700 697 687 681 681 682 681 680 669 660 657 649 633 624 616 619 610 603 600 600 605 609 617 619 620 614 598 589 587 580 577 575 567 566 570 572 571 572 573 571 570 570 574 579 585 592 593 595 600 604 614 619 620 624 631 640 649 657 665 683 705 717 726 734 741 751 758 767 780 786 787 781 769 762 755 748 742 743 752 763 783 801 812 823 834 836 828 818 805 802 818 833 848 867 885 901 917
 560 546 534 523 507 491 480 470 456 448 445 440 434 428 425 423 424 426 426 426 426 426 425 425 426 426 425 425 424 424 423 424 424 424 424 424 423 423 423 424 424 424 424 424 424 424 424 423 423 423 424 425 425 426 426 425 424 424 425 426 427 428 427 426 427 429 428 427 427 428 428 428 429 433 437 437 434 431 430 429 429 430 430 428 426 426 426 426 430 443 460 480 508 534 552 558 559 560 562 565 566 562 559 558 551 541 527 517 515 512 507 501 495 492 492 492 489 484 468 443 431 427 427 430 431 429 427 426 425 424 423 425 425 424 425 426 427 427 427 426 425 425 426 427 425 424 424 425 427 427 426 425 426 426 426 426 425 425 426 426 425 426 428 429 428 428 428 428 428 427 426 426 425 425 426 427 428 428 428 428 429 429 429 429 429 428 428 429 429 429 429 427 426 426 426 425 424 425 426 426 425 425 426 427 429 433 434 433 433 436 436 433 427 421 420 421 422 422 423 423 423 423 423 423 423 423 423 423 423 422 422 421 421 421 421 421 421 421 420 420 420 420 420 420 419 419 419 418 418 418 418 418 418 418 418 418 418 418 418 418 418 418 418 418 418 418 418 418 418 418 418 418 418 418 418 418 418 418 418 418 418 418 418 418 418 418 418 418 418 418 418 418 418 418 418 418 418 418 418 418 418 418 418 418 418 418 418 418 418 418 418 418 418 418 418 418 418 418 418 418 418 418 418 418 418 418 418 418 418 418 418 418 418 418 418 418 418 418 418 418 418 418 418 418 418 418 418 418 418 418 418 418 418 418 418 418 418 418 418 418 418 418 418 418 419 419 420 420 420 420 420 420 420 420 420 420 421 421 421 421 421 421 421 421 422 422 421 421 421 421 420 420 420 419 419 419 418 418 418 418 418 418 418 418 418 418 419 420 420 421 421 422 422 423 423 423 423 423 423 423 423 423 424 424 425 426 427 428 429 430 430 430 428 426 423 422 420 421 422 424 426 427 429 431 432 433 434 435 436 436 437 439 440 442 443 444 444 443 442 442 441 440 440 438 436 434 433 432 433 433 434 435 436 438 439 441 444 445 447 447 445 441 437 434 432 432 432 434 435 436 433 428 427 428 432 434 435 432 428 426 431 435 435 434 434 434 433 431 429 429 430 433 434 435 438 439 441 443 441 431 428 432 432 433 434 432 429 428 426 427 429 429 431 435 441 446 448 447 448 451 452 458 461 463 468 470 470 479 487 493 500 509 516 522 525 527 528 532 535 532 542 552 557 555 558 557 549 550 553 558 565 576 590 603 611 612 616 616 609 607 602 593 594 601 605 609 611 616 626 636 641 638 637 636 636 659 680 685 685 682 677 668 659 652 649 644 637 635 632 627 615 597 586 584 583 585 580 570 562 549 541 538 538 535 535 546 561 566 573 583 589 596 605 618 640 661 674 688 703 715 729 747 759 771 779 782 783 784 783 773 758 750 743 733 726 724 719 704 685 672 657 644 633 625 605 579 568 563 568 586 613 627 646 667 681 681 684 683 679 666 654 644 633 632 642 657 655 644 633 638 646 652 656 657 658 668 683 685 673 663 671 685 682 671 671 677 690 700 698 697 697 702 705 708 712 725 728 730 737 749 763 768 764 759 757 756 755 749 742 733 721 712 704 694 680 663 647 652 664 677 682 683 687 692 702 707 708 706 703 697 687 679 674 668 663 662 662 660 661 660 662 665 664 665 668 669 667 666 669 675 674 668 668 681 687 692 694 696 704 714 719 720 714 703 705 721 729 733 744 755 766 769 772 781 797 807 815 819 823 821 820 823 827 828 829 831 832 832 831 832 832 831 830 830 828 825 825 820 822 825 825 831 838 841 843 844 846 847 846 847 849 849 850 849 847 845 841 836 833 827 824 824 821 816 814 813 811 808 802 791 762 742 746 763 775 780 783 784 783 780 771 760 748 739 734 725 715 713 722 723 719 711 708 708 703 694 696 700 701 698 697 699 695 689 681 674 667 659 654 656 661 670 679 682 687 687 684 687 685 682 679 672 667 657 642 641 651 657 659 663 669 681 688 694 694 692 690 689 689 688 689 688 682 684 691 692 692 689 679 671 670 672 674 674 667 658 650 637 627 618 608 606 603 600 596 594 596 601 608 613 609 600 590 586 583 577 570 566 561 558 563 563 560 562 568 567 565 564 564 569 575 576 577 578 582 588 599 608 611 615 624 633 640 644 652 669 692 703 711 720 727 736 744 754 766 772 770 761 746 737 731 724 717 719 737 756 776 793 802 812 818 817 813 802 790 789 805 821 835 852 867 882 895
 581 563 545 535 524 507 492 478 465 457 453 450 443 433 426 425 424 424 425 426 426 426 426 426 426 425 425 424 424 423 423 424 425 424 424 424 424 423 423 424 424 425 424 425 426 426 425 424 423 423 424 424 425 426 427 427 426 425 425 425 425 426 426 426 427 429 429 428 429 430 429 429 429 429 431 431 430 431 430 429 429 430 429 428 425 424 425 426 431 444 459 479 508 533 548 554 557 560 561 562 563 558 552 544 529 518 510 503 497 491 486 483 481 481 480 476 471 463 449 435 428 425 425 427 429 428 427 427 426 425 424 425 425 425 425 426 429 430 429 427 426 425 426 426 426 424 424 424 425 425 425 425 425 425 425 425 424 425 425 426 426 427 428 428 428 427 426 427 428 428 428 427 426 425 425 427 427 427 427 427 427 428 428 428 428 428 428 428 428 427 426 425 424 424 424 425 425 424 424 425 427 428 429 431 434 440 442 442 441 440 440 436 428 422 420 421 422 423 423 424 424 424 424 424 424 423 423 423 423 422 422 422 421 421 421 421 421 421 420 420 420 420 420 419 419 419 418 418 418 418 418 418 418 418 418 418 418 418 418 418 418 418 418 418 418 418 418 418 418 418 418 418 418 418 418 418 418 418 418 418 418 418 418 418 418 418 418 418 418 418 418 418 418 418 418 418 418 418 418 418 418 418 418 418 418 418 418 418 418 418 418 418 418 418 418 418 418 418 418 418 418 418 418 418 418 418 418 418 418 418 418 418 418 418 418 418 418 418 418 418 418 418 418 418 418 418 418 418 418 418 418 418 418 418 418 418 418 418 418 418 418 418 418 418 419 419 419 419 419 420 420 420 420 420 420 420 420 420 420 420 420 420 420 420 420 420 420 420 420 419 418 418 418 418 418 418 418 418 418 418 418 418 418 418 418 418 418 418 418 419 419 420 421 421 422 422 422 422 422 422 422 423 423 423 424 424 425 426 427 427 427 427 426 425 423 422 422 422 422 424 425 426 427 428 429 430 431 432 433 433 434 435 436 437 438 438 438 438 438 437 437 436 436 435 433 432 431 431 431 432 432 433 434 435 436 437 439 440 440 440 439 437 435 433 432 431 431 432 432 432 430 428 427 428 429 430 431 430 428 428 430 432 432 432 432 432 431 430 429 428 429 431 432 433 434 436 437 437 435 432 428 428 429 430 430 429 427 425 425 425 424 422 421 422 425 429 434 434 433 433 434 434 435 435 439 443 446 452 462 468 476 479 483 490 492 497 504 508 510 512 521 530 535 534 535 534 532 531 527 525 527 531 542 551 554 552 553 554 558 566 565 560 561 569 584 589 592 592 599 603 605 606 606 605 605 613 633 650 661 661 657 652 646 641 635 630 625 621 625 624 617 592 578 568 569 571 565 560 554 537 527 524 526 526 527 530 545 554 562 564 571 581 582 591 604 623 637 658 673 688 704 716 726 735 747 754 757 758 758 750 742 740 735 725 717 707 692 680 668 647 632 625 624 616 595 560 552 553 569 587 613 633 644 652 660 658 659 659 653 642 630 620 613 611 616 625 626 615 606 620 630 638 645 642 643 651 653 654 651 646 646 654 654 649 646 652 658 660 662 662 660 651 649 663 675 698 708 712 716 726 735 732 729 729 732 727 722 717 713 707 698 690 681 671 658 635 613 621 634 647 656 660 663 662 669 674 668 665 662 655 652 652 647 645 643 641 640 641 641 639 637 635 627 620 622 630 637 641 642 642 640 634 631 652 662 665 672 680 687 695 695 693 686 685 690 702 710 713 726 736 745 757 765 769 768 769 776 784 788 796 805 813 817 817 819 825 827 826 826 828 827 824 817 809 802 797 792 793 809 823 830 835 840 843 845 844 844 843 843 843 842 841 839 838 840 840 834 830 827 823 821 818 813 810 806 804 804 802 797 781 747 724 723 737 751 756 761 766 768 764 754 747 740 737 733 724 708 701 701 699 696 692 695 688 681 682 687 687 681 680 680 676 671 671 666 662 653 646 643 643 642 644 651 655 655 651 652 655 656 655 657 652 641 634 624 628 632 641 643 645 648 657 664 673 679 676 672 672 669 669 665 659 645 653 665 672 676 673 662 655 652 655 658 660 658 652 640 626 621 614 604 601 601 594 584 581 582 588 594 597 584 580 581 582 580 575 568 560 553 547 549 555 555 554 556 560 561 558 556 559 561 565 566 567 570 573 581 590 598 606 615 622 628 633 641 660 677 687 695 704 711 718 722 729 738 742 740 733 722 719 720 715 705 702 720 745 769 783 789 792 795 794 790 781 774 777 792 808 826 841 853 866 877
 593 575 554 543 534 522 506 490 480 474 468 465 460 449 439 435 431 428 426 426 426 426 426 426 425 425 424 424 423 423 423 424 424 425 425 424 424 424 423 424 426 427 426 427 430 429 426 423 422 423 424 425 425 426 427 427 427 427 426 425 425 425 426 427 428 429 429 430 430 429 429 429 430 428 427 428 429 430 430 430 431 431 429 426 423 422 424 426 430 443 456 475 502 523 537 544 547 550 552 552 549 544 537 526 512 501 495 490 485 478 474 473 472 466 458 449 442 438 433 429 426 425 425 427 429 430 429 428 428 427 427 426 426 426 426 428 429 429 427 426 425 424 424 425 425 424 424 424 424 425 425 425 425 425 425 424 424 424 425 426 427 427 427 427 427 427 427 427 427 427 428 428 427 426 426 426 427 427 427 427 427 427 427 427 427 427 427 426 425 425 424 424 425 425 424 425 427 425 424 425 428 431 433 433 432 433 434 433 427 424 426 427 424 421 421 422 423 424 424 424 425 425 425 424 424 424 424 423 423 423 422 422 422 421 421 421 421 421 420 420 420 420 419 419 419 418 418 418 418 418 418 418 418 418 418 418 418 418 418 418 418 418 418 418 418 418 418 418 418 418 418 418 418 418 418 418 418 418 418 418 418 418 418 418 418 418 418 418 418 418 418 418 418 418 418 418 418 418 418 418 418 418 418 418 418 418 418 418 418 418 418 418 418 418 418 418 418 418 418 418 418 418 418 418 418 418 418 418 418 418 418 418 418 418 418 418 418 418 418 418 418 418 418 418 418 418 418 418 418 418 418 418 418 418 418 418 418 418 418 418 418 418 418 418 418 418 418 419 419 419 419 419 419 419 419 419 419 419 419 419 419 419 419 419 419 419 419 418 418 418 418 418 418 418 418 418 418 418 418 418 418 418 418 418 418 418 418 418 418 418 418 419 420 420 420 421 421 421 421 422 422 422 422 422 423 423 423 424 424 425 425 424 424 423 423 422 422 422 422 423 424 424 425 426 427 428 428 429 430 430 431 431 432 433 433 434 434 434 433 433 433 432 432 431 430 430 429 429 429 429 430 430 431 432 432 433 434 435 435 435 435 434 433 431 431 430 430 430 430 430 429 428 427 427 428 428 428 428 428 428 429 430 430 430 430 430 429 428 428 428 428 429 430 431 432 433 433 433 432 430 429 428 428 428 428 427 426 425 424 424 423 421 421 422 423 426 429 430 430 430 430 430 430 430 431 428 428 432 440 443 452 457 457 462 469 470 473 482 488 489 490 490 494 500 500 503 505 505 505 505 505 510 517 520 521 524 529 534 536 541 545 546 548 552 560 567 569 570 575 580 581 582 581 573 572 588 599 612 621 634 641 643 637 630 626 625 616 607 609 611 606 592 576 562 557 558 556 554 544 527 520 515 510 511 516 523 538 540 542 545 550 560 564 572 588 599 609 630 644 657 678 692 701 709 707 708 714 715 718 731 730 725 717 703 691 677 666 660 637 622 615 611 610 600 573 543 541 548 565 585 612 629 633 633 635 634 628 626 624 618 606 598 588 585 591 594 596 592 587 598 613 619 618 612 610 613 627 633 631 630 631 633 637 636 629 629 634 635 637 638 634 627 622 631 646 671 681 680 680 692 698 699 699 700 703 703 704 704 699 692 680 661 646 640 625 611 592 588 594 597 610 616 622 625 631 630 625 618 611 609 610 611 609 605 596 593 595 598 602 605 606 596 586 581 584 594 604 607 611 615 616 610 605 619 638 649 655 661 665 678 682 678 668 671 680 686 693 701 715 721 725 733 741 744 746 746 746 753 760 767 779 788 794 793 794 801 803 802 810 817 813 804 791 786 776 764 762 773 801 819 831 836 839 843 846 848 849 847 845 841 839 838 835 835 835 834 830 829 827 823 821 818 812 808 804 800 799 797 789 770 738 714 706 712 720 723 727 733 737 737 734 733 733 733 729 718 700 687 679 671 666 663 676 676 672 672 672 669 665 663 659 657 655 655 652 647 639 630 627 627 625 620 618 617 617 623 624 624 628 630 626 621 615 611 608 617 620 625 625 625 629 634 640 646 652 651 647 643 641 642 638 630 613 619 639 647 655 653 645 637 636 639 638 641 643 634 628 614 603 603 599 595 592 585 575 572 569 573 586 585 567 564 572 577 577 572 563 555 542 538 544 549 550 551 550 550 551 551 551 552 555 559 559 560 561 561 565 576 584 592 599 603 608 620 635 650 657 659 665 675 684 695 700 703 708 708 707 705 703 704 708 709 704 699 709 730 753 768 774 774 771 767 763 761 763 772 785 797 814 828 840 853 864
 600 586 568 557 548 540 527 512 504 498 489 480 475 468 460 454 450 447 443 436 431 429 427 426 425 424 424 424 424 424 424 424 424 424 425 424 424 424 424 426 428 429 428 428 430 429 426 423 422 424 426 426 426 427 427 426 427 427 427 426 426 426 427 428 428 429 430 429 428 428 428 429 430 429 428 429 430 431 431 431 430 430 428 425 423 421 423 425 427 435 447 464 488 508 522 529 531 532 534 537 537 532 525 514 499 484 476 472 469 465 464 463 457 447 438 432 428 428 427 426 425 425 426 428 430 430 430 429 428 428 428 427 426 426 426 426 426 426 425 424 424 424 424 423 424 424 423 423 424 426 426 425 425 425 424 424 424 424 425 426 427 427 427 427 427 427 427 427 427 427 427 426 426 425 425 425 425 425 425 425 425 424 424 424 426 428 427 426 425 425 425 427 428 427 425 425 426 425 424 424 427 430 430 428 426 425 422 420 417 419 423 424 424 422 424 425 425 424 425 425 426 426 425 425 425 424 424 424 423 423 422 422 422 422 421 421 421 421 420 420 420 419 419 419 418 418 418 418 418 418 418 418 418 418 418 418 418 418 418 418 418 418 418 418 418 418 418 418 418 418 418 418 418 418 418 418 418 418 418 418 418 418 418 418 418 418 418 418 418 418 418 418 418 418 418 418 418 418 418 418 418 418 418 418 418 418 418 418 418 418 418 418 418 418 418 418 418 418 418 418 418 418 418 418 418 418 418 418 418 418 418 418 418 418 418 418 418 418 418 418 418 418 418 418 418 418 418 418 418 418 418 418 418 418 418 418 418 418 418 418 418 418 418 418 418 418 418 418 418 418 418 418 418 418 418 418 418 418 418 418 418 418 418 418 418 418 418 418 418 418 418 418 418 418 418 418 418 418 418 418 418 418 418 418 418 418 418 418 418 418 418 418 418 419 419 420 420 420 421 421 421 421 421 421 421 422 422 422 422 423 423 423 422 422 422 422 421 422 422 422 423 423 424 424 425 425 426 426 427 427 428 428 429 429 430 430 430 430 430 430 429 429 429 428 428 428 427 427 427 427 427 428 428 429 429 430 431 431 432 432 432 431 430 430 429 429 429 428 428 428 427 427 427 427 427 427 427 427 427 427 428 428 428 428 428 428 428 427 427 427 427 428 429 429 430 430 431 430 430 429 428 427 427 427 427 426 425 424 424 423 422 422 421 422 423 425 427 428 428 429 429 429 429 429 429 429 429 431 436 439 443 446 444 442 448 452 457 465 468 466 466 463 464 475 477 478 482 487 490 492 491 495 500 501 498 504 514 521 523 526 528 527 529 536 545 551 553 552 553 560 562 559 556 544 542 564 578 587 597 606 615 620 621 621 620 615 606 600 600 602 603 592 582 562 551 550 549 542 528 518 513 510 504 499 503 513 527 534 534 535 537 543 551 560 574 584 594 609 620 634 657 672 681 684 683 688 698 700 698 704 701 698 696 682 672 662 650 632 616 612 610 606 594 579 555 531 534 544 566 586 604 611 608 606 612 612 613 610 603 596 586 579 568 566 572 576 577 575 575 581 590 594 593 588 585 589 597 606 603 602 607 613 618 620 614 614 615 621 623 627 623 614 602 598 619 648 657 654 650 667 676 676 670 673 681 682 682 689 682 670 651 625 615 611 603 597 578 567 565 568 580 584 588 592 596 596 589 578 571 575 578 577 572 567 561 553 561 569 570 570 568 557 552 551 551 567 582 588 592 595 595 590 590 601 617 632 643 650 654 657 659 654 654 659 667 674 679 686 700 703 705 712 713 720 729 732 731 733 740 745 750 754 762 765 757 758 766 771 782 790 791 786 775 765 749 743 751 761 787 806 816 822 830 836 839 845 850 851 845 831 826 828 834 834 833 833 829 827 826 823 820 819 815 811 804 799 795 787 771 749 718 695 686 687 692 691 689 693 697 700 702 705 710 714 711 701 683 670 659 648 645 649 662 667 667 665 662 656 651 648 647 645 642 641 638 633 622 615 615 618 614 608 604 596 596 607 609 608 608 608 606 607 605 600 597 607 612 612 610 612 616 619 622 625 628 628 627 625 622 620 615 607 592 593 610 620 626 631 626 624 624 624 623 622 619 607 606 596 585 582 580 584 586 580 573 567 564 567 575 564 550 553 564 573 571 562 555 547 532 531 538 543 545 548 548 546 546 546 547 549 552 554 555 556 556 556 558 565 571 577 582 587 593 607 625 638 638 637 641 649 659 671 678 681 684 684 684 685 686 686 685 686 687 690 703 721 737 750 756 756 749 743 737 736 746 763 777 788 802 813 824 841 854
 622 611 597 586 575 564 553 544 537 530 519 509 506 502 493 483 477 476 474 467 456 448 440 432 428 426 426 426 426 425 425 425 425 425 426 425 424 424 425 426 427 428 428 428 428 427 424 424 424 426 427 428 428 428 427 427 427 429 429 428 428 428 428 428 428 428 429 428 427 428 427 428 429 429 429 430 430 430 430 429 429 428 428 427 425 423 423 423 425 428 433 444 462 481 499 507 510 512 515 517 515 509 500 486 471 460 454 451 449 448 447 444 436 430 428 427 426 426 425 425 425 426 426 427 428 428 428 427 426 425 425 424 424 424 423 422 423 425 425 424 423 423 423 422 422 422 422 422 424 426 426 424 425 425 425 424 424 425 425 426 427 427 426 426 426 426 426 425 424 424 424 423 423 423 424 424 423 422 422 422 422 422 422 422 425 428 428 427 425 425 425 427 428 426 425 424 424 424 423 423 424 425 424 424 424 423 421 419 419 423 425 426 424 424 427 428 427 426 426 427 427 427 426 426 425 425 424 424 424 423 423 422 422 422 421 421 421 421 420 420 420 419 419 418 418 418 418 418 418 418 418 418 418 418 418 418 418 418 418 418 418 418 418 418 418 418 418 418 418 418 418 418 418 418 418 418 418 418 418 418 418 418 418 418 418 418 418 418 418 418 418 418 418 418 418 418 418 418 418 418 418 418 418 418 418 418 418 418 418 418 418 418 418 418 418 418 418 418 418 418 418 418 418 418 418 418 418 418 418 418 418 418 418 418 418 418 418 418 418 418 418 418 418 418 418 418 418 418 418 418 418 418 418 418 418 418 418 418 418 418 418 418 418 418 418 418 418 418 418 418 418 418 418 418 418 418 418 418 418 418 418 418 418 418 418 418 418 418 418 418 418 418 418 418 418 418 418 418 418 418 418 418 418 418 418 418 418 418 418 418 418 418 418 418 418 419 419 419 420 420 420 420 420 420 420 420 420 420 421 421 421 421 421 421 421 421 421 421 421 421 421 421 422 422 423 423 423 424 424 424 425 425 425 425 426 426 426 426 426 426 426 425 425 425 425 425 424 424 424 424 425 425 425 425 426 426 427 427 428 428 428 428 428 427 427 427 427 426 426 426 426 426 426 425 425 426 426 426 426 426 426 426 426 426 427 426 426 426 426 426 426 426 427 427 428 428 428 428 428 427 427 426 426 426 425 425 424 424 423 423 422 422 422 422 423 424 425 426 427 427 427 427 428 428 428 429 429 431 434 437 439 440 440 439 442 444 446 447 444 442 441 441 442 446 449 452 459 463 467 471 474 475 474 475 480 489 494 497 506 507 504 508 514 515 519 528 527 518 519 529 536 537 536 522 522 544 558 563 568 571 576 584 586 595 599 599 597 589 588 591 595 591 582 555 540 538 531 521 517 511 504 499 495 492 491 495 505 521 527 522 523 529 532 538 552 567 572 577 586 598 620 641 653 664 670 673 676 679 680 679 679 678 668 658 651 638 622 615 610 606 598 584 568 555 536 521 524 539 558 573 581 586 587 586 587 585 589 588 579 570 561 553 546 543 544 538 537 537 544 554 557 557 562 565 564 565 569 576 576 572 572 580 588 593 591 595 600 606 610 614 610 598 581 575 579 602 628 631 628 632 637 638 638 643 651 654 652 654 646 627 602 587 586 584 571 563 549 542 535 538 543 551 558 561 553 549 544 540 536 532 529 525 527 528 518 512 519 523 525 525 522 518 515 513 521 537 556 564 566 568 560 556 569 589 603 614 623 624 621 623 633 636 634 642 653 653 660 666 676 682 684 682 677 683 697 705 710 713 715 719 722 722 722 718 715 720 729 735 742 752 755 751 734 722 715 724 737 750 761 769 778 791 802 809 812 820 833 837 831 818 810 807 808 805 806 810 814 815 812 808 803 800 800 801 796 785 768 749 729 711 691 675 665 660 658 654 649 646 642 641 647 652 658 668 675 674 661 648 636 623 622 629 640 645 645 643 641 640 633 629 629 626 627 625 621 621 617 612 608 603 599 596 591 584 583 589 594 593 589 573 566 571 578 579 571 577 591 599 601 602 601 602 606 608 606 604 605 606 600 592 586 578 570 568 577 588 595 603 600 596 600 606 608 609 599 586 580 574 570 567 565 569 577 574 569 566 564 561 552 537 537 544 558 562 554 546 545 538 526 524 531 537 541 542 544 544 544 544 545 547 551 553 553 553 553 553 554 557 561 567 572 576 583 593 609 622 622 622 625 630 636 645 650 654 657 658 658 659 659 656 649 644 645 662 689 709 719 725 731 732 726 718 708 707 719 742 759 770 784 798 809 826 840
 654 644 633 620 602 585 573 564 557 552 545 539 536 529 519 509 503 505 505 500 490 481 468 452 438 430 427 427 427 426 426 425 426 426 426 427 427 426 425 425 425 426 427 426 425 424 425 425 426 428 428 428 428 429 428 427 428 429 431 430 429 428 428 428 428 427 427 427 427 427 427 427 428 429 430 429 429 428 428 428 427 427 428 429 429 426 423 422 423 425 427 431 438 448 464 476 483 490 490 488 483 476 466 453 445 442 440 438 436 434 431 428 427 426 427 426 425 425 425 425 426 425 425 425 424 424 424 424 423 422 422 422 423 423 422 421 422 424 425 424 423 422 422 422 422 422 422 424 426 428 427 425 425 426 425 424 424 424 426 427 428 427 427 427 428 429 427 424 424 423 423 423 424 424 424 424 424 423 423 423 423 423 424 424 425 427 428 428 426 424 424 424 424 424 424 424 424 423 423 422 423 423 423 424 425 425 423 421 423 429 428 426 423 423 426 426 426 426 429 431 430 428 427 426 426 425 425 424 424 423 423 423 422 422 421 421 421 421 420 420 420 420 419 418 418 418 418 418 418 418 418 418 418 418 418 418 418 418 418 418 418 418 418 418 418 418 418 418 418 418 418 418 418 418 418 418 418 418 418 418 418 418 418 418 418 418 418 418 418 418 418 418 418 418 418 418 418 418 418 418 418 418 418 418 418 418 418 418 418 418 418 418 418 418 418 418 418 418 418 418 418 418 418 418 418 418 418 418 418 418 418 418 418 418 418 418 418 418 418 418 418 418 418 418 418 418 418 418 418 418 418 418 418 418 418 418 418 418 418 418 418 418 418 418 418 418 418 418 418 418 418 418 418 418 418 418 418 418 418 418 418 418 418 418 418 418 418 418 418 418 418 418 418 418 418 418 418 418 418 418 418 418 418 418 418 418 418 418 418 418 418 418 418 418 418 418 418 418 418 418 418 418 418 418 418 418 418 418 419 419 419 419 419 419 419 419 419 419 419 419 420 420 420 420 420 420 421 421 421 421 421 422 422 422 422 422 422 422 422 422 422 422 422 422 422 422 421 421 421 421 422 422 422 422 422 422 423 424 424 425 425 425 425 425 425 425 425 425 425 424 424 424 424 424 424 424 424 424 424 424 425 425 425 425 425 425 425 424 424 424 425 425 425 425 426 426 426 426 426 425 425 425 425 424 424 424 423 423 423 422 422 422 422 422 423 423 424 425 425 426 426 426 427 427 428 428 429 430 432 434 436 437 437 438 439 440 441 441 440 439 438 437 437 438 438 435 434 437 448 452 452 446 450 454 460 470 477 483 481 474 474 478 482 486 490 499 509 511 512 513 514 515 513 510 514 529 540 544 551 551 549 553 555 561 578 582 582 582 582 584 589 586 565 539 533 528 520 513 511 502 495 490 488 486 486 485 489 505 517 513 514 521 520 520 533 546 553 561 571 578 586 600 615 630 642 652 660 663 664 664 665 657 640 625 614 606 602 605 602 591 578 558 538 533 526 512 512 527 540 549 555 557 558 560 557 558 561 560 556 551 541 532 526 528 523 523 525 523 522 525 524 530 541 546 544 547 550 552 551 556 554 555 561 574 575 578 583 590 593 591 585 575 570 571 567 567 589 605 604 599 596 599 603 607 610 610 607 601 593 580 566 553 550 548 532 521 522 516 506 507 508 507 517 517 514 512 508 509 499 488 485 483 484 486 486 479 475 483 486 480 486 494 493 497 506 518 534 543 544 542 542 547 558 572 585 595 601 602 603 603 609 617 618 621 629 638 640 648 653 658 665 664 663 663 669 675 682 687 690 692 693 694 693 691 689 690 692 697 701 710 706 692 683 682 686 700 715 723 726 731 734 733 739 743 748 766 792 809 810 804 795 788 779 774 775 776 782 783 778 775 774 775 777 778 771 749 728 711 697 686 678 669 653 633 622 617 616 611 600 592 595 598 606 622 638 646 638 628 615 598 591 595 606 609 609 609 612 612 609 604 598 594 598 605 609 610 609 603 597 584 577 573 565 559 557 563 573 574 563 547 544 548 548 549 547 550 561 569 573 582 590 589 584 584 591 589 588 581 571 563 550 548 549 548 550 566 577 582 580 578 576 576 582 591 586 575 570 566 564 561 558 560 567 568 561 554 550 544 531 520 527 543 553 554 549 540 534 526 515 514 523 529 536 539 541 542 542 542 545 547 551 553 553 554 555 554 552 555 558 563 569 572 576 584 595 606 608 609 612 616 620 625 629 632 635 635 635 635 633 625 617 616 623 645 675 694 701 704 708 712 708 701 693 688 697 717 734 749 768 785 797 812 823
 671 664 656 644 627 610 597 584 573 566 561 555 549 540 530 522 520 522 520 512 504 499 491 474 457 440 431 428 427 426 426 426 426 426 425 426 426 426 425 425 425 425 426 426 424 426 428 429 428 428 428 428 430 430 429 428 429 430 430 430 429 428 429 429 428 428 428 427 427 427 427 427 427 429 431 430 429 428 428 428 427 427 428 430 430 428 424 422 422 423 425 427 429 432 439 448 456 463 463 458 453 447 440 436 434 433 431 429 428 427 425 425 426 426 426 425 424 424 424 425 425 425 424 423 423 423 423 423 422 421 421 422 423 424 423 422 423 424 424 424 423 422 422 422 422 423 426 428 430 431 431 431 431 431 428 425 424 425 428 430 429 428 428 429 431 431 429 427 425 424 425 426 426 426 426 426 426 425 424 424 423 424 425 425 425 426 429 430 427 424 423 423 424 424 424 425 424 423 422 422 422 422 423 425 426 425 424 424 426 428 428 425 423 423 423 424 423 425 430 434 434 432 430 427 426 425 425 425 424 424 423 423 422 422 421 421 421 421 420 420 420 420 419 419 418 418 418 418 418 418 418 418 418 418 418 418 418 418 418 418 418 418 418 418 418 418 418 418 418 418 418 418 418 418 418 418 418 418 418 418 418 418 418 418 418 418 418 418 418 418 418 418 418 418 418 418 418 418 418 418 418 418 418 418 418 418 418 418 418 418 418 418 418 418 418 418 418 418 418 418 418 418 418 418 418 418 418 418 418 418 418 418 418 418 418 418 418 418 418 418 418 418 418 418 418 418 418 418 418 418 418 418 418 418 418 418 418 418 418 418 418 418 418 418 418 418 418 418 418 418 418 418 418 418 418 418 418 418 418 418 418 418 418 418 418 418 418 418 418 418 418 418 418 418 418 418 418 418 418 418 418 418 418 418 418 418 418 418 418 418 418 418 418 418 418 418 418 418 418 418 418 418 418 418 418 418 418 418 418 418 418 418 418 418 418 418 418 418 418 418 418 418 418 418 418 418 418 419 419 419 419 419 419 419 419 419 419 419 419 419 419 419 419 419 419 419 419 419 419 419 419 419 419 419 419 419 420 421 422 422 422 423 423 423 423 423 423 423 423 423 423 423 423 423 423 423 423 423 423 423 423 423 423 423 423 423 423 423 423 423 423 423 423 424 424 424 424 424 424 424 424 423 423 423 423 423 423 422 422 422 422 422 422 422 422 423 423 424 424 425 425 425 426 426 427 427 428 429 431 432 433 434 435 436 437 437 438 438 437 436 436 436 435 435 435 434 433 436 443 446 444 440 440 437 437 448 457 462 462 463 465 467 468 471 480 485 493 497 497 497 499 501 502 503 506 510 518 522 528 533 536 540 544 547 559 569 575 580 582 583 584 575 551 534 527 520 512 507 502 494 488 486 483 480 479 477 478 488 509 512 511 515 511 508 519 538 544 549 560 566 567 575 585 600 609 619 635 641 646 650 649 642 629 612 603 593 587 587 583 570 552 527 521 520 518 510 509 515 523 527 533 534 534 536 535 534 533 533 533 527 521 512 505 510 508 506 513 508 503 496 496 501 508 517 522 523 529 531 530 538 542 545 546 547 556 563 568 570 572 574 570 566 564 566 560 551 555 570 572 571 574 576 574 572 570 570 568 564 561 554 544 530 522 520 510 498 492 485 478 483 486 486 494 489 484 482 476 475 474 468 463 467 469 471 469 459 455 464 467 464 471 480 483 486 493 502 512 519 517 510 521 537 550 558 560 566 576 576 580 585 582 588 596 605 616 625 628 632 634 635 640 644 645 643 644 650 657 662 665 667 667 666 665 664 662 662 660 663 667 668 662 654 654 653 661 671 681 689 696 700 701 698 699 699 698 715 746 770 771 767 755 748 742 741 742 742 747 749 747 743 742 745 749 748 739 719 705 694 682 674 670 660 642 613 591 586 591 586 576 570 569 570 577 593 607 615 613 606 594 577 566 565 571 571 569 572 583 590 590 577 578 586 587 589 593 590 589 585 571 560 555 551 546 543 542 546 553 555 550 541 538 536 533 529 523 529 545 558 563 569 572 567 564 562 570 574 569 564 556 548 539 533 530 531 533 543 558 564 560 555 554 557 563 575 578 569 563 559 556 555 555 556 557 560 555 550 544 528 513 512 521 537 542 545 544 533 520 510 505 508 516 525 534 539 541 540 539 540 543 546 550 553 553 554 556 555 553 554 557 561 566 570 574 580 587 596 600 602 604 607 611 617 621 624 626 625 624 621 612 604 603 610 624 648 668 680 687 691 694 696 694 691 685 679 682 699 713 729 753 773 786 797 808
 682 674 669 662 650 637 627 616 605 596 588 579 569 557 549 544 539 533 528 520 512 512 509 498 484 463 442 432 429 427 426 426 426 425 425 425 425 426 426 426 425 425 426 426 426 429 431 431 429 427 428 429 430 431 429 429 430 430 430 429 429 429 430 432 431 429 429 428 427 428 428 428 428 429 431 432 431 429 428 427 427 427 427 428 428 427 426 424 423 423 423 424 425 426 428 430 434 438 437 433 431 429 428 427 427 426 426 426 426 426 426 426 426 427 425 424 424 424 424 424 424 424 424 423 422 422 422 422 423 424 424 425 426 425 424 424 424 424 423 423 423 422 422 421 423 425 428 430 432 433 434 436 437 437 433 428 427 429 431 431 429 428 428 429 429 430 430 428 426 425 425 426 426 426 426 426 426 425 423 422 422 423 424 424 424 426 429 430 428 425 423 423 424 425 425 425 424 422 422 422 422 422 424 426 426 425 425 425 427 428 426 424 424 424 424 423 423 423 428 433 435 437 436 430 426 426 425 425 425 424 423 423 422 422 421 421 421 421 420 420 420 420 419 419 418 418 418 418 418 418 418 418 418 418 418 418 418 418 418 418 418 418 418 418 418 418 418 418 418 418 418 418 418 418 418 418 418 418 418 418 418 418 418 418 418 418 418 418 418 418 418 418 418 418 418 418 418 418 418 418 418 418 418 418 418 418 418 418 418 418 418 418 418 418 418 418 418 418 418 418 418 418 418 418 418 418 418 418 418 418 418 418 418 418 418 418 418 418 418 418 418 418 418 418 418 418 418 418 418 418 418 418 418 418 418 418 418 418 418 418 418 418 418 418 418 418 418 418 418 418 418 418 418 418 418 418 418 418 418 418 418 418 418 418 418 418 418 418 418 418 418 418 418 418 418 418 418 418 418 418 418 418 418 418 418 418 418 418 418 418 418 418 418 418 418 418 418 418 418 418 418 418 418 418 418 418 418 418 418 418 418 418 418 418 418 418 418 418 418 418 418 418 418 418 418 418 418 418 418 418 418 418 418 418 418 418 418 418 418 418 418 418 418 418 418 418 418 418 418 418 418 418 418 418 418 418 418 419 419 419 419 420 421 421 421 421 421 421 421 421 421 421 421 421 421 421 421 421 422 422 422 422 422 422 422 422 422 421 421 421 421 421 422 422 422 422 422 422 422 422 422 422 422 422 422 422 422 421 421 421 421 421 421 421 422 422 422 423 423 423 424 424 425 425 425 426 427 428 429 430 431 432 432 433 434 434 435 435 434 434 434 434 433 433 433 433 434 436 439 441 440 439 438 437 438 443 447 449 449 450 453 455 456 455 459 467 473 474 478 481 485 488 488 485 484 486 489 492 496 497 500 508 520 529 535 541 549 560 566 567 569 565 555 532 517 511 507 502 496 487 481 479 477 472 471 469 469 477 504 515 512 506 499 493 502 518 523 528 544 554 559 564 568 578 584 589 600 612 617 620 619 616 612 603 596 583 571 565 557 535 517 511 512 513 515 508 504 501 494 498 507 511 510 507 504 506 496 501 497 486 491 498 497 497 495 488 483 490 489 479 474 473 479 488 491 496 503 512 519 523 525 529 530 527 534 540 545 549 549 553 554 555 554 553 543 531 526 524 522 529 535 538 536 534 533 539 540 537 532 530 522 510 504 496 484 473 474 472 468 470 472 471 467 462 461 457 452 455 454 448 444 445 447 446 446 443 439 440 443 449 459 465 466 468 474 483 488 492 488 490 503 519 529 536 538 538 540 540 545 557 565 574 575 579 590 598 605 609 612 613 614 622 624 624 625 626 630 632 634 634 634 634 632 629 625 612 604 604 618 623 617 619 622 626 635 638 641 646 655 656 655 660 663 665 668 675 691 703 700 698 694 693 690 686 681 677 675 676 692 704 710 713 706 704 693 676 666 656 647 641 639 634 622 595 565 555 563 567 564 561 560 559 559 563 570 577 580 577 569 556 542 537 542 540 535 534 547 566 564 551 556 568 563 566 568 566 565 559 545 537 538 533 527 526 527 535 538 537 536 536 535 532 526 519 514 516 530 548 557 559 558 557 556 552 551 554 553 548 543 539 535 530 522 513 517 528 538 545 546 541 541 546 553 561 569 562 552 550 550 550 548 546 544 539 540 541 536 513 505 505 515 524 533 531 523 514 505 502 502 506 513 527 538 541 540 538 539 539 543 543 545 550 552 552 553 553 553 553 555 559 564 568 572 576 583 590 593 596 599 602 607 614 619 619 614 611 608 602 594 592 598 615 632 649 657 660 665 672 675 678 679 679 676 670 668 678 694 705 727 753 768 779 788
 701 687 677 672 669 662 654 644 633 625 616 606 597 585 577 573 568 558 550 538 526 524 520 511 502 486 461 442 432 429 427 427 426 425 425 426 426 426 426 426 425 425 425 426 427 428 430 430 428 427 428 430 431 430 430 429 430 430 429 429 430 430 432 435 433 429 429 430 429 429 429 429 429 430 432 434 432 429 427 426 426 425 426 426 427 427 426 426 426 426 425 423 422 423 425 427 428 428 427 425 425 426 426 426 426 426 426 425 425 425 425 425 425 425 425 424 424 423 423 423 423 423 425 424 422 422 421 422 423 424 425 425 424 423 423 424 424 424 423 422 423 423 423 422 422 424 424 425 426 429 431 433 434 434 432 429 429 430 430 430 428 427 428 427 427 428 429 428 427 425 424 425 426 426 426 426 426 426 424 424 425 425 426 426 427 428 430 429 427 426 425 424 425 425 425 425 424 423 423 423 423 423 425 425 425 425 425 425 426 428 426 425 424 425 424 424 423 423 426 430 432 433 436 435 428 426 426 426 425 424 424 423 422 421 421 421 421 420 420 420 420 420 419 419 419 418 418 418 418 418 418 418 418 417 417 417 417 417 417 417 417 417 417 417 417 418 418 418 418 418 418 418 418 418 418 418 418 418 418 418 418 418 418 418 418 418 418 418 418 418 418 418 418 418 418 418 418 418 418 418 418 418 418 418 418 418 418 418 418 418 418 418 418 418 418 418 418 418 418 418 418 418 418 418 418 418 418 418 418 418 418 418 418 418 418 418 418 418 418 418 418 418 418 418 418 418 418 418 418 418 418 418 418 418 418 418 418 418 418 418 418 418 418 418 418 418 418 418 418 418 418 418 418 418 418 418 418 418 418 418 418 418 418 418 418 418 418 418 418 418 418 418 418 418 418 418 418 418 418 418 418 418 418 418 418 418 418 418 418 418 418 418 418 418 418 418 418 418 418 418 418 418 418 418 418 418 418 418 418 418 418 418 418 418 418 418 418 418 418 418 418 418 418 418 418 418 418 418 418 418 418 418 418 418 418 418 418 418 418 418 418 418 418 418 418 418 418 418 418 418 418 418 418 418 418 418 418 418 418 418 418 418 418 419 419 419 419 419 419 419 420 420 420 420 420 420 420 420 420 420 420 420 420 420 420 420 420 420 420 419 419 420 420 420 420 420 420 420 420 420 420 420 420 421 421 421 420 420 420 420 420 420 420 420 421 421 421 422 422 422 422 423 423 424 424 425 425 426 427 427 428 429 430 430 431 431 432 432 432 432 432 432 432 432 432 432 433 434 436 437 437 437 437 437 438 440 443 444 445 446 447 448 448 445 443 444 448 453 462 472 475 468 463 464 467 472 475 476 481 477 477 484 495 510 515 512 517 529 536 544 553 552 544 523 509 502 501 496 490 481 471 466 464 463 464 465 463 473 498 510 510 499 481 478 481 496 504 509 517 523 537 552 557 567 577 579 584 589 593 593 592 594 588 578 570 560 547 531 515 505 501 500 501 504 504 498 488 479 476 472 473 478 479 476 474 476 467 469 471 470 466 464 470 477 471 460 457 462 470 464 462 462 469 474 477 485 489 496 500 498 501 495 497 500 509 517 518 518 518 520 527 526 522 520 511 506 503 502 503 500 499 501 503 505 505 506 504 501 501 497 490 484 478 467 459 456 458 458 457 457 455 452 445 439 436 432 437 439 438 435 433 433 433 433 435 434 433 432 431 431 435 441 444 449 451 448 452 463 475 481 489 498 508 513 521 523 521 522 528 539 548 560 562 563 568 570 571 574 578 583 585 593 598 603 606 606 605 603 602 602 603 604 601 596 586 561 562 573 583 583 582 585 596 602 603 604 606 607 615 618 617 617 624 643 649 653 656 652 646 645 646 647 648 644 639 631 625 622 624 631 629 642 670 656 634 617 607 599 589 584 584 585 581 563 532 517 524 539 546 548 544 540 539 540 545 550 553 552 546 532 515 507 514 520 518 520 525 535 542 539 536 540 538 541 546 546 547 541 525 511 513 512 511 506 501 506 518 520 520 521 520 520 515 510 508 509 514 530 535 536 539 539 538 538 537 533 532 533 531 527 525 521 513 502 502 509 516 519 527 529 531 536 542 547 553 550 544 542 541 540 537 536 534 531 529 527 524 509 502 493 500 513 520 514 508 505 501 501 502 507 516 533 540 540 534 534 537 538 540 541 544 547 549 550 549 549 550 550 552 555 561 565 569 574 579 585 588 590 594 598 605 615 616 608 599 594 590 584 582 588 600 618 633 644 650 650 650 653 655 657 656 653 651 652 653 662 679 690 702 725 744 758 766
 731 711 693 683 679 675 669 658 644 635 629 623 617 608 600 597 593 585 575 561 546 538 530 521 515 504 481 459 444 435 430 428 427 427 427 429 429 427 425 425 425 425 425 426 426 426 428 428 427 427 428 429 430 430 429 429 428 429 430 431 431 431 432 433 431 428 428 429 430 430 430 430 430 431 434 434 431 428 427 426 426 426 425 427 428 427 426 427 428 429 428 426 423 422 423 425 425 425 424 423 424 425 425 425 425 425 425 425 425 425 425 424 423 423 424 425 424 423 422 422 422 423 424 424 423 422 423 422 423 423 423 423 422 422 422 422 423 423 422 423 423 422 421 421 421 422 422 422 422 424 427 429 430 431 430 429 429 429 430 430 430 430 429 428 429 430 429 428 427 425 424 425 426 427 427 427 427 427 427 427 428 428 428 428 428 428 429 428 427 426 426 426 426 426 426 425 425 424 424 424 424 424 425 425 425 425 424 423 424 426 425 425 425 425 424 424 424 424 425 428 429 428 431 435 432 430 428 426 426 425 424 423 422 421 421 421 420 420 420 420 420 420 419 419 419 418 418 418 418 418 417 417 417 417 417 417 417 417 417 417 417 417 417 417 417 417 417 418 418 418 418 418 418 418 418 418 418 418 418 418 418 418 418 418 418 418 418 418 418 418 418 418 418 418 418 418 418 418 418 418 418 418 418 418 418 418 418 418 418 418 418 418 418 418 418 418 418 418 418 418 418 418 418 418 418 418 418 418 418 418 418 418 418 418 418 418 418 418 418 418 418 418 418 418 418 418 418 418 418 418 418 418 418 418 418 418 418 418 418 418 418 418 418 418 418 418 418 418 418 418 418 418 418 418 418 418 418 418 418 418 418 418 418 418 418 418 418 418 418 418 418 418 418 418 418 418 418 418 418 418 418 418 418 418 418 418 418 418 418 418 418 418 418 418 418 418 418 418 418 418 418 418 418 418 418 418 418 418 418 418 418 418 418 418 418 418 418 418 418 418 418 418 418 418 418 418 418 418 418 418 418 418 418 418 418 418 418 418 418 418 418 418 418 418 418 418 418 418 418 418 418 418 418 418 418 418 418 418 418 418 418 418 418 418 418 418 418 418 418 418 418 418 418 418 418 418 418 418 418 418 418 418 418 418 418 418 418 418 418 418 418 418 418 418 418 418 418 419 419 419 419 419 419 420 420 420 420 420 420 419 419 419 419 420 420 420 420 420 421 421 421 422 422 422 423 423 424 424 425 426 426 427 427 428 428 429 429 429 430 430 430 430 430 430 430 431 432 432 433 434 435 435 435 435 436 438 440 441 442 443 444 444 444 442 441 440 435 436 445 453 456 452 452 455 458 458 459 461 463 464 468 474 478 488 494 500 506 507 509 516 527 529 519 506 493 491 492 488 485 475 467 462 459 458 458 459 458 461 482 497 496 484 470 465 465 482 497 500 504 509 517 532 543 553 567 573 578 580 580 579 577 572 560 545 532 516 501 493 488 488 488 486 489 494 496 489 479 472 468 464 461 459 456 453 451 449 448 446 443 444 446 448 455 462 455 447 445 447 449 449 449 450 453 453 460 471 472 478 483 479 473 471 475 484 485 483 486 497 500 496 499 504 495 491 492 494 490 484 479 472 467 467 471 473 475 474 473 470 472 471 463 453 448 446 448 450 452 453 451 448 446 441 437 433 429 426 431 434 435 434 432 432 431 431 432 432 432 431 430 430 432 436 439 440 433 428 431 441 454 463 473 481 490 497 504 502 500 500 508 520 529 537 539 543 546 548 552 554 555 559 558 564 570 575 579 582 583 578 575 575 578 578 574 567 554 528 532 543 543 543 545 551 557 562 564 565 563 565 578 585 588 592 601 620 624 625 626 621 616 619 619 617 609 607 598 597 606 616 624 624 611 590 600 588 567 555 551 547 538 532 531 531 529 517 493 482 487 504 515 521 519 515 515 520 529 534 533 530 524 509 494 486 489 488 489 501 508 517 517 515 512 516 520 519 520 518 516 512 494 485 490 495 498 496 493 491 496 502 504 504 502 502 500 499 493 492 500 505 513 518 523 524 524 523 519 515 514 515 517 515 515 512 506 499 493 492 497 503 510 514 521 526 531 535 531 532 530 529 529 529 530 530 525 520 517 513 513 504 494 485 489 500 510 508 499 498 499 500 505 513 523 534 533 530 528 531 535 537 539 539 539 542 544 546 544 544 545 546 547 551 557 562 565 570 575 580 583 584 588 593 600 608 604 593 586 581 571 563 570 584 602 618 630 641 649 649 645 642 639 636 630 624 621 623 625 638 660 675 686 702 722 738 744
 757 743 720 704 694 687 680 669 655 643 634 632 630 625 618 613 610 606 600 591 578 568 555 543 534 523 506 490 476 462 445 432 430 429 430 431 431 428 426 426 426 425 425 425 426 426 428 428 427 428 429 429 429 429 429 428 428 429 430 432 431 431 432 432 429 427 428 429 429 430 431 431 432 433 434 434 431 429 428 428 427 427 427 427 428 427 426 428 430 431 432 431 427 424 424 424 424 422 422 422 422 422 422 423 423 423 423 424 425 426 425 424 423 423 424 425 424 423 423 423 423 424 424 425 424 425 425 424 423 423 423 422 422 422 422 422 423 422 422 423 423 421 420 420 420 421 422 422 423 424 425 427 428 429 428 428 428 429 429 430 430 430 429 428 429 429 428 426 426 426 425 425 425 425 426 426 427 426 426 427 427 426 426 426 426 426 427 427 426 426 425 426 426 426 426 426 425 425 425 425 425 425 425 425 425 425 424 424 423 424 424 425 425 425 425 425 425 424 424 425 426 426 426 429 433 435 433 430 428 425 424 422 421 421 420 420 420 420 420 420 420 420 419 419 419 419 418 418 418 417 417 417 417 417 417 417 417 416 416 416 416 416 416 416 417 417 417 417 418 418 418 418 418 419 418 418 418 418 418 418 418 418 418 418 418 418 418 418 418 418 418 418 418 418 418 418 418 418 418 418 418 418 418 418 418 418 418 418 418 418 418 418 418 418 418 418 418 418 418 418 418 418 418 418 418 418 418 418 418 418 418 418 418 418 418 418 418 418 418 418 418 418 418 418 418 418 418 418 418 418 418 418 418 418 418 418 418 418 418 418 418 418 418 418 418 418 418 418 418 418 418 418 418 418 418 418 418 418 418 418 418 418 418 418 418 418 418 418 418 418 418 418 418 418 418 418 418 418 418 418 418 418 418 418 418 418 418 418 418 418 418 418 418 418 418 418 418 418 418 418 418 418 418 418 418 418 418 418 418 418 418 418 418 418 418 418 418 418 418 418 418 418 418 418 418 418 418 418 418 418 418 418 418 418 418 418 418 418 418 418 418 418 418 418 418 418 418 418 418 418 418 418 418 418 418 418 418 418 418 418 418 418 418 418 418 418 418 418 418 418 418 418 418 418 418 418 418 418 418 418 418 418 418 418 418 418 418 418 418 418 418 418 418 418 418 418 418 418 418 418 418 418 418 418 418 418 418 418 418 418 418 418 418 418 418 418 419 419 420 420 420 420 420 421 421 422 422 423 423 424 424 425 425 425 426 426 427 427 427 427 427 428 428 428 428 429 429 430 431 432 432 433 433 434 434 436 437 438 439 439 440 440 440 439 438 437 435 436 439 441 442 442 442 444 445 444 440 441 446 453 458 463 466 475 482 485 491 493 492 490 491 489 486 482 480 479 481 478 475 469 462 455 450 452 453 453 451 452 460 474 477 465 456 450 452 462 479 489 491 495 504 513 525 539 550 553 557 554 545 540 535 526 516 504 490 472 466 464 465 470 474 478 477 481 482 474 467 464 459 457 455 451 449 445 443 439 434 433 433 436 440 443 448 452 450 446 444 444 446 446 445 444 444 445 445 449 451 451 455 455 454 455 456 459 463 459 459 462 465 472 476 475 474 477 479 480 476 469 455 448 445 446 455 462 466 466 465 463 462 460 452 443 438 437 439 439 440 444 441 439 438 435 433 427 424 425 428 431 432 431 431 431 430 430 430 430 430 430 430 430 431 433 434 433 429 426 425 429 437 446 457 461 465 471 476 481 482 484 490 493 493 495 497 498 502 507 513 523 529 534 533 535 536 530 530 540 545 543 541 542 542 540 535 528 516 496 487 484 476 470 479 481 481 486 494 506 513 518 526 538 547 554 563 578 581 583 584 579 579 574 575 577 581 577 573 583 599 610 611 594 571 555 542 525 508 499 508 507 496 485 479 475 474 468 457 455 457 465 473 479 482 483 485 492 501 505 501 497 489 477 469 464 462 462 472 486 488 489 490 487 489 495 499 502 504 498 493 492 480 471 478 483 490 492 488 485 485 484 479 482 485 486 488 489 478 470 476 486 490 491 492 494 500 501 496 488 486 488 489 491 496 500 497 492 481 470 480 490 496 496 501 509 517 520 515 514 517 519 519 517 517 515 511 509 508 506 501 489 479 475 477 484 492 493 493 494 494 496 507 517 524 526 523 523 523 525 529 533 535 536 534 534 533 533 534 534 534 536 539 544 551 556 560 563 568 571 573 575 579 584 589 588 577 568 563 554 543 541 558 582 602 618 628 638 646 644 635 626 618 610 602 598 596 595 597 610 634 651 664 677 694 709 719
 762 756 740 724 711 702 695 685 670 656 643 636 634 631 624 619 615 613 610 606 598 591 580 570 560 548 535 524 512 494 470 444 435 432 430 430 429 429 428 428 428 427 425 424 425 427 428 427 427 428 429 429 429 429 429 428 428 429 430 430 430 431 431 431 430 430 431 431 429 429 429 430 432 434 434 433 432 431 431 430 430 430 429 428 428 426 427 429 431 432 434 433 429 426 424 424 424 423 422 422 422 422 422 423 423 424 423 423 424 424 425 424 424 425 425 426 426 425 425 424 425 425 425 425 425 426 426 425 424 424 423 423 423 423 423 424 424 423 423 423 424 424 423 422 422 423 424 424 425 426 426 426 427 427 428 428 428 427 428 428 427 427 427 428 428 428 426 426 426 427 426 425 424 423 424 424 425 424 424 424 424 424 424 424 425 426 428 428 427 426 425 425 425 425 426 426 424 424 424 425 424 425 425 426 426 426 425 425 424 424 424 425 426 426 427 428 427 424 424 425 426 426 425 426 428 431 432 432 431 429 428 424 420 420 420 420 420 420 420 420 420 420 420 419 419 419 418 418 417 417 417 416 416 416 416 416 416 416 415 415 415 415 415 416 416 416 417 417 417 418 418 418 419 419 419 419 419 419 419 419 419 419 419 419 419 419 419 419 419 419 419 419 419 418 418 418 418 418 418 418 418 418 418 418 418 418 418 418 418 418 418 418 418 418 418 418 418 418 418 418 418 418 418 418 418 418 418 418 418 418 418 418 418 418 418 418 418 418 418 418 418 418 418 418 418 418 418 418 418 418 418 418 418 418 418 418 418 418 418 418 418 418 418 418 418 418 418 418 418 418 418 418 418 418 418 418 418 418 418 418 418 418 418 418 418 418 418 418 418 418 418 418 418 418 418 418 418 418 418 418 418 418 418 418 418 418 418 418 418 418 418 418 418 418 418 418 418 418 418 418 418 418 418 418 418 418 418 418 418 418 418 418 418 418 418 418 418 418 418 418 418 418 418 418 418 418 418 418 418 418 418 418 418 418 418 418 418 418 418 418 418 418 418 418 418 418 418 418 418 418 418 418 418 418 418 418 418 418 418 418 418 418 418 418 418 418 418 418 418 418 418 418 418 418 418 418 418 418 418 418 418 418 418 418 418 418 418 418 418 418 418 418 418 418 418 418 418 418 418 418 418 418 418 418 418 418 418 418 418 418 418 418 418 418 418 418 418 418 418 418 418 418 418 419 420 420 420 421 421 422 422 423 423 423 423 424 424 424 425 425 425 425 426 426 426 427 427 428 428 429 430 430 431 431 432 433 434 435 436 436 437 437 437 436 436 435 435 435 437 438 439 438 439 440 441 439 433 429 432 439 442 447 452 455 464 469 471 471 474 478 478 478 474 469 469 469 468 468 466 460 453 445 444 444 446 447 448 448 451 454 452 448 442 438 439 446 449 463 474 478 492 500 504 514 518 523 525 517 511 503 494 490 489 477 463 452 445 445 445 456 458 459 461 465 466 461 457 459 453 449 447 446 445 442 437 432 429 430 432 434 437 440 444 446 445 444 442 442 442 442 442 442 442 441 440 438 437 437 436 434 433 432 434 438 442 442 438 437 441 443 447 454 460 465 467 462 456 449 444 445 445 446 451 456 458 459 458 457 455 452 447 442 438 436 434 431 429 430 430 431 431 428 425 423 424 425 427 428 429 430 429 429 429 429 429 429 429 429 429 429 430 431 431 430 428 426 425 427 430 437 444 445 444 449 455 459 461 459 452 452 455 462 463 462 472 480 486 495 498 499 499 497 495 494 494 501 506 502 501 503 505 501 489 483 472 461 442 438 436 424 423 427 431 434 440 446 449 451 461 469 479 492 502 517 531 540 544 547 550 533 532 545 554 557 554 554 570 574 561 540 525 513 505 495 481 473 484 485 472 459 450 446 444 439 437 440 440 440 442 446 451 454 457 463 469 471 467 462 454 446 441 440 439 441 448 459 465 464 464 461 467 474 476 473 466 468 474 478 463 450 448 448 448 447 447 450 453 452 453 464 476 477 476 472 462 456 461 471 473 474 472 473 474 471 468 465 462 458 457 462 471 474 479 477 457 449 461 473 479 481 484 483 483 492 491 494 504 509 510 510 512 512 508 501 492 489 483 473 470 472 477 479 481 484 489 491 489 495 503 507 511 513 516 518 519 519 521 522 524 527 527 527 526 524 523 523 523 522 525 533 541 547 552 556 560 562 563 564 569 574 572 563 551 545 540 529 523 529 552 576 597 614 623 630 633 627 615 605 597 588 583 584 584 583 584 596 619 632 643 654 666 683 696
 761 756 746 733 722 713 709 703 685 666 649 639 634 631 625 619 615 612 610 605 598 591 586 581 575 565 554 544 531 514 492 464 446 437 431 429 428 429 429 429 429 428 425 425 426 427 427 427 427 428 429 430 431 430 429 429 429 429 429 429 429 430 430 430 430 431 432 431 429 428 429 430 431 432 433 432 432 432 432 432 432 431 431 430 430 428 429 431 432 432 433 432 430 429 426 425 425 425 424 424 424 424 424 424 425 425 425 425 425 424 424 425 425 425 425 426 426 426 426 425 425 425 426 426 425 426 426 425 425 425 425 425 425 424 424 424 424 424 424 424 425 425 425 424 424 424 424 425 426 427 426 426 426 427 429 428 427 427 427 428 426 425 426 428 429 428 426 426 427 428 427 427 425 424 423 423 423 423 423 423 423 423 424 424 426 428 430 431 429 427 426 426 425 425 427 427 425 424 424 424 423 423 424 425 425 425 425 425 425 424 424 425 425 426 427 428 427 425 424 425 425 425 426 425 425 427 428 429 431 433 432 428 422 419 419 419 420 420 420 420 420 420 420 420 419 419 418 418 417 417 416 416 416 416 416 416 416 415 415 414 413 414 415 415 416 416 416 417 417 418 418 418 419 419 419 419 419 419 419 419 419 419 419 419 419 419 419 419 419 419 419 419 419 419 419 419 418 418 418 418 418 418 418 418 418 418 418 418 418 418 418 418 418 418 418 418 418 418 418 418 418 418 418 418 418 418 418 418 418 418 418 418 418 418 418 418 418 418 418 418 418 418 418 418 418 418 418 418 418 418 418 418 418 418 418 418 418 418 418 418 418 418 418 418 418 418 418 418 418 418 418 418 418 418 418 418 418 418 418 418 418 418 418 418 418 418 418 418 418 418 418 418 418 418 418 418 418 418 418 418 418 418 418 418 418 418 418 418 418 418 418 418 418 418 418 418 418 418 418 418 418 418 418 418 418 418 418 418 418 418 418 418 418 418 418 418 418 418 418 418 418 418 418 418 418 418 418 418 418 418 418 418 418 418 418 418 418 418 418 418 418 418 418 418 418 418 418 418 418 418 418 418 418 418 418 418 418 418 418 418 418 418 418 418 418 418 418 418 418 418 418 418 418 418 418 418 418 418 418 418 418 418 418 418 418 418 418 418 418 418 418 418 418 418 418 418 418 418 418 418 418 418 418 418 418 418 418 418 418 418 418 418 418 418 418 418 418 418 418 418 418 418 418 418 418 418 419 419 419 420 420 421 421 421 421 421 422 422 423 423 423 423 424 424 424 425 425 426 426 427 428 428 429 429 430 431 432 432 433 434 434 434 434 434 434 434 434 434 435 436 436 437 437 438 438 436 432 430 432 434 434 436 441 440 448 454 458 461 464 462 461 461 460 461 460 456 459 462 460 453 444 438 438 440 440 440 440 440 441 438 435 433 431 428 428 431 434 437 449 458 469 476 478 487 494 497 499 491 485 481 481 480 476 464 452 443 436 433 432 443 448 453 459 463 462 452 450 456 450 445 442 437 433 431 429 427 426 429 431 433 436 438 440 442 442 441 440 440 440 440 440 439 439 439 438 436 435 434 432 430 426 426 428 434 437 437 433 429 430 432 437 442 449 456 455 453 451 447 444 444 444 446 448 451 453 453 453 452 450 448 444 440 437 435 433 430 429 429 429 428 428 426 424 423 424 425 426 427 428 428 428 428 428 428 428 428 428 428 428 428 429 429 429 429 428 427 427 428 430 434 438 440 441 444 447 450 450 448 443 442 443 448 452 455 461 467 472 471 471 474 473 469 469 479 486 488 483 475 472 476 481 481 466 459 453 443 430 424 419 413 410 411 413 413 418 422 423 428 442 447 449 456 464 482 511 526 531 535 539 526 507 518 526 526 525 519 523 523 517 508 500 483 475 471 469 469 472 472 465 457 450 445 441 437 435 434 433 432 432 435 439 441 444 448 451 452 448 444 437 435 431 428 429 429 431 435 440 448 448 445 447 450 449 444 443 449 459 455 441 436 436 434 432 430 430 433 435 436 438 451 469 475 464 455 451 448 447 452 454 450 448 448 450 450 450 447 442 439 439 443 452 455 457 450 439 438 446 451 453 451 453 457 457 465 471 475 491 501 506 509 510 508 501 487 475 470 466 465 468 472 478 478 478 483 485 483 484 489 495 502 506 506 507 507 512 516 515 514 514 515 516 517 516 514 513 514 514 512 515 523 533 539 544 548 550 552 553 555 560 564 560 546 534 527 522 517 518 529 551 570 589 606 614 618 616 608 598 590 585 576 571 573 575 574 575 587 609 622 635 646 653 663 678
 760 754 749 741 733 727 722 715 699 678 653 638 632 629 623 617 611 607 603 596 589 584 581 579 575 569 561 554 545 531 517 496 476 462 448 435 430 428 428 429 429 429 428 427 427 427 427 427 428 428 429 430 431 430 429 429 429 429 429 429 430 430 429 430 432 431 430 429 428 428 429 430 430 430 430 430 430 431 431 431 431 431 431 431 431 431 431 432 432 431 431 431 430 430 429 427 426 427 427 426 426 426 426 426 426 426 426 426 426 425 425 425 425 425 425 426 426 426 426 426 425 426 426 426 426 426 426 426 426 425 425 425 425 425 425 425 425 425 425 425 425 425 425 425 424 424 424 425 425 426 426 426 426 428 428 428 427 427 428 429 427 426 425 427 429 428 426 426 427 428 427 428 427 425 424 423 423 423 423 424 424 424 425 425 427 430 431 432 431 429 427 426 426 426 427 428 428 429 428 425 424 423 424 424 424 424 424 424 424 423 423 425 425 425 425 426 425 424 425 425 425 426 427 426 425 425 425 425 427 432 434 432 427 420 418 419 420 420 421 420 420 420 420 420 420 419 418 417 417 416 415 415 415 415 416 416 416 415 413 412 411 412 413 415 415 415 416 416 417 417 418 418 419 419 419 419 420 420 420 420 420 420 420 420 420 420 420 420 420 420 420 420 420 420 420 420 419 419 418 418 418 418 418 418 418 418 418 418 418 418 418 418 418 418 418 418 418 418 418 418 418 418 418 418 418 418 418 418 418 418 418 418 418 418 418 418 418 418 418 418 418 418 418 418 418 418 418 418 418 418 418 418 418 418 418 418 418 418 418 418 418 418 418 418 418 418 418 418 418 418 418 418 418 418 418 418 418 418 418 418 418 418 418 418 418 418 418 418 418 418 418 418 418 418 418 418 418 418 418 418 418 418 418 418 418 418 418 418 418 418 418 418 418 418 418 418 418 418 418 418 418 418 418 418 418 418 418 418 418 418 418 418 418 418 418 418 418 418 418 418 418 418 418 418 418 418 418 418 418 418 418 418 418 418 418 418 418 418 418 418 418 418 418 418 418 418 418 418 418 418 418 418 418 418 418 418 418 418 418 418 418 418 418 418 418 418 418 418 418 418 418 418 418 418 418 418 418 418 418 418 418 418 418 418 418 418 418 418 418 418 418 418 418 418 418 418 418 418 418 418 418 418 418 418 418 418 418 418 418 418 418 418 418 418 418 418 418 418 418 418 418 418 418 418 418 418 418 418 418 418 419 419 419 419 419 419 419 420 421 421 421 421 421 421 422 422 423 423 424 425 425 426 426 427 428 428 429 430 430 431 431 432 432 432 432 432 432 432 433 433 434 434 435 435 434 433 432 431 431 431 432 433 434 432 432 437 445 453 453 446 445 451 452 453 451 444 438 442 440 432 430 430 430 433 433 432 431 432 431 428 426 426 425 425 426 428 429 428 428 430 437 442 447 454 465 463 460 462 465 470 471 470 465 457 450 442 436 433 430 432 437 443 450 453 451 444 440 444 440 437 432 427 425 425 426 426 426 428 430 432 433 435 437 438 438 438 438 437 437 437 437 437 436 436 435 434 433 432 430 428 426 426 428 431 433 433 431 429 429 431 435 439 444 448 449 448 446 444 443 442 442 443 445 446 447 447 447 446 445 443 441 438 436 434 432 430 429 428 428 427 427 426 425 425 425 425 426 426 427 427 427 427 427 427 427 427 427 427 427 427 427 428 428 428 427 427 427 428 430 432 435 437 439 441 443 445 445 444 443 443 444 446 449 452 456 460 462 462 462 463 464 463 465 470 475 475 472 467 465 466 467 466 459 453 447 439 431 426 421 417 415 414 414 415 417 419 422 425 432 436 438 444 452 469 497 513 518 521 524 516 505 505 509 509 505 499 496 497 495 490 482 474 468 465 463 463 463 461 457 452 447 443 440 437 435 433 432 432 433 434 436 438 441 443 444 444 441 438 433 430 427 424 424 424 427 429 428 431 431 433 434 433 433 431 430 433 438 435 427 424 424 422 420 419 419 421 424 426 430 440 451 462 456 447 444 440 437 437 439 436 435 435 434 433 432 432 431 428 426 427 427 428 430 429 428 428 429 430 429 429 430 432 433 435 442 452 464 478 486 485 484 484 479 472 457 453 454 457 460 467 474 476 478 482 480 476 479 479 482 489 495 498 496 496 500 505 507 509 508 503 502 506 504 503 503 503 503 503 506 514 524 527 530 535 538 539 541 543 549 555 552 536 517 507 505 511 521 538 557 571 587 598 603 603 596 589 582 576 569 558 553 557 564 569 574 588 604 616 628 638 642 642 652
 761 756 751 745 737 729 722 712 697 678 653 635 628 623 617 610 604 600 595 587 581 577 572 569 566 560 555 551 548 541 532 520 506 494 479 461 445 435 430 429 430 430 429 427 427 427 428 429 428 428 429 431 432 431 429 429 430 430 429 429 429 428 428 430 431 430 429 429 428 428 429 429 429 429 429 429 429 429 428 427 427 427 428 428 429 430 429 429 429 429 430 429 429 429 429 428 427 426 426 427 427 427 426 426 426 426 426 426 426 425 425 425 425 425 425 425 425 425 425 425 425 425 425 425 425 425 425 425 425 425 425 426 426 426 426 426 426 426 426 425 425 425 425 425 424 424 425 425 425 425 425 426 427 427 426 426 426 426 427 427 427 426 426 426 426 426 425 426 427 427 427 427 426 425 425 425 424 424 424 425 425 426 426 426 427 430 431 432 431 429 427 426 425 426 427 428 431 435 434 428 424 424 424 425 425 424 425 424 423 423 423 424 425 425 424 424 424 424 424 424 424 426 427 425 425 425 426 428 431 434 435 433 428 424 421 421 421 421 422 421 421 421 420 420 420 420 421 422 421 420 420 419 418 417 417 418 418 417 416 413 411 411 413 415 415 415 415 416 417 417 418 418 419 419 420 420 420 420 420 420 420 421 421 421 421 420 420 420 420 420 420 420 420 420 421 421 420 419 418 418 418 418 418 418 418 418 418 418 418 418 418 418 418 418 418 418 418 418 418 418 418 418 418 418 418 418 418 418 418 418 418 418 418 418 418 418 418 418 418 418 418 418 418 418 418 418 418 418 418 418 418 418 418 418 418 418 418 418 418 418 418 418 418 418 418 418 418 418 418 418 418 418 418 418 418 418 418 418 418 418 418 418 418 418 418 418 418 418 418 418 418 418 418 418 418 418 418 418 418 418 418 418 418 418 418 418 418 418 418 418 418 418 418 418 418 418 418 418 418 418 418 418 418 418 418 418 418 418 418 418 418 418 418 418 418 418 418 418 418 418 418 418 418 418 418 418 418 418 418 418 418 418 418 418 418 418 418 418 418 418 418 418 418 418 418 418 418 418 418 418 418 418 418 418 418 418 418 418 418 418 418 418 418 418 418 418 418 418 418 418 418 418 418 418 418 418 418 418 418 418 418 418 418 418 418 418 418 418 418 418 418 418 418 418 418 418 418 418 418 418 418 418 418 418 418 418 418 418 418 418 418 418 418 418 418 418 418 418 418 418 418 418 418 418 418 418 418 418 418 418 418 418 418 418 418 418 418 419 419 419 419 419 419 419 419 420 421 421 421 422 423 423 424 424 425 426 426 427 428 428 429 429 429 430 430 430 430 430 431 431 432 432 432 432 432 431 431 430 430 430 430 431 431 431 432 436 441 446 447 445 445 446 447 446 444 438 431 428 427 424 424 425 425 425 425 425 427 428 428 427 426 425 424 424 425 426 427 427 428 430 434 438 442 447 453 454 454 455 458 461 462 460 457 452 447 441 437 434 433 434 437 440 442 439 434 433 432 431 429 426 423 420 422 424 425 426 426 427 429 430 432 433 434 434 435 435 435 435 434 434 434 434 434 433 432 432 431 430 428 427 426 427 428 429 431 431 430 429 429 431 433 436 439 442 443 442 442 441 440 440 440 440 441 442 442 442 442 441 440 439 437 435 434 432 430 429 428 427 427 426 426 425 425 425 425 425 425 425 425 426 426 426 425 425 425 425 425 425 425 425 426 426 426 426 426 426 427 428 429 431 432 434 435 437 438 440 440 441 440 441 442 443 446 448 451 454 455 456 457 458 458 459 460 463 465 465 463 460 459 458 457 455 452 447 442 437 431 427 423 420 418 417 417 417 419 421 423 426 430 433 438 444 451 464 482 494 501 504 505 502 497 496 496 494 492 489 486 485 482 478 473 468 464 461 459 457 456 454 451 447 444 441 438 436 434 433 432 432 432 433 434 436 437 439 439 439 437 434 431 427 425 423 423 424 424 424 423 423 423 424 424 423 424 424 423 423 423 421 418 416 414 413 412 413 414 416 419 422 426 432 436 441 439 434 431 432 431 430 429 428 428 428 427 426 427 428 426 423 421 420 421 421 424 425 424 424 427 428 424 421 422 423 426 427 428 431 435 442 449 452 451 450 455 451 448 449 451 453 456 463 468 473 477 476 473 470 471 469 469 473 476 480 485 491 494 494 497 498 498 495 494 495 495 495 494 494 493 495 497 503 511 515 515 519 525 528 529 530 538 546 540 519 501 497 501 517 532 548 565 577 588 591 590 586 580 575 568 559 549 540 541 550 567 578 587 601 611 616 620 622 623 628 643
